src/assets/luts/airy.cube
TITLE "通透亮调"
LUT_3D_SIZE 9
DOMAIN_MIN 0.0 0.0 0.0
DOMAIN_MAX 1.0 1.0 1.0
# LumEdit built-in LUT · 清透提亮，冷白肤色
 0.08808  0.08808  0.09700
 0.19197  0.09036  0.09929
 0.29585  0.09265  0.10158
 0.39974  0.09494  0.10386
 0.50363  0.09722  0.10615
 0.60752  0.09951  0.10844
 0.71141  0.10180  0.11072
 0.81530  0.10408  0.11301
 0.91919  0.10637  0.11530
 0.09257  0.19417  0.10149
 0.19645  0.19645  0.10378
 0.30034  0.19874  0.10607
 0.40423  0.20103  0.10835
 0.50812  0.20331  0.11064
 0.61201  0.20560  0.11293
 0.71590  0.20789  0.11521
 0.81979  0.21017  0.11750
 0.92368  0.21246  0.11979
 0.09705  0.30026  0.10598
 0.20094  0.30255  0.10827
 0.30483  0.30483  0.11056
 0.40872  0.30712  0.11284
 0.51261  0.30941  0.11513
 0.61650  0.31169  0.11742
 0.72039  0.31398  0.11970
 0.82428  0.31627  0.12199
 0.92817  0.31855  0.12428
 0.10154  0.40635  0.11047
 0.20543  0.40864  0.11276
 0.30932  0.41092  0.11505
 0.41321  0.41321  0.11733
 0.51710  0.41550  0.11962
 0.62099  0.41778  0.12190
 0.72488  0.42007  0.12419
 0.82877  0.42236  0.12648
 0.93266  0.42464  0.12876
 0.10603  0.51244  0.11496
 0.20992  0.51473  0.11725
 0.31381  0.51702  0.11953
 0.41770  0.51930  0.12182
 0.52159  0.52159  0.12411
 0.62548  0.52388  0.12639
 0.72937  0.52616  0.12868
 0.83326  0.52845  0.13097
 0.93715  0.53074  0.13325
 0.11052  0.61853  0.11945
 0.21441  0.62082  0.12174
 0.31830  0.62311  0.12402
 0.42219  0.62539  0.12631
 0.52608  0.62768  0.12860
 0.62997  0.62997  0.13088
 0.73386  0.63225  0.13317
 0.83775  0.63454  0.13546
 0.94163  0.63683  0.13774
 0.11501  0.72463  0.12394
 0.21890  0.72691  0.12623
 0.32279  0.72920  0.12851
 0.42668  0.73149  0.13080
 0.53057  0.73377  0.13309
 0.63446  0.73606  0.13537
 0.73835  0.73835  0.13766
 0.84223  0.74063  0.13995
 0.94612  0.74292  0.14223
 0.11950  0.83072  0.12843
 0.22339  0.83300  0.13071
 0.32728  0.83529  0.13300
 0.43117  0.83758  0.13529
 0.53506  0.83986  0.13757
 0.63895  0.84215  0.13986
 0.74283  0.84444  0.14215
 0.84672  0.84672  0.14443
 0.95061  0.84901  0.14672
 0.12399  0.93681  0.13292
 0.22788  0.93910  0.13520
 0.33177  0.94138  0.13749
 0.43566  0.94367  0.13978
 0.53955  0.94596  0.14206
 0.64343  0.94824  0.14435
 0.74732  0.95053  0.14664
 0.85121  0.95282  0.14892
 0.95510  0.95510  0.15121
 0.08894  0.08894  0.19840
 0.19283  0.09123  0.20069
 0.29672  0.09351  0.20297
 0.40061  0.09580  0.20526
 0.50450  0.09809  0.20755
 0.60838  0.10037  0.20983
 0.71227  0.10266  0.21212
 0.81616  0.10495  0.21441
 0.92005  0.10723  0.21669
 0.09343  0.19503  0.20289
 0.19732  0.19732  0.20518
 0.30121  0.19960  0.20746
 0.40510  0.20189  0.20975
 0.50898  0.20418  0.21204
 0.61287  0.20646  0.21432
 0.71676  0.20875  0.21661
 0.82065  0.21104  0.21890
 0.92454  0.21332  0.22118
 0.09792  0.30112  0.20738
 0.20181  0.30341  0.20967
 0.30570  0.30570  0.21195
 0.40958  0.30798  0.21424
 0.51347  0.31027  0.21652
 0.61736  0.31256  0.21881
 0.72125  0.31484  0.22110
 0.82514  0.31713  0.22338
 0.92903  0.31942  0.22567
 0.10241  0.40721  0.21187
 0.20630  0.40950  0.21415
 0.31018  0.41179  0.21644
 0.41407  0.41407  0.21873
 0.51796  0.41636  0.22101
 0.62185  0.41865  0.22330
 0.72574  0.42093  0.22559
 0.82963  0.42322  0.22787
 0.93352  0.42551  0.23016
 0.10690  0.51331  0.21636
 0.21078  0.51559  0.21864
 0.31467  0.51788  0.22093
 0.41856  0.52017  0.22322
 0.52245  0.52245  0.22550
 0.62634  0.52474  0.22779
 0.73023  0.52703  0.23008
 0.83412  0.52931  0.23236
 0.93801  0.53160  0.23465
 0.11138  0.61940  0.22085
 0.21527  0.62168  0.22313
 0.31916  0.62397  0.22542
 0.42305  0.62626  0.22771
 0.52694  0.62854  0.22999
 0.63083  0.63083  0.23228
 0.73472  0.63312  0.23457
 0.83861  0.63540  0.23685
 0.94250  0.63769  0.23914
 0.11587  0.72549  0.22533
 0.21976  0.72778  0.22762
 0.32365  0.73006  0.22991
 0.42754  0.73235  0.23219
 0.53143  0.73464  0.23448
 0.63532  0.73692  0.23677
 0.73921  0.73921  0.23905
 0.84310  0.74149  0.24134
 0.94699  0.74378  0.24363
 0.12036  0.83158  0.22982
 0.22425  0.83387  0.23211
 0.32814  0.83615  0.23440
 0.43203  0.83844  0.23668
 0.53592  0.84073  0.23897
 0.63981  0.84301  0.24126
 0.74370  0.84530  0.24354
 0.84759  0.84759  0.24583
 0.95148  0.84987  0.24812
 0.12485  0.93767  0.23431
 0.22874  0.93996  0.23660
 0.33263  0.94225  0.23889
 0.43652  0.94453  0.24117
 0.54041  0.94682  0.24346
 0.64430  0.94910  0.24575
 0.74819  0.95139  0.24803
 0.85208  0.95368  0.25032
 0.95596  0.95596  0.25261
 0.08980  0.08980  0.29980
 0.19369  0.09209  0.30208
 0.29758  0.09438  0.30437
 0.40147  0.09666  0.30666
 0.50536  0.09895  0.30894
 0.60925  0.10123  0.31123
 0.71314  0.10352  0.31352
 0.81703  0.10581  0.31580
 0.92091  0.10809  0.31809
 0.09429  0.19589  0.30428
 0.19818  0.19818  0.30657
 0.30207  0.20047  0.30886
 0.40596  0.20275  0.31114
 0.50985  0.20504  0.31343
 0.61374  0.20733  0.31572
 0.71763  0.20961  0.31800
 0.82151  0.21190  0.32029
 0.92540  0.21419  0.32258
 0.09878  0.30199  0.30877
 0.20267  0.30427  0.31106
 0.30656  0.30656  0.31335
 0.41045  0.30884  0.31563
 0.51434  0.31113  0.31792
 0.61823  0.31342  0.32021
 0.72211  0.31570  0.32249
 0.82600  0.31799  0.32478
 0.92989  0.32028  0.32707
 0.10327  0.40808  0.31326
 0.20716  0.41036  0.31555
 0.31105  0.41265  0.31784
 0.41494  0.41494  0.32012
 0.51883  0.41722  0.32241
 0.62271  0.41951  0.32470
 0.72660  0.42180  0.32698
 0.83049  0.42408  0.32927
 0.93438  0.42637  0.33156
 0.10776  0.51417  0.31775
 0.21165  0.51645  0.32004
 0.31554  0.51874  0.32233
 0.41943  0.52103  0.32461
 0.52331  0.52331  0.32690
 0.62720  0.52560  0.32919
 0.73109  0.52789  0.33147
 0.83498  0.53017  0.33376
 0.93887  0.53246  0.33605
 0.11225  0.62026  0.32224
 0.21614  0.62255  0.32453
 0.32003  0.62483  0.32681
 0.42391  0.62712  0.32910
 0.52780  0.62941  0.33139
 0.63169  0.63169  0.33367
 0.73558  0.63398  0.33596
 0.83947  0.63627  0.33825
 0.94336  0.63855  0.34053
 0.11674  0.72635  0.32673
 0.22063  0.72864  0.32902
 0.32451  0.73092  0.33130
 0.42840  0.73321  0.33359
 0.53229  0.73550  0.33588
 0.63618  0.73778  0.33816
 0.74007  0.74007  0.34045
 0.84396  0.74236  0.34274
 0.94785  0.74464  0.34502
 0.12123  0.83244  0.33122
 0.22511  0.83473  0.33351
 0.32900  0.83702  0.33579
 0.43289  0.83930  0.33808
 0.53678  0.84159  0.34037
 0.64067  0.84388  0.34265
 0.74456  0.84616  0.34494
 0.84845  0.84845  0.34723
 0.95234  0.85074  0.34951
 0.12571  0.93853  0.33571
 0.22960  0.94082  0.33800
 0.33349  0.94311  0.34028
 0.43738  0.94539  0.34257
 0.54127  0.94768  0.34485
 0.64516  0.94997  0.34714
 0.74905  0.95225  0.34943
 0.85294  0.95454  0.35171
 0.95683  0.95683  0.35400
 0.09066  0.09066  0.40119
 0.19455  0.09295  0.40348
 0.29844  0.09524  0.40576
 0.40233  0.09752  0.40805
 0.50622  0.09981  0.41034
 0.61011  0.10210  0.41262
 0.71400  0.10438  0.41491
 0.81789  0.10667  0.41720
 0.92178  0.10896  0.41948
 0.09515  0.19676  0.40568
 0.19904  0.19904  0.40797
 0.30293  0.20133  0.41025
 0.40682  0.20362  0.41254
 0.51071  0.20590  0.41483
 0.61460  0.20819  0.41711
 0.71849  0.21048  0.41940
 0.82238  0.21276  0.42169
 0.92627  0.21505  0.42397
 0.09964  0.30285  0.41017
 0.20353  0.30513  0.41246
 0.30742  0.30742  0.41474
 0.41131  0.30971  0.41703
 0.51520  0.31199  0.41932
 0.61909  0.31428  0.42160
 0.72298  0.31657  0.42389
 0.82687  0.31885  0.42618
 0.93076  0.32114  0.42846
 0.10413  0.40894  0.41466
 0.20802  0.41123  0.41695
 0.31191  0.41351  0.41923
 0.41580  0.41580  0.42152
 0.51969  0.41809  0.42381
 0.62358  0.42037  0.42609
 0.72747  0.42266  0.42838
 0.83136  0.42495  0.43066
 0.93524  0.42723  0.43295
 0.10862  0.51503  0.41915
 0.21251  0.51732  0.42143
 0.31640  0.51960  0.42372
 0.42029  0.52189  0.42601
 0.52418  0.52418  0.42829
 0.62807  0.52646  0.43058
 0.73196  0.52875  0.43287
 0.83584  0.53104  0.43515
 0.93973  0.53332  0.43744
 0.11311  0.62112  0.42364
 0.21700  0.62341  0.42592
 0.32089  0.62570  0.42821
 0.42478  0.62798  0.43050
 0.52867  0.63027  0.43278
 0.63256  0.63256  0.43507
 0.73644  0.63484  0.43736
 0.84033  0.63713  0.43964
 0.94422  0.63942  0.44193
 0.11760  0.72721  0.42813
 0.22149  0.72950  0.43041
 0.32538  0.73179  0.43270
 0.42927  0.73407  0.43499
 0.53316  0.73636  0.43727
 0.63704  0.73865  0.43956
 0.74093  0.74093  0.44185
 0.84482  0.74322  0.44413
 0.94871  0.74551  0.44642
 0.12209  0.83331  0.43262
 0.22598  0.83559  0.43490
 0.32987  0.83788  0.43719
 0.43376  0.84017  0.43947
 0.53764  0.84245  0.44176
 0.64153  0.84474  0.44405
 0.74542  0.84703  0.44633
 0.84931  0.84931  0.44862
 0.95320  0.85160  0.45091
 0.12658  0.93940  0.43710
 0.23047  0.94168  0.43939
 0.33436  0.94397  0.44168
 0.43824  0.94626  0.44396
 0.54213  0.94854  0.44625
 0.64602  0.95083  0.44854
 0.74991  0.95312  0.45082
 0.85380  0.95540  0.45311
 0.95769  0.95769  0.45540
 0.09153  0.09153  0.50259
 0.19542  0.09381  0.50487
 0.29931  0.09610  0.50716
 0.40319  0.09839  0.50945
 0.50708  0.10067  0.51173
 0.61097  0.10296  0.51402
 0.71486  0.10525  0.51631
 0.81875  0.10753  0.51859
 0.92264  0.10982  0.52088
 0.09602  0.19762  0.50708
 0.19991  0.19991  0.50936
 0.30379  0.20219  0.51165
 0.40768  0.20448  0.51394
 0.51157  0.20677  0.51622
 0.61546  0.20905  0.51851
 0.71935  0.21134  0.52080
 0.82324  0.21362  0.52308
 0.92713  0.21591  0.52537
 0.10051  0.30371  0.51157
 0.20439  0.30600  0.51385
 0.30828  0.30828  0.51614
 0.41217  0.31057  0.51843
 0.51606  0.31286  0.52071
 0.61995  0.31514  0.52300
 0.72384  0.31743  0.52528
 0.82773  0.31972  0.52757
 0.93162  0.32200  0.52986
 0.10499  0.40980  0.51605
 0.20888  0.41209  0.51834
 0.31277  0.41438  0.52063
 0.41666  0.41666  0.52291
 0.52055  0.41895  0.52520
 0.62444  0.42123  0.52749
 0.72833  0.42352  0.52977
 0.83222  0.42581  0.53206
 0.93611  0.42809  0.53435
 0.10948  0.51589  0.52054
 0.21337  0.51818  0.52283
 0.31726  0.52047  0.52512
 0.42115  0.52275  0.52740
 0.52504  0.52504  0.52969
 0.62893  0.52733  0.53198
 0.73282  0.52961  0.53426
 0.83671  0.53190  0.53655
 0.94060  0.53419  0.53884
 0.11397  0.62199  0.52503
 0.21786  0.62427  0.52732
 0.32175  0.62656  0.52961
 0.42564  0.62884  0.53189
 0.52953  0.63113  0.53418
 0.63342  0.63342  0.53647
 0.73731  0.63570  0.53875
 0.84120  0.63799  0.54104
 0.94509  0.64028  0.54333
 0.11846  0.72808  0.52952
 0.22235  0.73036  0.53181
 0.32624  0.73265  0.53409
 0.43013  0.73494  0.53638
 0.53402  0.73722  0.53867
 0.63791  0.73951  0.54095
 0.74180  0.74180  0.54324
 0.84569  0.74408  0.54553
 0.94957  0.74637  0.54781
 0.12295  0.83417  0.53401
 0.22684  0.83645  0.53630
 0.33073  0.83874  0.53858
 0.43462  0.84103  0.54087
 0.53851  0.84331  0.54316
 0.64240  0.84560  0.54544
 0.74629  0.84789  0.54773
 0.85017  0.85017  0.55002
 0.95406  0.85246  0.55230
 0.12744  0.94026  0.53850
 0.23133  0.94255  0.54079
 0.33522  0.94483  0.54307
 0.43911  0.94712  0.54536
 0.54300  0.94941  0.54765
 0.64689  0.95169  0.54993
 0.75077  0.95398  0.55222
 0.85466  0.95627  0.55451
 0.95855  0.95855  0.55679
 0.09239  0.09239  0.60398
 0.19628  0.09468  0.60627
 0.30017  0.09696  0.60856
 0.40406  0.09925  0.61084
 0.50795  0.10154  0.61313
 0.61184  0.10382  0.61542
 0.71572  0.10611  0.61770
 0.81961  0.10840  0.61999
 0.92350  0.11068  0.62228
 0.09688  0.19848  0.60847
 0.20077  0.20077  0.61076
 0.30466  0.20305  0.61305
 0.40855  0.20534  0.61533
 0.51244  0.20763  0.61762
 0.61632  0.20991  0.61990
 0.72021  0.21220  0.62219
 0.82410  0.21449  0.62448
 0.92799  0.21677  0.62676
 0.10137  0.30457  0.61296
 0.20526  0.30686  0.61525
 0.30915  0.30915  0.61753
 0.41304  0.31143  0.61982
 0.51692  0.31372  0.62211
 0.62081  0.31601  0.62439
 0.72470  0.31829  0.62668
 0.82859  0.32058  0.62897
 0.93248  0.32287  0.63125
 0.10586  0.41066  0.61745
 0.20975  0.41295  0.61974
 0.31364  0.41524  0.62202
 0.41752  0.41752  0.62431
 0.52141  0.41981  0.62660
 0.62530  0.42210  0.62888
 0.72919  0.42438  0.63117
 0.83308  0.42667  0.63346
 0.93697  0.42896  0.63574
 0.11035  0.51676  0.62194
 0.21424  0.51904  0.62423
 0.31812  0.52133  0.62651
 0.42201  0.52362  0.62880
 0.52590  0.52590  0.63109
 0.62979  0.52819  0.63337
 0.73368  0.53048  0.63566
 0.83757  0.53276  0.63795
 0.94146  0.53505  0.64023
 0.11484  0.62285  0.62643
 0.21872  0.62513  0.62871
 0.32261  0.62742  0.63100
 0.42650  0.62971  0.63329
 0.53039  0.63199  0.63557
 0.63428  0.63428  0.63786
 0.73817  0.63657  0.64015
 0.84206  0.63885  0.64243
 0.94595  0.64114  0.64472
 0.11932  0.72894  0.63092
 0.22321  0.73123  0.63320
 0.32710  0.73351  0.63549
 0.43099  0.73580  0.63778
 0.53488  0.73809  0.64006
 0.63877  0.74037  0.64235
 0.74266  0.74266  0.64464
 0.84655  0.74495  0.64692
 0.95044  0.74723  0.64921
 0.12381  0.83503  0.63541
 0.22770  0.83732  0.63769
 0.33159  0.83960  0.63998
 0.43548  0.84189  0.64227
 0.53937  0.84418  0.64455
 0.64326  0.84646  0.64684
 0.74715  0.84875  0.64913
 0.85104  0.85104  0.65141
 0.95493  0.85332  0.65370
 0.12830  0.94112  0.63990
 0.23219  0.94341  0.64218
 0.33608  0.94570  0.64447
 0.43997  0.94798  0.64676
 0.54386  0.95027  0.64904
 0.64775  0.95256  0.65133
 0.75164  0.95484  0.65362
 0.85553  0.95713  0.65590
 0.95942  0.95942  0.65819
 0.09325  0.09325  0.70538
 0.19714  0.09554  0.70767
 0.30103  0.09783  0.70995
 0.40492  0.10011  0.71224
 0.50881  0.10240  0.71452
 0.61270  0.10469  0.71681
 0.71659  0.10697  0.71910
 0.82048  0.10926  0.72138
 0.92437  0.11155  0.72367
 0.09774  0.19934  0.70987
 0.20163  0.20163  0.71215
 0.30552  0.20392  0.71444
 0.40941  0.20620  0.71673
 0.51330  0.20849  0.71901
 0.61719  0.21078  0.72130
 0.72108  0.21306  0.72359
 0.82497  0.21535  0.72587
 0.92885  0.21764  0.72816
 0.10223  0.30544  0.71436
 0.20612  0.30772  0.71664
 0.31001  0.31001  0.71893
 0.41390  0.31230  0.72122
 0.51779  0.31458  0.72350
 0.62168  0.31687  0.72579
 0.72557  0.31916  0.72808
 0.82945  0.32144  0.73036
 0.93334  0.32373  0.73265
 0.10672  0.41153  0.71885
 0.21061  0.41381  0.72113
 0.31450  0.41610  0.72342
 0.41839  0.41839  0.72571
 0.52228  0.42067  0.72799
 0.62617  0.42296  0.73028
 0.73005  0.42525  0.73257
 0.83394  0.42753  0.73485
 0.93783  0.42982  0.73714
 0.11121  0.51762  0.72333
 0.21510  0.51991  0.72562
 0.31899  0.52219  0.72791
 0.42288  0.52448  0.73019
 0.52677  0.52677  0.73248
 0.63065  0.52905  0.73477
 0.73454  0.53134  0.73705
 0.83843  0.53362  0.73934
 0.94232  0.53591  0.74163
 0.11570  0.62371  0.72782
 0.21959  0.62600  0.73011
 0.32348  0.62828  0.73240
 0.42737  0.63057  0.73468
 0.53125  0.63286  0.73697
 0.63514  0.63514  0.73926
 0.73903  0.63743  0.74154
 0.84292  0.63972  0.74383
 0.94681  0.64200  0.74612
 0.12019  0.72980  0.73231
 0.22408  0.73209  0.73460
 0.32797  0.73438  0.73689
 0.43185  0.73666  0.73917
 0.53574  0.73895  0.74146
 0.63963  0.74123  0.74375
 0.74352  0.74352  0.74603
 0.84741  0.74581  0.74832
 0.95130  0.74809  0.75061
 0.12468  0.83589  0.73680
 0.22857  0.83818  0.73909
 0.33245  0.84047  0.74138
 0.43634  0.84275  0.74366
 0.54023  0.84504  0.74595
 0.64412  0.84733  0.74824
 0.74801  0.84961  0.75052
 0.85190  0.85190  0.75281
 0.95579  0.85419  0.75509
 0.12917  0.94199  0.74129
 0.23305  0.94427  0.74358
 0.33694  0.94656  0.74586
 0.44083  0.94884  0.74815
 0.54472  0.95113  0.75044
 0.64861  0.95342  0.75272
 0.75250  0.95570  0.75501
 0.85639  0.95799  0.75730
 0.96028  0.96028  0.75958
 0.09412  0.09412  0.80677
 0.19800  0.09640  0.80906
 0.30189  0.09869  0.81135
 0.40578  0.10097  0.81363
 0.50967  0.10326  0.81592
 0.61356  0.10555  0.81821
 0.71745  0.10783  0.82049
 0.82134  0.11012  0.82278
 0.92523  0.11241  0.82507
 0.09860  0.20021  0.81126
 0.20249  0.20249  0.81355
 0.30638  0.20478  0.81584
 0.41027  0.20707  0.81812
 0.51416  0.20935  0.82041
 0.61805  0.21164  0.82270
 0.72194  0.21393  0.82498
 0.82583  0.21621  0.82727
 0.92972  0.21850  0.82956
 0.10309  0.30630  0.81575
 0.20698  0.30858  0.81804
 0.31087  0.31087  0.82033
 0.41476  0.31316  0.82261
 0.51865  0.31544  0.82490
 0.62254  0.31773  0.82719
 0.72643  0.32002  0.82947
 0.83032  0.32230  0.83176
 0.93421  0.32459  0.83405
 0.10758  0.41239  0.82024
 0.21147  0.41468  0.82253
 0.31536  0.41696  0.82481
 0.41925  0.41925  0.82710
 0.52314  0.42154  0.82939
 0.62703  0.42382  0.83167
 0.73092  0.42611  0.83396
 0.83481  0.42840  0.83625
 0.93870  0.43068  0.83853
 0.11207  0.51848  0.82473
 0.21596  0.52077  0.82702
 0.31985  0.52305  0.82930
 0.42374  0.52534  0.83159
 0.52763  0.52763  0.83388
 0.63152  0.52991  0.83616
 0.73541  0.53220  0.83845
 0.83930  0.53449  0.84074
 0.94318  0.53677  0.84302
 0.11656  0.62457  0.82922
 0.22045  0.62686  0.83151
 0.32434  0.62915  0.83379
 0.42823  0.63143  0.83608
 0.53212  0.63372  0.83837
 0.63601  0.63601  0.84065
 0.73990  0.63829  0.84294
 0.84378  0.64058  0.84523
 0.94767  0.64287  0.84751
 0.12105  0.73066  0.83371
 0.22494  0.73295  0.83600
 0.32883  0.73524  0.83828
 0.43272  0.73752  0.84057
 0.53661  0.73981  0.84285
 0.64050  0.74210  0.84514
 0.74438  0.74438  0.84743
 0.84827  0.74667  0.84971
 0.95216  0.74896  0.85200
 0.12554  0.83676  0.83820
 0.22943  0.83904  0.84048
 0.33332  0.84133  0.84277
 0.43721  0.84362  0.84506
 0.54110  0.84590  0.84734
 0.64498  0.84819  0.84963
 0.74887  0.85048  0.85192
 0.85276  0.85276  0.85420
 0.95665  0.85505  0.85649
 0.13003  0.94285  0.84269
 0.23392  0.94513  0.84497
 0.33781  0.94742  0.84726
 0.44170  0.94971  0.84955
 0.54558  0.95199  0.85183
 0.64947  0.95428  0.85412
 0.75336  0.95657  0.85641
 0.85725  0.95885  0.85869
 0.96114  0.96114  0.86098
 0.09498  0.09498  0.90817
 0.19887  0.09726  0.91046
 0.30276  0.09955  0.91274
 0.40665  0.10184  0.91503
 0.51053  0.10412  0.91732
 0.61442  0.10641  0.91960
 0.71831  0.10870  0.92189
 0.82220  0.11098  0.92418
 0.92609  0.11327  0.92646
 0.09947  0.20107  0.91266
 0.20336  0.20336  0.91495
 0.30724  0.20564  0.91723
 0.41113  0.20793  0.91952
 0.51502  0.21022  0.92181
 0.61891  0.21250  0.92409
 0.72280  0.21479  0.92638
 0.82669  0.21708  0.92867
 0.93058  0.21936  0.93095
 0.10396  0.30716  0.91715
 0.20784  0.30945  0.91943
 0.31173  0.31173  0.92172
 0.41562  0.31402  0.92401
 0.51951  0.31631  0.92629
 0.62340  0.31859  0.92858
 0.72729  0.32088  0.93087
 0.83118  0.32317  0.93315
 0.93507  0.32545  0.93544
 0.10844  0.41325  0.92164
 0.21233  0.41554  0.92392
 0.31622  0.41783  0.92621
 0.42011  0.42011  0.92850
 0.52400  0.42240  0.93078
 0.62789  0.42469  0.93307
 0.73178  0.42697  0.93536
 0.83567  0.42926  0.93764
 0.93956  0.43155  0.93993
 0.11293  0.51934  0.92613
 0.21682  0.52163  0.92841
 0.32071  0.52392  0.93070
 0.42460  0.52620  0.93299
 0.52849  0.52849  0.93527
 0.63238  0.53078  0.93756
 0.73627  0.53306  0.93985
 0.84016  0.53535  0.94213
 0.94405  0.53764  0.94442
 0.11742  0.62544  0.93062
 0.22131  0.62772  0.93290
 0.32520  0.63001  0.93519
 0.42909  0.63230  0.93747
 0.53298  0.63458  0.93976
 0.63687  0.63687  0.94205
 0.74076  0.63916  0.94433
 0.84465  0.64144  0.94662
 0.94854  0.64373  0.94891
 0.12191  0.73153  0.93510
 0.22580  0.73381  0.93739
 0.32969  0.73610  0.93968
 0.43358  0.73839  0.94196
 0.53747  0.74067  0.94425
 0.64136  0.74296  0.94654
 0.74525  0.74525  0.94882
 0.84914  0.74753  0.95111
 0.95303  0.74982  0.95340
 0.12640  0.83762  0.93959
 0.23029  0.83991  0.94188
 0.33418  0.84219  0.94417
 0.43807  0.84448  0.94645
 0.54196  0.84677  0.94874
 0.64585  0.84905  0.95103
 0.74974  0.85134  0.95331
 0.85363  0.85363  0.95560
 0.95751  0.85591  0.95789
 0.13089  0.94371  0.94408
 0.23478  0.94600  0.94637
 0.33867  0.94828  0.94866
 0.44256  0.95057  0.95094
 0.54645  0.95286  0.95323
 0.65034  0.95514  0.95552
 0.75422  0.95743  0.95780
 0.85811  0.95972  0.96009
 0.96200  0.96200  0.96238
