src/assets/luts/airy.cube
TITLE "通透亮调"
LUT_3D_SIZE 5
DOMAIN_MIN 0.0 0.0 0.0
DOMAIN_MAX 1.0 1.0 1.0
# LumEdit built-in LUT · 清透提亮，冷白肤色
 0.08808  0.08808  0.09700
 0.29585  0.09265  0.10158
 0.50363  0.09722  0.10615
 0.71141  0.10180  0.11072
 0.91919  0.10637  0.11530
 0.09705  0.30026  0.10598
 0.30483  0.30483  0.11056
 0.51261  0.30941  0.11513
 0.72039  0.31398  0.11970
 0.92817  0.31855  0.12428
 0.10603  0.51244  0.11496
 0.31381  0.51702  0.11953
 0.52159  0.52159  0.12411
 0.72937  0.52616  0.12868
 0.93715  0.53074  0.13325
 0.11501  0.72463  0.12394
 0.32279  0.72920  0.12851
 0.53057  0.73377  0.13309
 0.73835  0.73835  0.13766
 0.94612  0.74292  0.14223
 0.12399  0.93681  0.13292
 0.33177  0.94138  0.13749
 0.53955  0.94596  0.14206
 0.74732  0.95053  0.14664
 0.95510  0.95510  0.15121
 0.08980  0.08980  0.29980
 0.29758  0.09438  0.30437
 0.50536  0.09895  0.30894
 0.71314  0.10352  0.31352
 0.92091  0.10809  0.31809
 0.09878  0.30199  0.30877
 0.30656  0.30656  0.31335
 0.51434  0.31113  0.31792
 0.72211  0.31570  0.32249
 0.92989  0.32028  0.32707
 0.10776  0.51417  0.31775
 0.31554  0.51874  0.32233
 0.52331  0.52331  0.32690
 0.73109  0.52789  0.33147
 0.93887  0.53246  0.33605
 0.11674  0.72635  0.32673
 0.32451  0.73092  0.33130
 0.53229  0.73550  0.33588
 0.74007  0.74007  0.34045
 0.94785  0.74464  0.34502
 0.12571  0.93853  0.33571
 0.33349  0.94311  0.34028
 0.54127  0.94768  0.34485
 0.74905  0.95225  0.34943
 0.95683  0.95683  0.35400
 0.09153  0.09153  0.50259
 0.29931  0.09610  0.50716
 0.50708  0.10067  0.51173
 0.71486  0.10525  0.51631
 0.92264  0.10982  0.52088
 0.10051  0.30371  0.51157
 0.30828  0.30828  0.51614
 0.51606  0.31286  0.52071
 0.72384  0.31743  0.52528
 0.93162  0.32200  0.52986
 0.10948  0.51589  0.52054
 0.31726  0.52047  0.52512
 0.52504  0.52504  0.52969
 0.73282  0.52961  0.53426
 0.94060  0.53419  0.53884
 0.11846  0.72808  0.52952
 0.32624  0.73265  0.53409
 0.53402  0.73722  0.53867
 0.74180  0.74180  0.54324
 0.94957  0.74637  0.54781
 0.12744  0.94026  0.53850
 0.33522  0.94483  0.54307
 0.54300  0.94941  0.54765
 0.75077  0.95398  0.55222
 0.95855  0.95855  0.55679
 0.09325  0.09325  0.70538
 0.30103  0.09783  0.70995
 0.50881  0.10240  0.71452
 0.71659  0.10697  0.71910
 0.92437  0.11155  0.72367
 0.10223  0.30544  0.71436
 0.31001  0.31001  0.71893
 0.51779  0.31458  0.72350
 0.72557  0.31916  0.72808
 0.93334  0.32373  0.73265
 0.11121  0.51762  0.72333
 0.31899  0.52219  0.72791
 0.52677  0.52677  0.73248
 0.73454  0.53134  0.73705
 0.94232  0.53591  0.74163
 0.12019  0.72980  0.73231
 0.32797  0.73438  0.73689
 0.53574  0.73895  0.74146
 0.74352  0.74352  0.74603
 0.95130  0.74809  0.75061
 0.12917  0.94199  0.74129
 0.33694  0.94656  0.74586
 0.54472  0.95113  0.75044
 0.75250  0.95570  0.75501
 0.96028  0.96028  0.75958
 0.09498  0.09498  0.90817
 0.30276  0.09955  0.91274
 0.51053  0.10412  0.91732
 0.71831  0.10870  0.92189
 0.92609  0.11327  0.92646
 0.10396  0.30716  0.91715
 0.31173  0.31173  0.92172
 0.51951  0.31631  0.92629
 0.72729  0.32088  0.93087
 0.93507  0.32545  0.93544
 0.11293  0.51934  0.92613
 0.32071  0.52392  0.93070
 0.52849  0.52849  0.93527
 0.73627  0.53306  0.93985
 0.94405  0.53764  0.94442
 0.12191  0.73153  0.93510
 0.32969  0.73610  0.93968
 0.53747  0.74067  0.94425
 0.74525  0.74525  0.94882
 0.95303  0.74982  0.95340
 0.13089  0.94371  0.94408
 0.33867  0.94828  0.94866
 0.54645  0.95286  0.95323
 0.75422  0.95743  0.95780
 0.96200  0.96200  0.96238
