src/assets/luts/airy.cube
TITLE "通透亮调"
LUT_3D_SIZE 17
DOMAIN_MIN 0.0 0.0 0.0
DOMAIN_MAX 1.0 1.0 1.0
# LumEdit built-in LUT · 清透提亮，冷白肤色
 0.08808  0.08808  0.09700
 0.14002  0.08922  0.09815
 0.19197  0.09036  0.09929
 0.24391  0.09151  0.10043
 0.29585  0.09265  0.10158
 0.34780  0.09379  0.10272
 0.39974  0.09494  0.10386
 0.45169  0.09608  0.10501
 0.50363  0.09722  0.10615
 0.55558  0.09837  0.10729
 0.60752  0.09951  0.10844
 0.65947  0.10065  0.10958
 0.71141  0.10180  0.11072
 0.76336  0.10294  0.11187
 0.81530  0.10408  0.11301
 0.86724  0.10523  0.11415
 0.91919  0.10637  0.11530
 0.09032  0.14112  0.09925
 0.14227  0.14227  0.10039
 0.19421  0.14341  0.10154
 0.24615  0.14455  0.10268
 0.29810  0.14570  0.10382
 0.35004  0.14684  0.10497
 0.40199  0.14798  0.10611
 0.45393  0.14913  0.10725
 0.50588  0.15027  0.10840
 0.55782  0.15141  0.10954
 0.60977  0.15256  0.11068
 0.66171  0.15370  0.11183
 0.71366  0.15484  0.11297
 0.76560  0.15599  0.11411
 0.81754  0.15713  0.11526
 0.86949  0.15827  0.11640
 0.92143  0.15942  0.11754
 0.09257  0.19417  0.10149
 0.14451  0.19531  0.10264
 0.19645  0.19645  0.10378
 0.24840  0.19760  0.10492
 0.30034  0.19874  0.10607
 0.35229  0.19988  0.10721
 0.40423  0.20103  0.10835
 0.45618  0.20217  0.10950
 0.50812  0.20331  0.11064
 0.56007  0.20446  0.11178
 0.61201  0.20560  0.11293
 0.66396  0.20674  0.11407
 0.71590  0.20789  0.11521
 0.76784  0.20903  0.11636
 0.81979  0.21017  0.11750
 0.87173  0.21132  0.11864
 0.92368  0.21246  0.11979
 0.09481  0.24721  0.10374
 0.14675  0.24836  0.10488
 0.19870  0.24950  0.10602
 0.25064  0.25064  0.10717
 0.30259  0.25179  0.10831
 0.35453  0.25293  0.10945
 0.40648  0.25407  0.11060
 0.45842  0.25522  0.11174
 0.51037  0.25636  0.11288
 0.56231  0.25750  0.11403
 0.61426  0.25865  0.11517
 0.66620  0.25979  0.11631
 0.71814  0.26093  0.11746
 0.77009  0.26208  0.11860
 0.82203  0.26322  0.11974
 0.87398  0.26436  0.12089
 0.92592  0.26551  0.12203
 0.09705  0.30026  0.10598
 0.14900  0.30140  0.10713
 0.20094  0.30255  0.10827
 0.25289  0.30369  0.10941
 0.30483  0.30483  0.11056
 0.35678  0.30598  0.11170
 0.40872  0.30712  0.11284
 0.46067  0.30826  0.11399
 0.51261  0.30941  0.11513
 0.56456  0.31055  0.11627
 0.61650  0.31169  0.11742
 0.66844  0.31284  0.11856
 0.72039  0.31398  0.11970
 0.77233  0.31512  0.12085
 0.82428  0.31627  0.12199
 0.87622  0.31741  0.12313
 0.92817  0.31855  0.12428
 0.09930  0.35331  0.10823
 0.15124  0.35445  0.10937
 0.20319  0.35559  0.11051
 0.25513  0.35674  0.11166
 0.30708  0.35788  0.11280
 0.35902  0.35902  0.11394
 0.41097  0.36017  0.11509
 0.46291  0.36131  0.11623
 0.51486  0.36245  0.11737
 0.56680  0.36360  0.11852
 0.61874  0.36474  0.11966
 0.67069  0.36588  0.12080
 0.72263  0.36703  0.12195
 0.77458  0.36817  0.12309
 0.82652  0.36931  0.12423
 0.87847  0.37046  0.12538
 0.93041  0.37160  0.12652
 0.10154  0.40635  0.11047
 0.15349  0.40749  0.11162
 0.20543  0.40864  0.11276
 0.25738  0.40978  0.11390
 0.30932  0.41092  0.11505
 0.36127  0.41207  0.11619
 0.41321  0.41321  0.11733
 0.46516  0.41435  0.11847
 0.51710  0.41550  0.11962
 0.56904  0.41664  0.12076
 0.62099  0.41778  0.12190
 0.67293  0.41893  0.12305
 0.72488  0.42007  0.12419
 0.77682  0.42121  0.12533
 0.82877  0.42236  0.12648
 0.88071  0.42350  0.12762
 0.93266  0.42464  0.12876
 0.10379  0.45940  0.11272
 0.15573  0.46054  0.11386
 0.20768  0.46168  0.11500
 0.25962  0.46283  0.11615
 0.31157  0.46397  0.11729
 0.36351  0.46511  0.11843
 0.41546  0.46626  0.11958
 0.46740  0.46740  0.12072
 0.51934  0.46854  0.12186
 0.57129  0.46969  0.12301
 0.62323  0.47083  0.12415
 0.67518  0.47197  0.12529
 0.72712  0.47312  0.12644
 0.77907  0.47426  0.12758
 0.83101  0.47540  0.12872
 0.88296  0.47655  0.12987
 0.93490  0.47769  0.13101
 0.10603  0.51244  0.11496
 0.15798  0.51359  0.11610
 0.20992  0.51473  0.11725
 0.26187  0.51587  0.11839
 0.31381  0.51702  0.11953
 0.36576  0.51816  0.12068
 0.41770  0.51930  0.12182
 0.46964  0.52045  0.12296
 0.52159  0.52159  0.12411
 0.57353  0.52273  0.12525
 0.62548  0.52388  0.12639
 0.67742  0.52502  0.12754
 0.72937  0.52616  0.12868
 0.78131  0.52731  0.12982
 0.83326  0.52845  0.13097
 0.88520  0.52959  0.13211
 0.93715  0.53074  0.13325
 0.10828  0.56549  0.11721
 0.16022  0.56663  0.11835
 0.21217  0.56778  0.11949
 0.26411  0.56892  0.12064
 0.31606  0.57006  0.12178
 0.36800  0.57121  0.12292
 0.41994  0.57235  0.12407
 0.47189  0.57349  0.12521
 0.52383  0.57464  0.12635
 0.57578  0.57578  0.12750
 0.62772  0.57692  0.12864
 0.67967  0.57807  0.12978
 0.73161  0.57921  0.13093
 0.78356  0.58035  0.13207
 0.83550  0.58149  0.13321
 0.88745  0.58264  0.13435
 0.93939  0.58378  0.13550
 0.11052  0.61853  0.11945
 0.16247  0.61968  0.12059
 0.21441  0.62082  0.12174
 0.26636  0.62196  0.12288
 0.31830  0.62311  0.12402
 0.37024  0.62425  0.12517
 0.42219  0.62539  0.12631
 0.47413  0.62654  0.12745
 0.52608  0.62768  0.12860
 0.57802  0.62882  0.12974
 0.62997  0.62997  0.13088
 0.68191  0.63111  0.13203
 0.73386  0.63225  0.13317
 0.78580  0.63340  0.13431
 0.83775  0.63454  0.13546
 0.88969  0.63568  0.13660
 0.94163  0.63683  0.13774
 0.11277  0.67158  0.12169
 0.16471  0.67272  0.12284
 0.21666  0.67387  0.12398
 0.26860  0.67501  0.12512
 0.32054  0.67615  0.12627
 0.37249  0.67730  0.12741
 0.42443  0.67844  0.12855
 0.47638  0.67958  0.12970
 0.52832  0.68073  0.13084
 0.58027  0.68187  0.13198
 0.63221  0.68301  0.13313
 0.68416  0.68416  0.13427
 0.73610  0.68530  0.13541
 0.78805  0.68644  0.13656
 0.83999  0.68759  0.13770
 0.89193  0.68873  0.13884
 0.94388  0.68987  0.13999
 0.11501  0.72463  0.12394
 0.16696  0.72577  0.12508
 0.21890  0.72691  0.12623
 0.27084  0.72806  0.12737
 0.32279  0.72920  0.12851
 0.37473  0.73034  0.12966
 0.42668  0.73149  0.13080
 0.47862  0.73263  0.13194
 0.53057  0.73377  0.13309
 0.58251  0.73492  0.13423
 0.63446  0.73606  0.13537
 0.68640  0.73720  0.13652
 0.73835  0.73835  0.13766
 0.79029  0.73949  0.13880
 0.84223  0.74063  0.13995
 0.89418  0.74178  0.14109
 0.94612  0.74292  0.14223
 0.11726  0.77767  0.12618
 0.16920  0.77882  0.12733
 0.22114  0.77996  0.12847
 0.27309  0.78110  0.12961
 0.32503  0.78225  0.13076
 0.37698  0.78339  0.13190
 0.42892  0.78453  0.13304
 0.48087  0.78568  0.13419
 0.53281  0.78682  0.13533
 0.58476  0.78796  0.13647
 0.63670  0.78910  0.13762
 0.68865  0.79025  0.13876
 0.74059  0.79139  0.13990
 0.79253  0.79253  0.14105
 0.84448  0.79368  0.14219
 0.89642  0.79482  0.14333
 0.94837  0.79596  0.14448
 0.11950  0.83072  0.12843
 0.17144  0.83186  0.12957
 0.22339  0.83300  0.13071
 0.27533  0.83415  0.13186
 0.32728  0.83529  0.13300
 0.37922  0.83643  0.13414
 0.43117  0.83758  0.13529
 0.48311  0.83872  0.13643
 0.53506  0.83986  0.13757
 0.58700  0.84101  0.13872
 0.63895  0.84215  0.13986
 0.69089  0.84329  0.14100
 0.74283  0.84444  0.14215
 0.79478  0.84558  0.14329
 0.84672  0.84672  0.14443
 0.89867  0.84787  0.14558
 0.95061  0.84901  0.14672
 0.12174  0.88376  0.13067
 0.17369  0.88491  0.13182
 0.22563  0.88605  0.13296
 0.27758  0.88719  0.13410
 0.32952  0.88834  0.13525
 0.38147  0.88948  0.13639
 0.43341  0.89062  0.13753
 0.48536  0.89177  0.13868
 0.53730  0.89291  0.13982
 0.58925  0.89405  0.14096
 0.64119  0.89520  0.14211
 0.69313  0.89634  0.14325
 0.74508  0.89748  0.14439
 0.79702  0.89863  0.14554
 0.84897  0.89977  0.14668
 0.90091  0.90091  0.14782
 0.95286  0.90206  0.14897
 0.12399  0.93681  0.13292
 0.17593  0.93795  0.13406
 0.22788  0.93910  0.13520
 0.27982  0.94024  0.13635
 0.33177  0.94138  0.13749
 0.38371  0.94253  0.13863
 0.43566  0.94367  0.13978
 0.48760  0.94481  0.14092
 0.53955  0.94596  0.14206
 0.59149  0.94710  0.14321
 0.64343  0.94824  0.14435
 0.69538  0.94939  0.14549
 0.74732  0.95053  0.14664
 0.79927  0.95167  0.14778
 0.85121  0.95282  0.14892
 0.90316  0.95396  0.15007
 0.95510  0.95510  0.15121
 0.08851  0.08851  0.14770
 0.14045  0.08965  0.14885
 0.19240  0.09079  0.14999
 0.24434  0.09194  0.15113
 0.29629  0.09308  0.15228
 0.34823  0.09422  0.15342
 0.40018  0.09537  0.15456
 0.45212  0.09651  0.15571
 0.50406  0.09765  0.15685
 0.55601  0.09880  0.15799
 0.60795  0.09994  0.15914
 0.65990  0.10108  0.16028
 0.71184  0.10223  0.16142
 0.76379  0.10337  0.16257
 0.81573  0.10451  0.16371
 0.86768  0.10566  0.16485
 0.91962  0.10680  0.16600
 0.09075  0.14155  0.14995
 0.14270  0.14270  0.15109
 0.19464  0.14384  0.15223
 0.24659  0.14498  0.15338
 0.29853  0.14613  0.15452
 0.35048  0.14727  0.15566
 0.40242  0.14841  0.15681
 0.45436  0.14956  0.15795
 0.50631  0.15070  0.15909
 0.55825  0.15184  0.16024
 0.61020  0.15299  0.16138
 0.66214  0.15413  0.16252
 0.71409  0.15527  0.16367
 0.76603  0.15642  0.16481
 0.81798  0.15756  0.16595
 0.86992  0.15870  0.16710
 0.92187  0.15985  0.16824
 0.09300  0.19460  0.15219
 0.14494  0.19574  0.15333
 0.19689  0.19689  0.15448
 0.24883  0.19803  0.15562
 0.30078  0.19917  0.15676
 0.35272  0.20032  0.15791
 0.40466  0.20146  0.15905
 0.45661  0.20260  0.16019
 0.50855  0.20375  0.16134
 0.56050  0.20489  0.16248
 0.61244  0.20603  0.16362
 0.66439  0.20718  0.16477
 0.71633  0.20832  0.16591
 0.76828  0.20946  0.16705
 0.82022  0.21061  0.16820
 0.87217  0.21175  0.16934
 0.92411  0.21289  0.17048
 0.09524  0.24765  0.15444
 0.14719  0.24879  0.15558
 0.19913  0.24993  0.15672
 0.25108  0.25108  0.15787
 0.30302  0.25222  0.15901
 0.35496  0.25336  0.16015
 0.40691  0.25451  0.16130
 0.45885  0.25565  0.16244
 0.51080  0.25679  0.16358
 0.56274  0.25794  0.16473
 0.61469  0.25908  0.16587
 0.66663  0.26022  0.16701
 0.71858  0.26136  0.16816
 0.77052  0.26251  0.16930
 0.82247  0.26365  0.17044
 0.87441  0.26479  0.17159
 0.92635  0.26594  0.17273
 0.09749  0.30069  0.15668
 0.14943  0.30183  0.15782
 0.20138  0.30298  0.15897
 0.25332  0.30412  0.16011
 0.30526  0.30526  0.16125
 0.35721  0.30641  0.16240
 0.40915  0.30755  0.16354
 0.46110  0.30869  0.16468
 0.51304  0.30984  0.16583
 0.56499  0.31098  0.16697
 0.61693  0.31212  0.16811
 0.66888  0.31327  0.16926
 0.72082  0.31441  0.17040
 0.77277  0.31555  0.17154
 0.82471  0.31670  0.17269
 0.87665  0.31784  0.17383
 0.92860  0.31898  0.17497
 0.09973  0.35374  0.15893
 0.15168  0.35488  0.16007
 0.20362  0.35602  0.16121
 0.25556  0.35717  0.16236
 0.30751  0.35831  0.16350
 0.35945  0.35945  0.16464
 0.41140  0.36060  0.16578
 0.46334  0.36174  0.16693
 0.51529  0.36288  0.16807
 0.56723  0.36403  0.16921
 0.61918  0.36517  0.17036
 0.67112  0.36631  0.17150
 0.72307  0.36746  0.17264
 0.77501  0.36860  0.17379
 0.82695  0.36974  0.17493
 0.87890  0.37089  0.17607
 0.93084  0.37203  0.17722
 0.10198  0.40678  0.16117
 0.15392  0.40793  0.16231
 0.20586  0.40907  0.16346
 0.25781  0.41021  0.16460
 0.30975  0.41136  0.16574
 0.36170  0.41250  0.16689
 0.41364  0.41364  0.16803
 0.46559  0.41479  0.16917
 0.51753  0.41593  0.17032
 0.56948  0.41707  0.17146
 0.62142  0.41822  0.17260
 0.67337  0.41936  0.17375
 0.72531  0.42050  0.17489
 0.77725  0.42165  0.17603
 0.82920  0.42279  0.17718
 0.88114  0.42393  0.17832
 0.93309  0.42508  0.17946
 0.10422  0.45983  0.16341
 0.15616  0.46097  0.16456
 0.20811  0.46212  0.16570
 0.26005  0.46326  0.16684
 0.31200  0.46440  0.16799
 0.36394  0.46554  0.16913
 0.41589  0.46669  0.17027
 0.46783  0.46783  0.17142
 0.51978  0.46897  0.17256
 0.57172  0.47012  0.17370
 0.62367  0.47126  0.17485
 0.67561  0.47240  0.17599
 0.72755  0.47355  0.17713
 0.77950  0.47469  0.17828
 0.83144  0.47583  0.17942
 0.88339  0.47698  0.18056
 0.93533  0.47812  0.18171
 0.10646  0.51287  0.16566
 0.15841  0.51402  0.16680
 0.21035  0.51516  0.16795
 0.26230  0.51630  0.16909
 0.31424  0.51745  0.17023
 0.36619  0.51859  0.17138
 0.41813  0.51973  0.17252
 0.47008  0.52088  0.17366
 0.52202  0.52202  0.17481
 0.57397  0.52316  0.17595
 0.62591  0.52431  0.17709
 0.67785  0.52545  0.17824
 0.72980  0.52659  0.17938
 0.78174  0.52774  0.18052
 0.83369  0.52888  0.18166
 0.88563  0.53002  0.18281
 0.93758  0.53117  0.18395
 0.10871  0.56592  0.16790
 0.16065  0.56706  0.16905
 0.21260  0.56821  0.17019
 0.26454  0.56935  0.17133
 0.31649  0.57049  0.17248
 0.36843  0.57164  0.17362
 0.42038  0.57278  0.17476
 0.47232  0.57392  0.17591
 0.52427  0.57507  0.17705
 0.57621  0.57621  0.17819
 0.62815  0.57735  0.17934
 0.68010  0.57850  0.18048
 0.73204  0.57964  0.18162
 0.78399  0.58078  0.18277
 0.83593  0.58193  0.18391
 0.88788  0.58307  0.18505
 0.93982  0.58421  0.18620
 0.11095  0.61897  0.17015
 0.16290  0.62011  0.17129
 0.21484  0.62125  0.17243
 0.26679  0.62240  0.17358
 0.31873  0.62354  0.17472
 0.37068  0.62468  0.17586
 0.42262  0.62583  0.17701
 0.47457  0.62697  0.17815
 0.52651  0.62811  0.17929
 0.57845  0.62926  0.18044
 0.63040  0.63040  0.18158
 0.68234  0.63154  0.18272
 0.73429  0.63269  0.18387
 0.78623  0.63383  0.18501
 0.83818  0.63497  0.18615
 0.89012  0.63612  0.18730
 0.94207  0.63726  0.18844
 0.11320  0.67201  0.17239
 0.16514  0.67315  0.17354
 0.21709  0.67430  0.17468
 0.26903  0.67544  0.17582
 0.32098  0.67658  0.17697
 0.37292  0.67773  0.17811
 0.42487  0.67887  0.17925
 0.47681  0.68001  0.18040
 0.52875  0.68116  0.18154
 0.58070  0.68230  0.18268
 0.63264  0.68344  0.18383
 0.68459  0.68459  0.18497
 0.73653  0.68573  0.18611
 0.78848  0.68687  0.18726
 0.84042  0.68802  0.18840
 0.89237  0.68916  0.18954
 0.94431  0.69030  0.19069
 0.11544  0.72506  0.17464
 0.16739  0.72620  0.17578
 0.21933  0.72734  0.17692
 0.27128  0.72849  0.17807
 0.32322  0.72963  0.17921
 0.37517  0.73077  0.18035
 0.42711  0.73192  0.18150
 0.47905  0.73306  0.18264
 0.53100  0.73420  0.18378
 0.58294  0.73535  0.18493
 0.63489  0.73649  0.18607
 0.68683  0.73763  0.18721
 0.73878  0.73878  0.18836
 0.79072  0.73992  0.18950
 0.84267  0.74106  0.19064
 0.89461  0.74221  0.19179
 0.94656  0.74335  0.19293
 0.11769  0.77810  0.17688
 0.16963  0.77925  0.17802
 0.22158  0.78039  0.17917
 0.27352  0.78153  0.18031
 0.32547  0.78268  0.18145
 0.37741  0.78382  0.18260
 0.42935  0.78496  0.18374
 0.48130  0.78611  0.18488
 0.53324  0.78725  0.18603
 0.58519  0.78839  0.18717
 0.63713  0.78954  0.18831
 0.68908  0.79068  0.18946
 0.74102  0.79182  0.19060
 0.79297  0.79297  0.19174
 0.84491  0.79411  0.19289
 0.89686  0.79525  0.19403
 0.94880  0.79640  0.19517
 0.11993  0.83115  0.17913
 0.17188  0.83229  0.18027
 0.22382  0.83344  0.18141
 0.27577  0.83458  0.18256
 0.32771  0.83572  0.18370
 0.37965  0.83687  0.18484
 0.43160  0.83801  0.18599
 0.48354  0.83915  0.18713
 0.53549  0.84030  0.18827
 0.58743  0.84144  0.18942
 0.63938  0.84258  0.19056
 0.69132  0.84373  0.19170
 0.74327  0.84487  0.19285
 0.79521  0.84601  0.19399
 0.84716  0.84716  0.19513
 0.89910  0.84830  0.19628
 0.95104  0.84944  0.19742
 0.12218  0.88419  0.18137
 0.17412  0.88534  0.18251
 0.22607  0.88648  0.18366
 0.27801  0.88762  0.18480
 0.32995  0.88877  0.18594
 0.38190  0.88991  0.18709
 0.43384  0.89105  0.18823
 0.48579  0.89220  0.18937
 0.53773  0.89334  0.19052
 0.58968  0.89448  0.19166
 0.64162  0.89563  0.19280
 0.69357  0.89677  0.19395
 0.74551  0.89791  0.19509
 0.79746  0.89906  0.19623
 0.84940  0.90020  0.19738
 0.90134  0.90134  0.19852
 0.95329  0.90249  0.19966
 0.12442  0.93724  0.18362
 0.17637  0.93838  0.18476
 0.22831  0.93953  0.18590
 0.28025  0.94067  0.18704
 0.33220  0.94181  0.18819
 0.38414  0.94296  0.18933
 0.43609  0.94410  0.19047
 0.48803  0.94524  0.19162
 0.53998  0.94639  0.19276
 0.59192  0.94753  0.19390
 0.64387  0.94867  0.19505
 0.69581  0.94982  0.19619
 0.74776  0.95096  0.19733
 0.79970  0.95210  0.19848
 0.85164  0.95325  0.19962
 0.90359  0.95439  0.20076
 0.95553  0.95553  0.20191
 0.08894  0.08894  0.19840
 0.14088  0.09008  0.19954
 0.19283  0.09123  0.20069
 0.24477  0.09237  0.20183
 0.29672  0.09351  0.20297
 0.34866  0.09466  0.20412
 0.40061  0.09580  0.20526
 0.45255  0.09694  0.20640
 0.50450  0.09809  0.20755
 0.55644  0.09923  0.20869
 0.60838  0.10037  0.20983
 0.66033  0.10152  0.21098
 0.71227  0.10266  0.21212
 0.76422  0.10380  0.21326
 0.81616  0.10495  0.21441
 0.86811  0.10609  0.21555
 0.92005  0.10723  0.21669
 0.09118  0.14199  0.20064
 0.14313  0.14313  0.20179
 0.19507  0.14427  0.20293
 0.24702  0.14541  0.20407
 0.29896  0.14656  0.20522
 0.35091  0.14770  0.20636
 0.40285  0.14884  0.20750
 0.45480  0.14999  0.20865
 0.50674  0.15113  0.20979
 0.55868  0.15227  0.21093
 0.61063  0.15342  0.21208
 0.66257  0.15456  0.21322
 0.71452  0.15570  0.21436
 0.76646  0.15685  0.21551
 0.81841  0.15799  0.21665
 0.87035  0.15913  0.21779
 0.92230  0.16028  0.21894
 0.09343  0.19503  0.20289
 0.14537  0.19617  0.20403
 0.19732  0.19732  0.20518
 0.24926  0.19846  0.20632
 0.30121  0.19960  0.20746
 0.35315  0.20075  0.20861
 0.40510  0.20189  0.20975
 0.45704  0.20303  0.21089
 0.50898  0.20418  0.21204
 0.56093  0.20532  0.21318
 0.61287  0.20646  0.21432
 0.66482  0.20761  0.21547
 0.71676  0.20875  0.21661
 0.76871  0.20989  0.21775
 0.82065  0.21104  0.21890
 0.87260  0.21218  0.22004
 0.92454  0.21332  0.22118
 0.09567  0.24808  0.20513
 0.14762  0.24922  0.20628
 0.19956  0.25036  0.20742
 0.25151  0.25151  0.20856
 0.30345  0.25265  0.20971
 0.35540  0.25379  0.21085
 0.40734  0.25494  0.21199
 0.45928  0.25608  0.21314
 0.51123  0.25722  0.21428
 0.56317  0.25837  0.21542
 0.61512  0.25951  0.21657
 0.66706  0.26065  0.21771
 0.71901  0.26180  0.21885
 0.77095  0.26294  0.22000
 0.82290  0.26408  0.22114
 0.87484  0.26523  0.22228
 0.92679  0.26637  0.22343
 0.09792  0.30112  0.20738
 0.14986  0.30227  0.20852
 0.20181  0.30341  0.20967
 0.25375  0.30455  0.21081
 0.30570  0.30570  0.21195
 0.35764  0.30684  0.21309
 0.40958  0.30798  0.21424
 0.46153  0.30913  0.21538
 0.51347  0.31027  0.21652
 0.56542  0.31141  0.21767
 0.61736  0.31256  0.21881
 0.66931  0.31370  0.21995
 0.72125  0.31484  0.22110
 0.77320  0.31599  0.22224
 0.82514  0.31713  0.22338
 0.87709  0.31827  0.22453
 0.92903  0.31942  0.22567
 0.10016  0.35417  0.20962
 0.15211  0.35531  0.21077
 0.20405  0.35645  0.21191
 0.25600  0.35760  0.21305
 0.30794  0.35874  0.21420
 0.35988  0.35988  0.21534
 0.41183  0.36103  0.21648
 0.46377  0.36217  0.21763
 0.51572  0.36331  0.21877
 0.56766  0.36446  0.21991
 0.61961  0.36560  0.22106
 0.67155  0.36674  0.22220
 0.72350  0.36789  0.22334
 0.77544  0.36903  0.22449
 0.82739  0.37017  0.22563
 0.87933  0.37132  0.22677
 0.93127  0.37246  0.22792
 0.10241  0.40721  0.21187
 0.15435  0.40836  0.21301
 0.20630  0.40950  0.21415
 0.25824  0.41064  0.21530
 0.31018  0.41179  0.21644
 0.36213  0.41293  0.21758
 0.41407  0.41407  0.21873
 0.46602  0.41522  0.21987
 0.51796  0.41636  0.22101
 0.56991  0.41750  0.22216
 0.62185  0.41865  0.22330
 0.67380  0.41979  0.22444
 0.72574  0.42093  0.22559
 0.77769  0.42208  0.22673
 0.82963  0.42322  0.22787
 0.88157  0.42436  0.22902
 0.93352  0.42551  0.23016
 0.10465  0.46026  0.21411
 0.15660  0.46140  0.21526
 0.20854  0.46255  0.21640
 0.26048  0.46369  0.21754
 0.31243  0.46483  0.21869
 0.36437  0.46598  0.21983
 0.41632  0.46712  0.22097
 0.46826  0.46826  0.22212
 0.52021  0.46941  0.22326
 0.57215  0.47055  0.22440
 0.62410  0.47169  0.22555
 0.67604  0.47284  0.22669
 0.72799  0.47398  0.22783
 0.77993  0.47512  0.22897
 0.83187  0.47627  0.23012
 0.88382  0.47741  0.23126
 0.93576  0.47855  0.23240
 0.10690  0.51331  0.21636
 0.15884  0.51445  0.21750
 0.21078  0.51559  0.21864
 0.26273  0.51674  0.21979
 0.31467  0.51788  0.22093
 0.36662  0.51902  0.22207
 0.41856  0.52017  0.22322
 0.47051  0.52131  0.22436
 0.52245  0.52245  0.22550
 0.57440  0.52360  0.22665
 0.62634  0.52474  0.22779
 0.67829  0.52588  0.22893
 0.73023  0.52703  0.23008
 0.78217  0.52817  0.23122
 0.83412  0.52931  0.23236
 0.88606  0.53046  0.23351
 0.93801  0.53160  0.23465
 0.10914  0.56635  0.21860
 0.16108  0.56749  0.21974
 0.21303  0.56864  0.22089
 0.26497  0.56978  0.22203
 0.31692  0.57092  0.22317
 0.36886  0.57207  0.22432
 0.42081  0.57321  0.22546
 0.47275  0.57435  0.22660
 0.52470  0.57550  0.22775
 0.57664  0.57664  0.22889
 0.62859  0.57778  0.23003
 0.68053  0.57893  0.23118
 0.73247  0.58007  0.23232
 0.78442  0.58121  0.23346
 0.83636  0.58236  0.23461
 0.88831  0.58350  0.23575
 0.94025  0.58464  0.23689
 0.11138  0.61940  0.22085
 0.16333  0.62054  0.22199
 0.21527  0.62168  0.22313
 0.26722  0.62283  0.22428
 0.31916  0.62397  0.22542
 0.37111  0.62511  0.22656
 0.42305  0.62626  0.22771
 0.47500  0.62740  0.22885
 0.52694  0.62854  0.22999
 0.57889  0.62969  0.23114
 0.63083  0.63083  0.23228
 0.68277  0.63197  0.23342
 0.73472  0.63312  0.23457
 0.78666  0.63426  0.23571
 0.83861  0.63540  0.23685
 0.89055  0.63655  0.23800
 0.94250  0.63769  0.23914
 0.11363  0.67244  0.22309
 0.16557  0.67359  0.22423
 0.21752  0.67473  0.22538
 0.26946  0.67587  0.22652
 0.32141  0.67702  0.22766
 0.37335  0.67816  0.22881
 0.42530  0.67930  0.22995
 0.47724  0.68045  0.23109
 0.52919  0.68159  0.23224
 0.58113  0.68273  0.23338
 0.63307  0.68388  0.23452
 0.68502  0.68502  0.23567
 0.73696  0.68616  0.23681
 0.78891  0.68731  0.23795
 0.84085  0.68845  0.23910
 0.89280  0.68959  0.24024
 0.94474  0.69074  0.24138
 0.11587  0.72549  0.22533
 0.16782  0.72663  0.22648
 0.21976  0.72778  0.22762
 0.27171  0.72892  0.22876
 0.32365  0.73006  0.22991
 0.37560  0.73121  0.23105
 0.42754  0.73235  0.23219
 0.47949  0.73349  0.23334
 0.53143  0.73464  0.23448
 0.58337  0.73578  0.23562
 0.63532  0.73692  0.23677
 0.68726  0.73807  0.23791
 0.73921  0.73921  0.23905
 0.79115  0.74035  0.24020
 0.84310  0.74149  0.24134
 0.89504  0.74264  0.24248
 0.94699  0.74378  0.24363
 0.11812  0.77853  0.22758
 0.17006  0.77968  0.22872
 0.22201  0.78082  0.22987
 0.27395  0.78196  0.23101
 0.32590  0.78311  0.23215
 0.37784  0.78425  0.23330
 0.42979  0.78539  0.23444
 0.48173  0.78654  0.23558
 0.53367  0.78768  0.23673
 0.58562  0.78882  0.23787
 0.63756  0.78997  0.23901
 0.68951  0.79111  0.24016
 0.74145  0.79225  0.24130
 0.79340  0.79340  0.24244
 0.84534  0.79454  0.24359
 0.89729  0.79568  0.24473
 0.94923  0.79683  0.24587
 0.12036  0.83158  0.22982
 0.17231  0.83272  0.23097
 0.22425  0.83387  0.23211
 0.27620  0.83501  0.23325
 0.32814  0.83615  0.23440
 0.38009  0.83730  0.23554
 0.43203  0.83844  0.23668
 0.48397  0.83958  0.23783
 0.53592  0.84073  0.23897
 0.58786  0.84187  0.24011
 0.63981  0.84301  0.24126
 0.69175  0.84416  0.24240
 0.74370  0.84530  0.24354
 0.79564  0.84644  0.24469
 0.84759  0.84759  0.24583
 0.89953  0.84873  0.24697
 0.95148  0.84987  0.24812
 0.12261  0.88463  0.23207
 0.17455  0.88577  0.23321
 0.22650  0.88691  0.23435
 0.27844  0.88806  0.23550
 0.33039  0.88920  0.23664
 0.38233  0.89034  0.23778
 0.43427  0.89149  0.23893
 0.48622  0.89263  0.24007
 0.53816  0.89377  0.24121
 0.59011  0.89492  0.24236
 0.64205  0.89606  0.24350
 0.69400  0.89720  0.24464
 0.74594  0.89835  0.24579
 0.79789  0.89949  0.24693
 0.84983  0.90063  0.24807
 0.90178  0.90178  0.24922
 0.95372  0.90292  0.25036
 0.12485  0.93767  0.23431
 0.17680  0.93882  0.23546
 0.22874  0.93996  0.23660
 0.28069  0.94110  0.23774
 0.33263  0.94225  0.23889
 0.38457  0.94339  0.24003
 0.43652  0.94453  0.24117
 0.48846  0.94568  0.24232
 0.54041  0.94682  0.24346
 0.59235  0.94796  0.24460
 0.64430  0.94910  0.24575
 0.69624  0.95025  0.24689
 0.74819  0.95139  0.24803
 0.80013  0.95253  0.24918
 0.85208  0.95368  0.25032
 0.90402  0.95482  0.25146
 0.95596  0.95596  0.25261
 0.08937  0.08937  0.24910
 0.14132  0.09051  0.25024
 0.19326  0.09166  0.25138
 0.24520  0.09280  0.25253
 0.29715  0.09394  0.25367
 0.34909  0.09509  0.25481
 0.40104  0.09623  0.25596
 0.45298  0.09737  0.25710
 0.50493  0.09852  0.25824
 0.55687  0.09966  0.25939
 0.60882  0.10080  0.26053
 0.66076  0.10195  0.26167
 0.71271  0.10309  0.26282
 0.76465  0.10423  0.26396
 0.81659  0.10538  0.26510
 0.86854  0.10652  0.26625
 0.92048  0.10766  0.26739
