src/assets/luts/autumn.cube
TITLE "秋日暖阳"
LUT_3D_SIZE 5
DOMAIN_MIN 0.0 0.0 0.0
DOMAIN_MAX 1.0 1.0 1.0
# LumEdit built-in LUT · 橙金暖调，秋景氛围
 0.01056  0.00000  0.00000
 0.29042  0.00000  0.00000
 0.57028  0.00000  0.00000
 0.85014  0.00000  0.00000
 1.00000  0.00000  0.00000
 0.00000  0.25802  0.00000
 0.27868  0.25168  0.00000
 0.55854  0.24534  0.00000
 0.83840  0.23900  0.00000
 1.00000  0.23267  0.00000
 0.00000  0.51628  0.00000
 0.26694  0.50994  0.00000
 0.54680  0.50360  0.00000
 0.82666  0.49726  0.00000
 1.00000  0.49093  0.00000
 0.00000  0.77454  0.00000
 0.25520  0.76820  0.00000
 0.53506  0.76186  0.00000
 0.81492  0.75552  0.00000
 1.00000  0.74919  0.00000
 0.00000  1.00000  0.00000
 0.24346  1.00000  0.00000
 0.52332  1.00000  0.00000
 0.80318  1.00000  0.00000
 1.00000  1.00000  0.00000
 0.00851  0.00000  0.24071
 0.28837  0.00000  0.23437
 0.56823  0.00000  0.22803
 0.84809  0.00000  0.22169
 1.00000  0.00000  0.21535
 0.00000  0.25597  0.22897
 0.27663  0.24963  0.22263
 0.55649  0.24329  0.21629
 0.83635  0.23695  0.20995
 1.00000  0.23061  0.20361
 0.00000  0.51423  0.21723
 0.26489  0.50789  0.21089
 0.54475  0.50155  0.20455
 0.82461  0.49521  0.19821
 1.00000  0.48887  0.19187
 0.00000  0.77249  0.20549
 0.25315  0.76615  0.19915
 0.53301  0.75981  0.19281
 0.81287  0.75347  0.18647
 1.00000  0.74713  0.18013
 0.00000  1.00000  0.19375
 0.24141  1.00000  0.18741
 0.52127  1.00000  0.18107
 0.80113  1.00000  0.17473
 1.00000  1.00000  0.16839
 0.00646  0.00000  0.48166
 0.28632  0.00000  0.47532
 0.56618  0.00000  0.46898
 0.84604  0.00000  0.46264
 1.00000  0.00000  0.45630
 0.00000  0.25392  0.46992
 0.27458  0.24758  0.46358
 0.55444  0.24124  0.45724
 0.83430  0.23490  0.45090
 1.00000  0.22856  0.44456
 0.00000  0.51218  0.45818
 0.26284  0.50584  0.45184
 0.54270  0.49950  0.44550
 0.82256  0.49316  0.43916
 1.00000  0.48682  0.43282
 0.00000  0.77044  0.44644
 0.25110  0.76410  0.44010
 0.53096  0.75776  0.43376
 0.81082  0.75142  0.42742
 1.00000  0.74508  0.42108
 0.00000  1.00000  0.43470
 0.23936  1.00000  0.42836
 0.51922  1.00000  0.42202
 0.79908  1.00000  0.41568
 1.00000  1.00000  0.40934
 0.00440  0.00000  0.72260
 0.28427  0.00000  0.71627
 0.56413  0.00000  0.70993
 0.84399  0.00000  0.70359
 1.00000  0.00000  0.69725
 0.00000  0.25186  0.71086
 0.27253  0.24553  0.70453
 0.55239  0.23919  0.69819
 0.83225  0.23285  0.69185
 1.00000  0.22651  0.68551
 0.00000  0.51012  0.69912
 0.26079  0.50379  0.69279
 0.54065  0.49745  0.68645
 0.82051  0.49111  0.68011
 1.00000  0.48477  0.67377
 0.00000  0.76838  0.68738
 0.24905  0.76205  0.68105
 0.52891  0.75571  0.67471
 0.80877  0.74937  0.66837
 1.00000  0.74303  0.66203
 0.00000  1.00000  0.67564
 0.23731  1.00000  0.66931
 0.51717  1.00000  0.66297
 0.79703  1.00000  0.65663
 1.00000  1.00000  0.65029
 0.00235  0.00000  0.96355
 0.28221  0.00000  0.95721
 0.56208  0.00000  0.95088
 0.84194  0.00000  0.94454
 1.00000  0.00000  0.93820
 0.00000  0.24981  0.95181
 0.27047  0.24347  0.94547
 0.55034  0.23714  0.93914
 0.83020  0.23080  0.93280
 1.00000  0.22446  0.92646
 0.00000  0.50807  0.94007
 0.25873  0.50173  0.93373
 0.53860  0.49540  0.92740
 0.81846  0.48906  0.92106
 1.00000  0.48272  0.91472
 0.00000  0.76633  0.92833
 0.24699  0.75999  0.92199
 0.52686  0.75366  0.91566
 0.80672  0.74732  0.90932
 1.00000  0.74098  0.90298
 0.00000  1.00000  0.91659
 0.23525  1.00000  0.91025
 0.51512  1.00000  0.90392
 0.79498  1.00000  0.89758
 1.00000  0.99924  0.89124
