src/assets/luts/autumn.cube
TITLE "秋日暖阳"
LUT_3D_SIZE 9
DOMAIN_MIN 0.0 0.0 0.0
DOMAIN_MAX 1.0 1.0 1.0
# LumEdit built-in LUT · 橙金暖调，秋景氛围
 0.01056  0.00000  0.00000
 0.15049  0.00000  0.00000
 0.29042  0.00000  0.00000
 0.43035  0.00000  0.00000
 0.57028  0.00000  0.00000
 0.71021  0.00000  0.00000
 0.85014  0.00000  0.00000
 0.99008  0.00000  0.00000
 1.00000  0.00000  0.00000
 0.00469  0.12889  0.00000
 0.14462  0.12572  0.00000
 0.28455  0.12255  0.00000
 0.42448  0.11938  0.00000
 0.56441  0.11621  0.00000
 0.70434  0.11304  0.00000
 0.84427  0.10987  0.00000
 0.98420  0.10670  0.00000
 1.00000  0.10354  0.00000
 0.00000  0.25802  0.00000
 0.13875  0.25485  0.00000
 0.27868  0.25168  0.00000
 0.41861  0.24851  0.00000
 0.55854  0.24534  0.00000
 0.69847  0.24217  0.00000
 0.83840  0.23900  0.00000
 0.97834  0.23583  0.00000
 1.00000  0.23267  0.00000
 0.00000  0.38715  0.00000
 0.13288  0.38398  0.00000
 0.27281  0.38081  0.00000
 0.41274  0.37764  0.00000
 0.55267  0.37447  0.00000
 0.69260  0.37130  0.00000
 0.83253  0.36813  0.00000
 0.97247  0.36496  0.00000
 1.00000  0.36180  0.00000
 0.00000  0.51628  0.00000
 0.12701  0.51311  0.00000
 0.26694  0.50994  0.00000
 0.40687  0.50677  0.00000
 0.54680  0.50360  0.00000
 0.68673  0.50043  0.00000
 0.82666  0.49726  0.00000
 0.96660  0.49410  0.00000
 1.00000  0.49093  0.00000
 0.00000  0.64541  0.00000
 0.12114  0.64224  0.00000
 0.26107  0.63907  0.00000
 0.40100  0.63590  0.00000
 0.54093  0.63273  0.00000
 0.68086  0.62956  0.00000
 0.82079  0.62639  0.00000
 0.96073  0.62323  0.00000
 1.00000  0.62006  0.00000
 0.00000  0.77454  0.00000
 0.11527  0.77137  0.00000
 0.25520  0.76820  0.00000
 0.39513  0.76503  0.00000
 0.53506  0.76186  0.00000
 0.67499  0.75869  0.00000
 0.81492  0.75552  0.00000
 0.95486  0.75235  0.00000
 1.00000  0.74919  0.00000
 0.00000  0.90367  0.00000
 0.10940  0.90050  0.00000
 0.24933  0.89733  0.00000
 0.38926  0.89416  0.00000
 0.52919  0.89099  0.00000
 0.66912  0.88782  0.00000
 0.80905  0.88465  0.00000
 0.94898  0.88148  0.00000
 1.00000  0.87832  0.00000
 0.00000  1.00000  0.00000
 0.10353  1.00000  0.00000
 0.24346  1.00000  0.00000
 0.38339  1.00000  0.00000
 0.52332  1.00000  0.00000
 0.66325  1.00000  0.00000
 0.80318  1.00000  0.00000
 0.94312  1.00000  0.00000
 1.00000  1.00000  0.00000
 0.00953  0.00000  0.12023
 0.14947  0.00000  0.11707
 0.28940  0.00000  0.11390
 0.42933  0.00000  0.11073
 0.56926  0.00000  0.10756
 0.70919  0.00000  0.10439
 0.84912  0.00000  0.10122
 0.98905  0.00000  0.09805
 1.00000  0.00000  0.09488
 0.00366  0.12786  0.11436
 0.14360  0.12470  0.11120
 0.28353  0.12153  0.10803
 0.42346  0.11836  0.10486
 0.56339  0.11519  0.10169
 0.70332  0.11202  0.09852
 0.84325  0.10885  0.09535
 0.98318  0.10568  0.09218
 1.00000  0.10251  0.08901
 0.00000  0.25699  0.10849
 0.13773  0.25383  0.10533
 0.27766  0.25066  0.10216
 0.41759  0.24749  0.09899
 0.55752  0.24432  0.09582
 0.69745  0.24115  0.09265
 0.83738  0.23798  0.08948
 0.97731  0.23481  0.08631
 1.00000  0.23164  0.08314
 0.00000  0.38612  0.10262
 0.13186  0.38296  0.09946
 0.27179  0.37979  0.09629
 0.41172  0.37662  0.09312
 0.55165  0.37345  0.08995
 0.69158  0.37028  0.08678
 0.83151  0.36711  0.08361
 0.97144  0.36394  0.08044
 1.00000  0.36077  0.07727
 0.00000  0.51525  0.09675
 0.12599  0.51209  0.09359
 0.26592  0.50892  0.09042
 0.40585  0.50575  0.08725
 0.54578  0.50258  0.08408
 0.68571  0.49941  0.08091
 0.82564  0.49624  0.07774
 0.96557  0.49307  0.07457
 1.00000  0.48990  0.07140
 0.00000  0.64438  0.09088
 0.12012  0.64122  0.08772
 0.26005  0.63805  0.08455
 0.39998  0.63488  0.08138
 0.53991  0.63171  0.07821
 0.67984  0.62854  0.07504
 0.81977  0.62537  0.07187
 0.95970  0.62220  0.06870
 1.00000  0.61903  0.06553
 0.00000  0.77351  0.08501
 0.11425  0.77035  0.08185
 0.25418  0.76718  0.07868
 0.39411  0.76401  0.07551
 0.53404  0.76084  0.07234
 0.67397  0.75767  0.06917
 0.81390  0.75450  0.06600
 0.95383  0.75133  0.06283
 1.00000  0.74816  0.05966
 0.00000  0.90264  0.07914
 0.10838  0.89948  0.07598
 0.24831  0.89631  0.07281
 0.38824  0.89314  0.06964
 0.52817  0.88997  0.06647
 0.66810  0.88680  0.06330
 0.80803  0.88363  0.06013
 0.94796  0.88046  0.05696
 1.00000  0.87729  0.05379
 0.00000  1.00000  0.07327
 0.10251  1.00000  0.07011
 0.24244  1.00000  0.06694
 0.38237  1.00000  0.06377
 0.52230  1.00000  0.06060
 0.66223  1.00000  0.05743
 0.80216  1.00000  0.05426
 0.94209  1.00000  0.05109
 1.00000  1.00000  0.04792
 0.00851  0.00000  0.24071
 0.14844  0.00000  0.23754
 0.28837  0.00000  0.23437
 0.42830  0.00000  0.23120
 0.56823  0.00000  0.22803
 0.70816  0.00000  0.22486
 0.84809  0.00000  0.22169
 0.98802  0.00000  0.21852
 1.00000  0.00000  0.21535
 0.00264  0.12684  0.23484
 0.14257  0.12367  0.23167
 0.28250  0.12050  0.22850
 0.42243  0.11733  0.22533
 0.56236  0.11416  0.22216
 0.70229  0.11099  0.21899
 0.84222  0.10782  0.21582
 0.98215  0.10465  0.21265
 1.00000  0.10148  0.20948
 0.00000  0.25597  0.22897
 0.13670  0.25280  0.22580
 0.27663  0.24963  0.22263
 0.41656  0.24646  0.21946
 0.55649  0.24329  0.21629
 0.69642  0.24012  0.21312
 0.83635  0.23695  0.20995
 0.97628  0.23378  0.20678
 1.00000  0.23061  0.20361
 0.00000  0.38510  0.22310
 0.13083  0.38193  0.21993
 0.27076  0.37876  0.21676
 0.41069  0.37559  0.21359
 0.55062  0.37242  0.21042
 0.69055  0.36925  0.20725
 0.83048  0.36608  0.20408
 0.97041  0.36291  0.20091
 1.00000  0.35974  0.19774
 0.00000  0.51423  0.21723
 0.12496  0.51106  0.21406
 0.26489  0.50789  0.21089
 0.40482  0.50472  0.20772
 0.54475  0.50155  0.20455
 0.68468  0.49838  0.20138
 0.82461  0.49521  0.19821
 0.96454  0.49204  0.19504
 1.00000  0.48887  0.19187
 0.00000  0.64336  0.21136
 0.11909  0.64019  0.20819
 0.25902  0.63702  0.20502
 0.39895  0.63385  0.20185
 0.53888  0.63068  0.19868
 0.67881  0.62751  0.19551
 0.81874  0.62434  0.19234
 0.95867  0.62117  0.18917
 1.00000  0.61800  0.18600
 0.00000  0.77249  0.20549
 0.11322  0.76932  0.20232
 0.25315  0.76615  0.19915
 0.39308  0.76298  0.19598
 0.53301  0.75981  0.19281
 0.67294  0.75664  0.18964
 0.81287  0.75347  0.18647
 0.95280  0.75030  0.18330
 1.00000  0.74713  0.18013
 0.00000  0.90162  0.19962
 0.10735  0.89845  0.19645
 0.24728  0.89528  0.19328
 0.38721  0.89211  0.19011
 0.52714  0.88894  0.18694
 0.66707  0.88577  0.18377
 0.80700  0.88260  0.18060
 0.94693  0.87943  0.17743
 1.00000  0.87626  0.17426
 0.00000  1.00000  0.19375
 0.10148  1.00000  0.19058
 0.24141  1.00000  0.18741
 0.38134  1.00000  0.18424
 0.52127  1.00000  0.18107
 0.66120  1.00000  0.17790
 0.80113  1.00000  0.17473
 0.94106  1.00000  0.17156
 1.00000  1.00000  0.16839
 0.00748  0.00000  0.36118
 0.14741  0.00000  0.35801
 0.28734  0.00000  0.35484
 0.42727  0.00000  0.35167
 0.56721  0.00000  0.34851
 0.70714  0.00000  0.34534
 0.84707  0.00000  0.34217
 0.98700  0.00000  0.33900
 1.00000  0.00000  0.33583
 0.00161  0.12581  0.35531
 0.14154  0.12264  0.35214
 0.28147  0.11947  0.34897
 0.42140  0.11630  0.34580
 0.56134  0.11314  0.34264
 0.70127  0.10997  0.33947
 0.84120  0.10680  0.33630
 0.98113  0.10363  0.33313
 1.00000  0.10046  0.32996
 0.00000  0.25494  0.34944
 0.13567  0.25177  0.34627
 0.27560  0.24860  0.34310
 0.41553  0.24543  0.33993
 0.55547  0.24227  0.33677
 0.69540  0.23910  0.33360
 0.83533  0.23593  0.33043
 0.97526  0.23276  0.32726
 1.00000  0.22959  0.32409
 0.00000  0.38407  0.34357
 0.12980  0.38090  0.34040
 0.26973  0.37773  0.33723
 0.40966  0.37456  0.33406
 0.54960  0.37140  0.33090
 0.68953  0.36823  0.32773
 0.82946  0.36506  0.32456
 0.96939  0.36189  0.32139
 1.00000  0.35872  0.31822
 0.00000  0.51320  0.33770
 0.12393  0.51003  0.33453
 0.26386  0.50686  0.33136
 0.40379  0.50369  0.32819
 0.54373  0.50053  0.32503
 0.68366  0.49736  0.32186
 0.82359  0.49419  0.31869
 0.96352  0.49102  0.31552
 1.00000  0.48785  0.31235
 0.00000  0.64233  0.33183
 0.11806  0.63916  0.32866
 0.25799  0.63599  0.32549
 0.39792  0.63282  0.32232
 0.53786  0.62966  0.31916
 0.67779  0.62649  0.31599
 0.81772  0.62332  0.31282
 0.95765  0.62015  0.30965
 1.00000  0.61698  0.30648
 0.00000  0.77146  0.32596
 0.11219  0.76829  0.32279
 0.25212  0.76512  0.31962
 0.39205  0.76195  0.31645
 0.53199  0.75879  0.31329
 0.67192  0.75562  0.31012
 0.81185  0.75245  0.30695
 0.95178  0.74928  0.30378
 1.00000  0.74611  0.30061
 0.00000  0.90059  0.32009
 0.10632  0.89742  0.31692
 0.24625  0.89425  0.31375
 0.38618  0.89108  0.31058
 0.52612  0.88792  0.30742
 0.66605  0.88475  0.30425
 0.80598  0.88158  0.30108
 0.94591  0.87841  0.29791
 1.00000  0.87524  0.29474
 0.00000  1.00000  0.31422
 0.10045  1.00000  0.31105
 0.24038  1.00000  0.30788
 0.38031  1.00000  0.30471
 0.52025  1.00000  0.30155
 0.66018  1.00000  0.29838
 0.80011  1.00000  0.29521
 0.94004  1.00000  0.29204
 1.00000  1.00000  0.28887
 0.00646  0.00000  0.48166
 0.14639  0.00000  0.47849
 0.28632  0.00000  0.47532
 0.42625  0.00000  0.47215
 0.56618  0.00000  0.46898
 0.70611  0.00000  0.46581
 0.84604  0.00000  0.46264
 0.98597  0.00000  0.45947
 1.00000  0.00000  0.45630
 0.00059  0.12479  0.47579
 0.14052  0.12162  0.47262
 0.28045  0.11845  0.46945
 0.42038  0.11528  0.46628
 0.56031  0.11211  0.46311
 0.70024  0.10894  0.45994
 0.84017  0.10577  0.45677
 0.98010  0.10260  0.45360
 1.00000  0.09943  0.45043
 0.00000  0.25392  0.46992
 0.13465  0.25075  0.46675
 0.27458  0.24758  0.46358
 0.41451  0.24441  0.46041
 0.55444  0.24124  0.45724
 0.69437  0.23807  0.45407
 0.83430  0.23490  0.45090
 0.97423  0.23173  0.44773
 1.00000  0.22856  0.44456
 0.00000  0.38305  0.46405
 0.12878  0.37988  0.46088
 0.26871  0.37671  0.45771
 0.40864  0.37354  0.45454
 0.54857  0.37037  0.45137
 0.68850  0.36720  0.44820
 0.82843  0.36403  0.44503
 0.96836  0.36086  0.44186
 1.00000  0.35769  0.43869
 0.00000  0.51218  0.45818
 0.12291  0.50901  0.45501
 0.26284  0.50584  0.45184
 0.40277  0.50267  0.44867
 0.54270  0.49950  0.44550
 0.68263  0.49633  0.44233
 0.82256  0.49316  0.43916
 0.96249  0.48999  0.43599
 1.00000  0.48682  0.43282
 0.00000  0.64131  0.45231
 0.11704  0.63814  0.44914
 0.25697  0.63497  0.44597
 0.39690  0.63180  0.44280
 0.53683  0.62863  0.43963
 0.67676  0.62546  0.43646
 0.81669  0.62229  0.43329
 0.95662  0.61912  0.43012
 1.00000  0.61595  0.42695
 0.00000  0.77044  0.44644
 0.11117  0.76727  0.44327
 0.25110  0.76410  0.44010
 0.39103  0.76093  0.43693
 0.53096  0.75776  0.43376
 0.67089  0.75459  0.43059
 0.81082  0.75142  0.42742
 0.95075  0.74825  0.42425
 1.00000  0.74508  0.42108
 0.00000  0.89957  0.44057
 0.10530  0.89640  0.43740
 0.24523  0.89323  0.43423
 0.38516  0.89006  0.43106
 0.52509  0.88689  0.42789
 0.66502  0.88372  0.42472
 0.80495  0.88055  0.42155
 0.94488  0.87738  0.41838
 1.00000  0.87421  0.41521
 0.00000  1.00000  0.43470
 0.09943  1.00000  0.43153
 0.23936  1.00000  0.42836
 0.37929  1.00000  0.42519
 0.51922  1.00000  0.42202
 0.65915  1.00000  0.41885
 0.79908  1.00000  0.41568
 0.93901  1.00000  0.41251
 1.00000  1.00000  0.40934
 0.00543  0.00000  0.60213
 0.14536  0.00000  0.59896
 0.28529  0.00000  0.59579
 0.42522  0.00000  0.59262
 0.56515  0.00000  0.58945
 0.70508  0.00000  0.58628
 0.84501  0.00000  0.58311
 0.98495  0.00000  0.57995
 1.00000  0.00000  0.57678
 0.00000  0.12376  0.59626
 0.13949  0.12059  0.59309
 0.27942  0.11742  0.58992
 0.41935  0.11425  0.58675
 0.55928  0.11108  0.58358
 0.69921  0.10791  0.58041
 0.83914  0.10474  0.57724
 0.97908  0.10157  0.57408
 1.00000  0.09841  0.57091
 0.00000  0.25289  0.59039
 0.13362  0.24972  0.58722
 0.27355  0.24655  0.58405
 0.41348  0.24338  0.58088
 0.55341  0.24021  0.57771
 0.69334  0.23704  0.57454
 0.83327  0.23387  0.57137
 0.97321  0.23070  0.56821
 1.00000  0.22754  0.56504
 0.00000  0.38202  0.58452
 0.12775  0.37885  0.58135
 0.26768  0.37568  0.57818
 0.40761  0.37251  0.57501
 0.54754  0.36934  0.57184
 0.68747  0.36617  0.56867
 0.82740  0.36300  0.56550
 0.96734  0.35984  0.56234
 1.00000  0.35667  0.55917
 0.00000  0.51115  0.57865
 0.12188  0.50798  0.57548
 0.26181  0.50481  0.57231
 0.40174  0.50164  0.56914
 0.54167  0.49847  0.56597
 0.68160  0.49530  0.56280
 0.82153  0.49213  0.55963
 0.96147  0.48896  0.55646
 1.00000  0.48580  0.55330
 0.00000  0.64028  0.57278
 0.11601  0.63711  0.56961
 0.25594  0.63394  0.56644
 0.39587  0.63077  0.56327
 0.53580  0.62760  0.56010
 0.67573  0.62443  0.55693
 0.81566  0.62126  0.55376
 0.95559  0.61810  0.55059
 1.00000  0.61493  0.54743
 0.00000  0.76941  0.56691
 0.11014  0.76624  0.56374
 0.25007  0.76307  0.56057
 0.39000  0.75990  0.55740
 0.52993  0.75673  0.55423
 0.66986  0.75356  0.55106
 0.80979  0.75039  0.54789
 0.94973  0.74723  0.54473
 1.00000  0.74406  0.54156
 0.00000  0.89854  0.56104
 0.10427  0.89537  0.55787
 0.24420  0.89220  0.55470
 0.38413  0.88903  0.55153
 0.52406  0.88586  0.54836
 0.66399  0.88269  0.54519
 0.80392  0.87952  0.54202
 0.94385  0.87635  0.53885
 1.00000  0.87319  0.53569
 0.00000  1.00000  0.55517
 0.09840  1.00000  0.55200
 0.23833  1.00000  0.54883
 0.37826  1.00000  0.54566
 0.51819  1.00000  0.54249
 0.65812  1.00000  0.53932
 0.79805  1.00000  0.53615
 0.93798  1.00000  0.53299
 1.00000  1.00000  0.52982
 0.00440  0.00000  0.72260
 0.14434  0.00000  0.71944
 0.28427  0.00000  0.71627
 0.42420  0.00000  0.71310
 0.56413  0.00000  0.70993
 0.70406  0.00000  0.70676
 0.84399  0.00000  0.70359
 0.98392  0.00000  0.70042
 1.00000  0.00000  0.69725
 0.00000  0.12273  0.71673
 0.13847  0.11957  0.71357
 0.27840  0.11640  0.71040
 0.41833  0.11323  0.70723
 0.55826  0.11006  0.70406
 0.69819  0.10689  0.70089
 0.83812  0.10372  0.69772
 0.97805  0.10055  0.69455
 1.00000  0.09738  0.69138
 0.00000  0.25186  0.71086
 0.13260  0.24870  0.70770
 0.27253  0.24553  0.70453
 0.41246  0.24236  0.70136
 0.55239  0.23919  0.69819
 0.69232  0.23602  0.69502
 0.83225  0.23285  0.69185
 0.97218  0.22968  0.68868
 1.00000  0.22651  0.68551
 0.00000  0.38099  0.70499
 0.12673  0.37783  0.70183
 0.26666  0.37466  0.69866
 0.40659  0.37149  0.69549
 0.54652  0.36832  0.69232
 0.68645  0.36515  0.68915
 0.82638  0.36198  0.68598
 0.96631  0.35881  0.68281
 1.00000  0.35564  0.67964
 0.00000  0.51012  0.69912
 0.12086  0.50696  0.69596
 0.26079  0.50379  0.69279
 0.40072  0.50062  0.68962
 0.54065  0.49745  0.68645
 0.68058  0.49428  0.68328
 0.82051  0.49111  0.68011
 0.96044  0.48794  0.67694
 1.00000  0.48477  0.67377
 0.00000  0.63925  0.69325
 0.11499  0.63609  0.69009
 0.25492  0.63292  0.68692
 0.39485  0.62975  0.68375
 0.53478  0.62658  0.68058
 0.67471  0.62341  0.67741
 0.81464  0.62024  0.67424
 0.95457  0.61707  0.67107
 1.00000  0.61390  0.66790
 0.00000  0.76838  0.68738
 0.10912  0.76522  0.68422
 0.24905  0.76205  0.68105
 0.38898  0.75888  0.67788
 0.52891  0.75571  0.67471
 0.66884  0.75254  0.67154
 0.80877  0.74937  0.66837
 0.94870  0.74620  0.66520
 1.00000  0.74303  0.66203
 0.00000  0.89751  0.68151
 0.10325  0.89435  0.67835
 0.24318  0.89118  0.67518
 0.38311  0.88801  0.67201
 0.52304  0.88484  0.66884
 0.66297  0.88167  0.66567
 0.80290  0.87850  0.66250
 0.94283  0.87533  0.65933
 1.00000  0.87216  0.65616
 0.00000  1.00000  0.67564
 0.09738  1.00000  0.67248
 0.23731  1.00000  0.66931
 0.37724  1.00000  0.66614
 0.51717  1.00000  0.66297
 0.65710  1.00000  0.65980
 0.79703  1.00000  0.65663
 0.93696  1.00000  0.65346
 1.00000  1.00000  0.65029
 0.00338  0.00000  0.84308
 0.14331  0.00000  0.83991
 0.28324  0.00000  0.83674
 0.42317  0.00000  0.83357
 0.56310  0.00000  0.83040
 0.70303  0.00000  0.82723
 0.84296  0.00000  0.82406
 0.98289  0.00000  0.82089
 1.00000  0.00000  0.81772
 0.00000  0.12171  0.83721
 0.13744  0.11854  0.83404
 0.27737  0.11537  0.83087
 0.41730  0.11220  0.82770
 0.55723  0.10903  0.82453
 0.69716  0.10586  0.82136
 0.83709  0.10269  0.81819
 0.97702  0.09952  0.81502
 1.00000  0.09635  0.81185
 0.00000  0.25084  0.83134
 0.13157  0.24767  0.82817
 0.27150  0.24450  0.82500
 0.41143  0.24133  0.82183
 0.55136  0.23816  0.81866
 0.69129  0.23499  0.81549
 0.83122  0.23182  0.81232
 0.97115  0.22865  0.80915
 1.00000  0.22548  0.80598
 0.00000  0.37997  0.82547
 0.12570  0.37680  0.82230
 0.26563  0.37363  0.81913
 0.40556  0.37046  0.81596
 0.54549  0.36729  0.81279
 0.68542  0.36412  0.80962
 0.82535  0.36095  0.80645
 0.96528  0.35778  0.80328
 1.00000  0.35461  0.80011
 0.00000  0.50910  0.81960
 0.11983  0.50593  0.81643
 0.25976  0.50276  0.81326
 0.39969  0.49959  0.81009
 0.53962  0.49642  0.80692
 0.67955  0.49325  0.80375
 0.81948  0.49008  0.80058
 0.95941  0.48691  0.79741
 1.00000  0.48374  0.79424
 0.00000  0.63823  0.81373
 0.11396  0.63506  0.81056
 0.25389  0.63189  0.80739
 0.39382  0.62872  0.80422
 0.53375  0.62555  0.80105
 0.67368  0.62238  0.79788
 0.81361  0.61921  0.79471
 0.95354  0.61604  0.79154
 1.00000  0.61287  0.78837
 0.00000  0.76736  0.80786
 0.10809  0.76419  0.80469
 0.24802  0.76102  0.80152
 0.38795  0.75785  0.79835
 0.52788  0.75468  0.79518
 0.66781  0.75151  0.79201
 0.80774  0.74834  0.78884
 0.94767  0.74517  0.78567
 1.00000  0.74200  0.78250
 0.00000  0.89649  0.80199
 0.10222  0.89332  0.79882
 0.24215  0.89015  0.79565
 0.38208  0.88698  0.79248
 0.52201  0.88381  0.78931
 0.66194  0.88064  0.78614
 0.80187  0.87747  0.78297
 0.94180  0.87430  0.77980
 1.00000  0.87113  0.77663
 0.00000  1.00000  0.79612
 0.09635  1.00000  0.79295
 0.23628  1.00000  0.78978
 0.37621  1.00000  0.78661
 0.51614  1.00000  0.78344
 0.65607  1.00000  0.78027
 0.79600  1.00000  0.77710
 0.93593  1.00000  0.77393
 1.00000  1.00000  0.77076
 0.00235  0.00000  0.96355
 0.14228  0.00000  0.96038
 0.28221  0.00000  0.95721
 0.42214  0.00000  0.95404
 0.56208  0.00000  0.95088
 0.70201  0.00000  0.94771
 0.84194  0.00000  0.94454
 0.98187  0.00000  0.94137
 1.00000  0.00000  0.93820
 0.00000  0.12068  0.95768
 0.13641  0.11751  0.95451
 0.27634  0.11434  0.95134
 0.41627  0.11117  0.94817
 0.55621  0.10801  0.94501
 0.69614  0.10484  0.94184
 0.83607  0.10167  0.93867
 0.97600  0.09850  0.93550
 1.00000  0.09533  0.93233
 0.00000  0.24981  0.95181
 0.13054  0.24664  0.94864
 0.27047  0.24347  0.94547
 0.41040  0.24030  0.94230
 0.55034  0.23714  0.93914
 0.69027  0.23397  0.93597
 0.83020  0.23080  0.93280
 0.97013  0.22763  0.92963
 1.00000  0.22446  0.92646
 0.00000  0.37894  0.94594
 0.12467  0.37577  0.94277
 0.26460  0.37260  0.93960
 0.40453  0.36943  0.93643
 0.54447  0.36627  0.93327
 0.68440  0.36310  0.93010
 0.82433  0.35993  0.92693
 0.96426  0.35676  0.92376
 1.00000  0.35359  0.92059
 0.00000  0.50807  0.94007
 0.11880  0.50490  0.93690
 0.25873  0.50173  0.93373
 0.39866  0.49856  0.93056
 0.53860  0.49540  0.92740
 0.67853  0.49223  0.92423
 0.81846  0.48906  0.92106
 0.95839  0.48589  0.91789
 1.00000  0.48272  0.91472
 0.00000  0.63720  0.93420
 0.11293  0.63403  0.93103
 0.25286  0.63086  0.92786
 0.39279  0.62769  0.92469
 0.53273  0.62453  0.92153
 0.67266  0.62136  0.91836
 0.81259  0.61819  0.91519
 0.95252  0.61502  0.91202
 1.00000  0.61185  0.90885
 0.00000  0.76633  0.92833
 0.10706  0.76316  0.92516
 0.24699  0.75999  0.92199
 0.38692  0.75682  0.91882
 0.52686  0.75366  0.91566
 0.66679  0.75049  0.91249
 0.80672  0.74732  0.90932
 0.94665  0.74415  0.90615
 1.00000  0.74098  0.90298
 0.00000  0.89546  0.92246
 0.10119  0.89229  0.91929
 0.24112  0.88912  0.91612
 0.38105  0.88595  0.91295
 0.52099  0.88279  0.90979
 0.66092  0.87962  0.90662
 0.80085  0.87645  0.90345
 0.94078  0.87328  0.90028
 1.00000  0.87011  0.89711
 0.00000  1.00000  0.91659
 0.09532  1.00000  0.91342
 0.23525  1.00000  0.91025
 0.37518  1.00000  0.90708
 0.51512  1.00000  0.90392
 0.65505  1.00000  0.90075
 0.79498  1.00000  0.89758
 0.93491  1.00000  0.89441
 1.00000  0.99924  0.89124
