src/assets/luts/autumn.cube
TITLE "秋日暖阳"
LUT_3D_SIZE 17
DOMAIN_MIN 0.0 0.0 0.0
DOMAIN_MAX 1.0 1.0 1.0
# LumEdit built-in LUT · 橙金暖调，秋景氛围
 0.01056  0.00000  0.00000
 0.08053  0.00000  0.00000
 0.15049  0.00000  0.00000
 0.22046  0.00000  0.00000
 0.29042  0.00000  0.00000
 0.36039  0.00000  0.00000
 0.43035  0.00000  0.00000
 0.50032  0.00000  0.00000
 0.57028  0.00000  0.00000
 0.64025  0.00000  0.00000
 0.71021  0.00000  0.00000
 0.78018  0.00000  0.00000
 0.85014  0.00000  0.00000
 0.92011  0.00000  0.00000
 0.99008  0.00000  0.00000
 1.00000  0.00000  0.00000
 1.00000  0.00000  0.00000
 0.00763  0.06433  0.00000
 0.07759  0.06274  0.00000
 0.14756  0.06116  0.00000
 0.21752  0.05957  0.00000
 0.28749  0.05799  0.00000
 0.35745  0.05640  0.00000
 0.42742  0.05482  0.00000
 0.49738  0.05323  0.00000
 0.56735  0.05165  0.00000
 0.63731  0.05006  0.00000
 0.70728  0.04848  0.00000
 0.77724  0.04689  0.00000
 0.84721  0.04531  0.00000
 0.91717  0.04372  0.00000
 0.98714  0.04214  0.00000
 1.00000  0.04056  0.00000
 1.00000  0.03897  0.00000
 0.00469  0.12889  0.00000
 0.07466  0.12731  0.00000
 0.14462  0.12572  0.00000
 0.21459  0.12414  0.00000
 0.28455  0.12255  0.00000
 0.35452  0.12097  0.00000
 0.42448  0.11938  0.00000
 0.49445  0.11780  0.00000
 0.56441  0.11621  0.00000
 0.63438  0.11463  0.00000
 0.70434  0.11304  0.00000
 0.77431  0.11146  0.00000
 0.84427  0.10987  0.00000
 0.91424  0.10829  0.00000
 0.98420  0.10670  0.00000
 1.00000  0.10512  0.00000
 1.00000  0.10354  0.00000
 0.00176  0.19346  0.00000
 0.07172  0.19187  0.00000
 0.14169  0.19029  0.00000
 0.21165  0.18870  0.00000
 0.28162  0.18712  0.00000
 0.35158  0.18553  0.00000
 0.42155  0.18395  0.00000
 0.49151  0.18236  0.00000
 0.56148  0.18078  0.00000
 0.63144  0.17919  0.00000
 0.70141  0.17761  0.00000
 0.77137  0.17602  0.00000
 0.84134  0.17444  0.00000
 0.91130  0.17285  0.00000
 0.98127  0.17127  0.00000
 1.00000  0.16969  0.00000
 1.00000  0.16810  0.00000
 0.00000  0.25802  0.00000
 0.06879  0.25644  0.00000
 0.13875  0.25485  0.00000
 0.20872  0.25327  0.00000
 0.27868  0.25168  0.00000
 0.34865  0.25010  0.00000
 0.41861  0.24851  0.00000
 0.48858  0.24693  0.00000
 0.55854  0.24534  0.00000
 0.62851  0.24376  0.00000
 0.69847  0.24217  0.00000
 0.76844  0.24059  0.00000
 0.83840  0.23900  0.00000
 0.90837  0.23742  0.00000
 0.97834  0.23583  0.00000
 1.00000  0.23425  0.00000
 1.00000  0.23267  0.00000
 0.00000  0.32259  0.00000
 0.06585  0.32100  0.00000
 0.13582  0.31942  0.00000
 0.20578  0.31783  0.00000
 0.27575  0.31625  0.00000
 0.34571  0.31466  0.00000
 0.41568  0.31308  0.00000
 0.48564  0.31149  0.00000
 0.55561  0.30991  0.00000
 0.62557  0.30832  0.00000
 0.69554  0.30674  0.00000
 0.76550  0.30515  0.00000
 0.83547  0.30357  0.00000
 0.90543  0.30198  0.00000
 0.97540  0.30040  0.00000
 1.00000  0.29882  0.00000
 1.00000  0.29723  0.00000
 0.00000  0.38715  0.00000
 0.06292  0.38557  0.00000
 0.13288  0.38398  0.00000
 0.20285  0.38240  0.00000
 0.27281  0.38081  0.00000
 0.34278  0.37923  0.00000
 0.41274  0.37764  0.00000
 0.48271  0.37606  0.00000
 0.55267  0.37447  0.00000
 0.62264  0.37289  0.00000
 0.69260  0.37130  0.00000
 0.76257  0.36972  0.00000
 0.83253  0.36813  0.00000
 0.90250  0.36655  0.00000
 0.97247  0.36496  0.00000
 1.00000  0.36338  0.00000
 1.00000  0.36180  0.00000
 0.00000  0.45172  0.00000
 0.05998  0.45013  0.00000
 0.12995  0.44855  0.00000
 0.19991  0.44696  0.00000
 0.26988  0.44538  0.00000
 0.33984  0.44379  0.00000
 0.40981  0.44221  0.00000
 0.47977  0.44062  0.00000
 0.54974  0.43904  0.00000
 0.61970  0.43745  0.00000
 0.68967  0.43587  0.00000
 0.75963  0.43428  0.00000
 0.82960  0.43270  0.00000
 0.89956  0.43111  0.00000
 0.96953  0.42953  0.00000
 1.00000  0.42795  0.00000
 1.00000  0.42636  0.00000
 0.00000  0.51628  0.00000
 0.05705  0.51470  0.00000
 0.12701  0.51311  0.00000
 0.19698  0.51153  0.00000
 0.26694  0.50994  0.00000
 0.33691  0.50836  0.00000
 0.40687  0.50677  0.00000
 0.47684  0.50519  0.00000
 0.54680  0.50360  0.00000
 0.61677  0.50202  0.00000
 0.68673  0.50043  0.00000
 0.75670  0.49885  0.00000
 0.82666  0.49726  0.00000
 0.89663  0.49568  0.00000
 0.96660  0.49410  0.00000
 1.00000  0.49251  0.00000
 1.00000  0.49093  0.00000
 0.00000  0.58085  0.00000
 0.05411  0.57926  0.00000
 0.12408  0.57768  0.00000
 0.19404  0.57609  0.00000
 0.26401  0.57451  0.00000
 0.33397  0.57292  0.00000
 0.40394  0.57134  0.00000
 0.47390  0.56975  0.00000
 0.54387  0.56817  0.00000
 0.61383  0.56658  0.00000
 0.68380  0.56500  0.00000
 0.75376  0.56341  0.00000
 0.82373  0.56183  0.00000
 0.89369  0.56024  0.00000
 0.96366  0.55866  0.00000
 1.00000  0.55708  0.00000
 1.00000  0.55549  0.00000
 0.00000  0.64541  0.00000
 0.05118  0.64383  0.00000
 0.12114  0.64224  0.00000
 0.19111  0.64066  0.00000
 0.26107  0.63907  0.00000
 0.33104  0.63749  0.00000
 0.40100  0.63590  0.00000
 0.47097  0.63432  0.00000
 0.54093  0.63273  0.00000
 0.61090  0.63115  0.00000
 0.68086  0.62956  0.00000
 0.75083  0.62798  0.00000
 0.82079  0.62639  0.00000
 0.89076  0.62481  0.00000
 0.96073  0.62323  0.00000
 1.00000  0.62164  0.00000
 1.00000  0.62006  0.00000
 0.00000  0.70998  0.00000
 0.04824  0.70839  0.00000
 0.11821  0.70681  0.00000
 0.18817  0.70522  0.00000
 0.25814  0.70364  0.00000
 0.32810  0.70205  0.00000
 0.39807  0.70047  0.00000
 0.46803  0.69888  0.00000
 0.53800  0.69730  0.00000
 0.60796  0.69571  0.00000
 0.67793  0.69413  0.00000
 0.74789  0.69254  0.00000
 0.81786  0.69096  0.00000
 0.88782  0.68937  0.00000
 0.95779  0.68779  0.00000
 1.00000  0.68621  0.00000
 1.00000  0.68462  0.00000
 0.00000  0.77454  0.00000
 0.04531  0.77296  0.00000
 0.11527  0.77137  0.00000
 0.18524  0.76979  0.00000
 0.25520  0.76820  0.00000
 0.32517  0.76662  0.00000
 0.39513  0.76503  0.00000
 0.46510  0.76345  0.00000
 0.53506  0.76186  0.00000
 0.60503  0.76028  0.00000
 0.67499  0.75869  0.00000
 0.74496  0.75711  0.00000
 0.81492  0.75552  0.00000
 0.88489  0.75394  0.00000
 0.95486  0.75235  0.00000
 1.00000  0.75077  0.00000
 1.00000  0.74919  0.00000
 0.00000  0.83911  0.00000
 0.04237  0.83752  0.00000
 0.11234  0.83594  0.00000
 0.18230  0.83435  0.00000
 0.25227  0.83277  0.00000
 0.32223  0.83118  0.00000
 0.39220  0.82960  0.00000
 0.46216  0.82801  0.00000
 0.53213  0.82643  0.00000
 0.60209  0.82484  0.00000
 0.67206  0.82326  0.00000
 0.74202  0.82167  0.00000
 0.81199  0.82009  0.00000
 0.88195  0.81850  0.00000
 0.95192  0.81692  0.00000
 1.00000  0.81534  0.00000
 1.00000  0.81375  0.00000
 0.00000  0.90367  0.00000
 0.03944  0.90209  0.00000
 0.10940  0.90050  0.00000
 0.17937  0.89892  0.00000
 0.24933  0.89733  0.00000
 0.31930  0.89575  0.00000
 0.38926  0.89416  0.00000
 0.45923  0.89258  0.00000
 0.52919  0.89099  0.00000
 0.59916  0.88941  0.00000
 0.66912  0.88782  0.00000
 0.73909  0.88624  0.00000
 0.80905  0.88465  0.00000
 0.87902  0.88307  0.00000
 0.94898  0.88148  0.00000
 1.00000  0.87990  0.00000
 1.00000  0.87832  0.00000
 0.00000  0.96824  0.00000
 0.03650  0.96665  0.00000
 0.10647  0.96507  0.00000
 0.17643  0.96348  0.00000
 0.24640  0.96190  0.00000
 0.31636  0.96031  0.00000
 0.38633  0.95873  0.00000
 0.45629  0.95714  0.00000
 0.52626  0.95556  0.00000
 0.59622  0.95397  0.00000
 0.66619  0.95239  0.00000
 0.73615  0.95080  0.00000
 0.80612  0.94922  0.00000
 0.87608  0.94763  0.00000
 0.94605  0.94605  0.00000
 1.00000  0.94447  0.00000
 1.00000  0.94288  0.00000
 0.00000  1.00000  0.00000
 0.03357  1.00000  0.00000
 0.10353  1.00000  0.00000
 0.17350  1.00000  0.00000
 0.24346  1.00000  0.00000
 0.31343  1.00000  0.00000
 0.38339  1.00000  0.00000
 0.45336  1.00000  0.00000
 0.52332  1.00000  0.00000
 0.59329  1.00000  0.00000
 0.66325  1.00000  0.00000
 0.73322  1.00000  0.00000
 0.80318  1.00000  0.00000
 0.87315  1.00000  0.00000
 0.94312  1.00000  0.00000
 1.00000  1.00000  0.00000
 1.00000  1.00000  0.00000
 0.01005  0.00000  0.06000
 0.08001  0.00000  0.05841
 0.14998  0.00000  0.05683
 0.21994  0.00000  0.05524
 0.28991  0.00000  0.05366
 0.35987  0.00000  0.05207
 0.42984  0.00000  0.05049
 0.49980  0.00000  0.04890
 0.56977  0.00000  0.04732
 0.63974  0.00000  0.04574
 0.70970  0.00000  0.04415
 0.77967  0.00000  0.04257
 0.84963  0.00000  0.04098
 0.91960  0.00000  0.03940
 0.98956  0.00000  0.03781
 1.00000  0.00000  0.03623
 1.00000  0.00000  0.03464
 0.00711  0.06381  0.05706
 0.07708  0.06223  0.05548
 0.14704  0.06064  0.05389
 0.21701  0.05906  0.05231
 0.28697  0.05747  0.05072
 0.35694  0.05589  0.04914
 0.42690  0.05430  0.04755
 0.49687  0.05272  0.04597
 0.56684  0.05114  0.04439
 0.63680  0.04955  0.04280
 0.70677  0.04797  0.04122
 0.77673  0.04638  0.03963
 0.84670  0.04480  0.03805
 0.91666  0.04321  0.03646
 0.98663  0.04163  0.03488
 1.00000  0.04004  0.03329
 1.00000  0.03846  0.03171
 0.00418  0.12838  0.05413
 0.07414  0.12679  0.05254
 0.14411  0.12521  0.05096
 0.21407  0.12362  0.04937
 0.28404  0.12204  0.04779
 0.35400  0.12045  0.04620
 0.42397  0.11887  0.04462
 0.49393  0.11728  0.04303
 0.56390  0.11570  0.04145
 0.63387  0.11412  0.03987
 0.70383  0.11253  0.03828
 0.77380  0.11095  0.03670
 0.84376  0.10936  0.03511
 0.91373  0.10778  0.03353
 0.98369  0.10619  0.03194
 1.00000  0.10461  0.03036
 1.00000  0.10302  0.02877
 0.00124  0.19294  0.05119
 0.07121  0.19136  0.04961
 0.14117  0.18977  0.04802
 0.21114  0.18819  0.04644
 0.28110  0.18660  0.04485
 0.35107  0.18502  0.04327
 0.42103  0.18343  0.04168
 0.49100  0.18185  0.04010
 0.56097  0.18027  0.03852
 0.63093  0.17868  0.03693
 0.70090  0.17710  0.03535
 0.77086  0.17551  0.03376
 0.84083  0.17393  0.03218
 0.91079  0.17234  0.03059
 0.98076  0.17076  0.02901
 1.00000  0.16917  0.02742
 1.00000  0.16759  0.02584
 0.00000  0.25751  0.04826
 0.06827  0.25592  0.04667
 0.13824  0.25434  0.04509
 0.20820  0.25275  0.04350
 0.27817  0.25117  0.04192
 0.34813  0.24958  0.04033
 0.41810  0.24800  0.03875
 0.48806  0.24641  0.03716
 0.55803  0.24483  0.03558
 0.62800  0.24325  0.03400
 0.69796  0.24166  0.03241
 0.76793  0.24008  0.03083
 0.83789  0.23849  0.02924
 0.90786  0.23691  0.02766
 0.97782  0.23532  0.02607
 1.00000  0.23374  0.02449
 1.00000  0.23215  0.02290
 0.00000  0.32207  0.04532
 0.06534  0.32049  0.04374
 0.13530  0.31890  0.04215
 0.20527  0.31732  0.04057
 0.27523  0.31573  0.03898
 0.34520  0.31415  0.03740
 0.41516  0.31256  0.03581
 0.48513  0.31098  0.03423
 0.55510  0.30940  0.03265
 0.62506  0.30781  0.03106
 0.69503  0.30623  0.02948
 0.76499  0.30464  0.02789
 0.83496  0.30306  0.02631
 0.90492  0.30147  0.02472
 0.97489  0.29989  0.02314
 1.00000  0.29830  0.02155
 1.00000  0.29672  0.01997
 0.00000  0.38664  0.04239
 0.06240  0.38505  0.04080
 0.13237  0.38347  0.03922
 0.20233  0.38188  0.03763
 0.27230  0.38030  0.03605
 0.34226  0.37871  0.03446
 0.41223  0.37713  0.03288
 0.48219  0.37554  0.03129
 0.55216  0.37396  0.02971
 0.62213  0.37238  0.02813
 0.69209  0.37079  0.02654
 0.76206  0.36921  0.02496
 0.83202  0.36762  0.02337
 0.90199  0.36604  0.02179
 0.97195  0.36445  0.02020
 1.00000  0.36287  0.01862
 1.00000  0.36128  0.01703
 0.00000  0.45120  0.03945
 0.05947  0.44962  0.03787
 0.12943  0.44803  0.03628
 0.19940  0.44645  0.03470
 0.26936  0.44486  0.03311
 0.33933  0.44328  0.03153
 0.40929  0.44169  0.02994
 0.47926  0.44011  0.02836
 0.54923  0.43853  0.02678
 0.61919  0.43694  0.02519
 0.68916  0.43536  0.02361
 0.75912  0.43377  0.02202
 0.82909  0.43219  0.02044
 0.89905  0.43060  0.01885
 0.96902  0.42902  0.01727
 1.00000  0.42743  0.01568
 1.00000  0.42585  0.01410
 0.00000  0.51577  0.03652
 0.05653  0.51418  0.03493
 0.12650  0.51260  0.03335
 0.19646  0.51101  0.03176
 0.26643  0.50943  0.03018
 0.33639  0.50784  0.02859
 0.40636  0.50626  0.02701
 0.47632  0.50467  0.02542
 0.54629  0.50309  0.02384
 0.61626  0.50151  0.02226
 0.68622  0.49992  0.02067
 0.75619  0.49834  0.01909
 0.82615  0.49675  0.01750
 0.89612  0.49517  0.01592
 0.96608  0.49358  0.01433
 1.00000  0.49200  0.01275
 1.00000  0.49041  0.01116
 0.00000  0.58033  0.03358
 0.05360  0.57875  0.03200
 0.12356  0.57716  0.03041
 0.19353  0.57558  0.02883
 0.26349  0.57399  0.02724
 0.33346  0.57241  0.02566
 0.40342  0.57082  0.02407
 0.47339  0.56924  0.02249
 0.54336  0.56766  0.02091
 0.61332  0.56607  0.01932
 0.68329  0.56449  0.01774
 0.75325  0.56290  0.01615
 0.82322  0.56132  0.01457
 0.89318  0.55973  0.01298
 0.96315  0.55815  0.01140
 1.00000  0.55656  0.00981
 1.00000  0.55498  0.00823
 0.00000  0.64490  0.03065
 0.05066  0.64331  0.02906
 0.12063  0.64173  0.02748
 0.19059  0.64014  0.02589
 0.26056  0.63856  0.02431
 0.33052  0.63697  0.02272
 0.40049  0.63539  0.02114
 0.47045  0.63380  0.01955
 0.54042  0.63222  0.01797
 0.61039  0.63064  0.01639
 0.68035  0.62905  0.01480
 0.75032  0.62747  0.01322
 0.82028  0.62588  0.01163
 0.89025  0.62430  0.01005
 0.96021  0.62271  0.00846
 1.00000  0.62113  0.00688
 1.00000  0.61954  0.00529
 0.00000  0.70946  0.02771
 0.04773  0.70788  0.02613
 0.11769  0.70629  0.02454
 0.18766  0.70471  0.02296
 0.25762  0.70312  0.02137
 0.32759  0.70154  0.01979
 0.39755  0.69995  0.01820
 0.46752  0.69837  0.01662
 0.53749  0.69679  0.01504
 0.60745  0.69520  0.01345
 0.67742  0.69362  0.01187
 0.74738  0.69203  0.01028
 0.81735  0.69045  0.00870
 0.88731  0.68886  0.00711
 0.95728  0.68728  0.00553
 1.00000  0.68569  0.00394
 1.00000  0.68411  0.00236
 0.00000  0.77403  0.02478
 0.04479  0.77244  0.02319
 0.11476  0.77086  0.02161
 0.18472  0.76927  0.02002
 0.25469  0.76769  0.01844
 0.32465  0.76610  0.01685
 0.39462  0.76452  0.01527
 0.46458  0.76293  0.01368
 0.53455  0.76135  0.01210
 0.60452  0.75977  0.01052
 0.67448  0.75818  0.00893
 0.74445  0.75660  0.00735
 0.81441  0.75501  0.00576
 0.88438  0.75343  0.00418
 0.95434  0.75184  0.00259
 1.00000  0.75026  0.00101
 1.00000  0.74867  0.00000
 0.00000  0.83859  0.02184
 0.04186  0.83701  0.02026
 0.11182  0.83542  0.01867
 0.18179  0.83384  0.01709
 0.25175  0.83225  0.01550
 0.32172  0.83067  0.01392
 0.39168  0.82908  0.01233
 0.46165  0.82750  0.01075
 0.53162  0.82592  0.00917
 0.60158  0.82433  0.00758
 0.67155  0.82275  0.00600
 0.74151  0.82116  0.00441
 0.81148  0.81958  0.00283
 0.88144  0.81799  0.00124
 0.95141  0.81641  0.00000
 1.00000  0.81482  0.00000
 1.00000  0.81324  0.00000
 0.00000  0.90316  0.01891
 0.03892  0.90157  0.01732
 0.10889  0.89999  0.01574
 0.17885  0.89840  0.01415
 0.24882  0.89682  0.01257
 0.31878  0.89523  0.01098
 0.38875  0.89365  0.00940
 0.45871  0.89206  0.00781
 0.52868  0.89048  0.00623
 0.59865  0.88890  0.00465
 0.66861  0.88731  0.00306
 0.73858  0.88573  0.00148
 0.80854  0.88414  0.00000
 0.87851  0.88256  0.00000
 0.94847  0.88097  0.00000
 1.00000  0.87939  0.00000
 1.00000  0.87780  0.00000
 0.00000  0.96772  0.01597
 0.03599  0.96614  0.01439
 0.10595  0.96455  0.01280
 0.17592  0.96297  0.01122
 0.24588  0.96138  0.00963
 0.31585  0.95980  0.00805
 0.38581  0.95821  0.00646
 0.45578  0.95663  0.00488
 0.52575  0.95505  0.00330
 0.59571  0.95346  0.00171
 0.66568  0.95188  0.00013
 0.73564  0.95029  0.00000
 0.80561  0.94871  0.00000
 0.87557  0.94712  0.00000
 0.94554  0.94554  0.00000
 1.00000  0.94395  0.00000
 1.00000  0.94237  0.00000
 0.00000  1.00000  0.01304
 0.03305  1.00000  0.01145
 0.10302  1.00000  0.00987
 0.17298  1.00000  0.00828
 0.24295  1.00000  0.00670
 0.31291  1.00000  0.00511
 0.38288  1.00000  0.00353
 0.45284  1.00000  0.00194
 0.52281  1.00000  0.00036
 0.59278  1.00000  0.00000
 0.66274  1.00000  0.00000
 0.73271  1.00000  0.00000
 0.80267  1.00000  0.00000
 0.87264  1.00000  0.00000
 0.94260  1.00000  0.00000
 1.00000  1.00000  0.00000
 1.00000  1.00000  0.00000
 0.00953  0.00000  0.12023
 0.07950  0.00000  0.11865
 0.14947  0.00000  0.11707
 0.21943  0.00000  0.11548
 0.28940  0.00000  0.11390
 0.35936  0.00000  0.11231
 0.42933  0.00000  0.11073
 0.49929  0.00000  0.10914
 0.56926  0.00000  0.10756
 0.63922  0.00000  0.10597
 0.70919  0.00000  0.10439
 0.77915  0.00000  0.10280
 0.84912  0.00000  0.10122
 0.91908  0.00000  0.09963
 0.98905  0.00000  0.09805
 1.00000  0.00000  0.09646
 1.00000  0.00000  0.09488
 0.00660  0.06330  0.11730
 0.07657  0.06172  0.11572
 0.14653  0.06013  0.11413
 0.21650  0.05855  0.11255
 0.28646  0.05696  0.11096
 0.35643  0.05538  0.10938
 0.42639  0.05379  0.10779
 0.49636  0.05221  0.10621
 0.56632  0.05062  0.10462
 0.63629  0.04904  0.10304
 0.70625  0.04745  0.10145
 0.77622  0.04587  0.09987
 0.84618  0.04428  0.09828
 0.91615  0.04270  0.09670
 0.98611  0.04111  0.09511
 1.00000  0.03953  0.09353
 1.00000  0.03794  0.09194
 0.00366  0.12786  0.11436
 0.07363  0.12628  0.11278
 0.14360  0.12470  0.11120
 0.21356  0.12311  0.10961
 0.28353  0.12153  0.10803
 0.35349  0.11994  0.10644
 0.42346  0.11836  0.10486
 0.49342  0.11677  0.10327
 0.56339  0.11519  0.10169
 0.63335  0.11360  0.10010
 0.70332  0.11202  0.09852
 0.77328  0.11043  0.09693
 0.84325  0.10885  0.09535
 0.91321  0.10726  0.09376
 0.98318  0.10568  0.09218
 1.00000  0.10409  0.09059
 1.00000  0.10251  0.08901
 0.00073  0.19243  0.11143
 0.07070  0.19085  0.10985
 0.14066  0.18926  0.10826
 0.21063  0.18768  0.10668
 0.28059  0.18609  0.10509
 0.35056  0.18451  0.10351
 0.42052  0.18292  0.10192
 0.49049  0.18134  0.10034
 0.56045  0.17975  0.09875
 0.63042  0.17817  0.09717
 0.70038  0.17658  0.09558
 0.77035  0.17500  0.09400
 0.84031  0.17341  0.09241
 0.91028  0.17183  0.09083
 0.98024  0.17024  0.08924
 1.00000  0.16866  0.08766
 1.00000  0.16707  0.08607
 0.00000  0.25699  0.10849
 0.06776  0.25541  0.10691
 0.13773  0.25383  0.10533
 0.20769  0.25224  0.10374
 0.27766  0.25066  0.10216
 0.34762  0.24907  0.10057
 0.41759  0.24749  0.09899
 0.48755  0.24590  0.09740
 0.55752  0.24432  0.09582
 0.62748  0.24273  0.09423
 0.69745  0.24115  0.09265
 0.76741  0.23956  0.09106
 0.83738  0.23798  0.08948
 0.90734  0.23639  0.08789
 0.97731  0.23481  0.08631
 1.00000  0.23322  0.08472
 1.00000  0.23164  0.08314
 0.00000  0.32156  0.10556
 0.06483  0.31998  0.10398
 0.13479  0.31839  0.10239
 0.20476  0.31681  0.10081
 0.27472  0.31522  0.09922
 0.34469  0.31364  0.09764
 0.41465  0.31205  0.09605
 0.48462  0.31047  0.09447
 0.55458  0.30888  0.09288
 0.62455  0.30730  0.09130
 0.69451  0.30571  0.08971
 0.76448  0.30413  0.08813
 0.83444  0.30254  0.08654
 0.90441  0.30096  0.08496
 0.97437  0.29937  0.08337
 1.00000  0.29779  0.08179
 1.00000  0.29620  0.08020
 0.00000  0.38612  0.10262
 0.06189  0.38454  0.10104
 0.13186  0.38296  0.09946
 0.20182  0.38137  0.09787
 0.27179  0.37979  0.09629
 0.34175  0.37820  0.09470
 0.41172  0.37662  0.09312
 0.48168  0.37503  0.09153
 0.55165  0.37345  0.08995
 0.62161  0.37186  0.08836
 0.69158  0.37028  0.08678
 0.76154  0.36869  0.08519
 0.83151  0.36711  0.08361
 0.90147  0.36552  0.08202
 0.97144  0.36394  0.08044
 1.00000  0.36235  0.07885
 1.00000  0.36077  0.07727
 0.00000  0.45069  0.09969
 0.05896  0.44911  0.09811
 0.12892  0.44752  0.09652
 0.19889  0.44594  0.09494
 0.26885  0.44435  0.09335
 0.33882  0.44277  0.09177
 0.40878  0.44118  0.09018
 0.47875  0.43960  0.08860
 0.54871  0.43801  0.08701
 0.61868  0.43643  0.08543
 0.68864  0.43484  0.08384
 0.75861  0.43326  0.08226
 0.82857  0.43167  0.08067
 0.89854  0.43009  0.07909
 0.96850  0.42850  0.07750
 1.00000  0.42692  0.07592
 1.00000  0.42533  0.07433
 0.00000  0.51525  0.09675
 0.05602  0.51367  0.09517
 0.12599  0.51209  0.09359
 0.19595  0.51050  0.09200
 0.26592  0.50892  0.09042
 0.33588  0.50733  0.08883
 0.40585  0.50575  0.08725
 0.47581  0.50416  0.08566
 0.54578  0.50258  0.08408
 0.61574  0.50099  0.08249
 0.68571  0.49941  0.08091
 0.75567  0.49782  0.07932
 0.82564  0.49624  0.07774
 0.89560  0.49465  0.07615
 0.96557  0.49307  0.07457
 1.00000  0.49148  0.07298
 1.00000  0.48990  0.07140
 0.00000  0.57982  0.09382
 0.05309  0.57824  0.09224
 0.12305  0.57665  0.09065
 0.19302  0.57507  0.08907
 0.26298  0.57348  0.08748
 0.33295  0.57190  0.08590
 0.40291  0.57031  0.08431
 0.47288  0.56873  0.08273
 0.54284  0.56714  0.08114
 0.61281  0.56556  0.07956
 0.68277  0.56397  0.07797
 0.75274  0.56239  0.07639
 0.82270  0.56080  0.07480
 0.89267  0.55922  0.07322
 0.96263  0.55763  0.07163
 1.00000  0.55605  0.07005
 1.00000  0.55446  0.06846
 0.00000  0.64438  0.09088
 0.05015  0.64280  0.08930
 0.12012  0.64122  0.08772
 0.19008  0.63963  0.08613
 0.26005  0.63805  0.08455
 0.33001  0.63646  0.08296
 0.39998  0.63488  0.08138
 0.46994  0.63329  0.07979
 0.53991  0.63171  0.07821
 0.60987  0.63012  0.07662
 0.67984  0.62854  0.07504
 0.74980  0.62695  0.07345
 0.81977  0.62537  0.07187
 0.88973  0.62378  0.07028
 0.95970  0.62220  0.06870
 1.00000  0.62061  0.06711
 1.00000  0.61903  0.06553
 0.00000  0.70895  0.08795
 0.04722  0.70737  0.08637
 0.11718  0.70578  0.08478
 0.18715  0.70420  0.08320
 0.25711  0.70261  0.08161
 0.32708  0.70103  0.08003
 0.39704  0.69944  0.07844
 0.46701  0.69786  0.07686
 0.53697  0.69627  0.07527
 0.60694  0.69469  0.07369
 0.67690  0.69310  0.07210
 0.74687  0.69152  0.07052
 0.81683  0.68993  0.06893
 0.88680  0.68835  0.06735
 0.95676  0.68676  0.06576
 1.00000  0.68518  0.06418
 1.00000  0.68359  0.06259
 0.00000  0.77351  0.08501
 0.04428  0.77193  0.08343
 0.11425  0.77035  0.08185
 0.18421  0.76876  0.08026
 0.25418  0.76718  0.07868
 0.32414  0.76559  0.07709
 0.39411  0.76401  0.07551
 0.46407  0.76242  0.07392
 0.53404  0.76084  0.07234
 0.60400  0.75925  0.07075
 0.67397  0.75767  0.06917
 0.74393  0.75608  0.06758
 0.81390  0.75450  0.06600
 0.88386  0.75291  0.06441
 0.95383  0.75133  0.06283
 1.00000  0.74974  0.06124
 1.00000  0.74816  0.05966
 0.00000  0.83808  0.08208
 0.04135  0.83650  0.08050
 0.11131  0.83491  0.07891
 0.18128  0.83333  0.07733
 0.25124  0.83174  0.07574
 0.32121  0.83016  0.07416
 0.39117  0.82857  0.07257
 0.46114  0.82699  0.07099
 0.53110  0.82540  0.06940
 0.60107  0.82382  0.06782
 0.67103  0.82223  0.06623
 0.74100  0.82065  0.06465
 0.81096  0.81906  0.06306
 0.88093  0.81748  0.06148
 0.95089  0.81589  0.05989
 1.00000  0.81431  0.05831
 1.00000  0.81272  0.05672
 0.00000  0.90264  0.07914
 0.03841  0.90106  0.07756
 0.10838  0.89948  0.07598
 0.17834  0.89789  0.07439
 0.24831  0.89631  0.07281
 0.31827  0.89472  0.07122
 0.38824  0.89314  0.06964
 0.45820  0.89155  0.06805
 0.52817  0.88997  0.06647
 0.59813  0.88838  0.06488
 0.66810  0.88680  0.06330
 0.73806  0.88521  0.06171
 0.80803  0.88363  0.06013
 0.87799  0.88204  0.05854
 0.94796  0.88046  0.05696
 1.00000  0.87887  0.05537
 1.00000  0.87729  0.05379
 0.00000  0.96721  0.07621
 0.03548  0.96563  0.07463
 0.10544  0.96404  0.07304
 0.17541  0.96246  0.07146
 0.24537  0.96087  0.06987
 0.31534  0.95929  0.06829
 0.38530  0.95770  0.06670
 0.45527  0.95612  0.06512
 0.52523  0.95453  0.06353
 0.59520  0.95295  0.06195
 0.66516  0.95136  0.06036
 0.73513  0.94978  0.05878
 0.80509  0.94819  0.05719
 0.87506  0.94661  0.05561
 0.94502  0.94502  0.05402
 1.00000  0.94344  0.05244
 1.00000  0.94185  0.05085
 0.00000  1.00000  0.07327
 0.03254  1.00000  0.07169
 0.10251  1.00000  0.07011
 0.17247  1.00000  0.06852
 0.24244  1.00000  0.06694
 0.31240  1.00000  0.06535
 0.38237  1.00000  0.06377
 0.45233  1.00000  0.06218
 0.52230  1.00000  0.06060
 0.59226  1.00000  0.05901
 0.66223  1.00000  0.05743
 0.73219  1.00000  0.05584
 0.80216  1.00000  0.05426
 0.87212  1.00000  0.05267
 0.94209  1.00000  0.05109
 1.00000  1.00000  0.04950
 1.00000  1.00000  0.04792
 0.00902  0.00000  0.18047
 0.07899  0.00000  0.17889
 0.14895  0.00000  0.17730
 0.21892  0.00000  0.17572
 0.28888  0.00000  0.17413
 0.35885  0.00000  0.17255
 0.42881  0.00000  0.17096
 0.49878  0.00000  0.16938
 0.56874  0.00000  0.16779
 0.63871  0.00000  0.16621
 0.70867  0.00000  0.16462
 0.77864  0.00000  0.16304
 0.84861  0.00000  0.16146
 0.91857  0.00000  0.15987
 0.98854  0.00000  0.15829
 1.00000  0.00000  0.15670
 1.00000  0.00000  0.15512
