src/assets/luts/bw-classic.cube
TITLE "经典黑白"
LUT_3D_SIZE 9
DOMAIN_MIN 0.0 0.0 0.0
DOMAIN_MAX 1.0 1.0 1.0
# LumEdit built-in LUT · 中性灰阶黑白
 0.00000  0.00000  0.00000
 0.01424  0.01424  0.01424
 0.05349  0.05349  0.05349
 0.09273  0.09273  0.09273
 0.13197  0.13197  0.13197
 0.17122  0.17122  0.17122
 0.21046  0.21046  0.21046
 0.24971  0.24971  0.24971
 0.28895  0.28895  0.28895
 0.05204  0.05204  0.05204
 0.09129  0.09129  0.09129
 0.13053  0.13053  0.13053
 0.16978  0.16978  0.16978
 0.20902  0.20902  0.20902
 0.24826  0.24826  0.24826
 0.28751  0.28751  0.28751
 0.32675  0.32675  0.32675
 0.36599  0.36599  0.36599
 0.12909  0.12909  0.12909
 0.16833  0.16833  0.16833
 0.20757  0.20757  0.20757
 0.24682  0.24682  0.24682
 0.28606  0.28606  0.28606
 0.32531  0.32531  0.32531
 0.36455  0.36455  0.36455
 0.40379  0.40379  0.40379
 0.44304  0.44304  0.44304
 0.20613  0.20613  0.20613
 0.24538  0.24538  0.24538
 0.28462  0.28462  0.28462
 0.32386  0.32386  0.32386
 0.36311  0.36311  0.36311
 0.40235  0.40235  0.40235
 0.44159  0.44159  0.44159
 0.48084  0.48084  0.48084
 0.52008  0.52008  0.52008
 0.28317  0.28317  0.28317
 0.32242  0.32242  0.32242
 0.36166  0.36166  0.36166
 0.40091  0.40091  0.40091
 0.44015  0.44015  0.44015
 0.47939  0.47939  0.47939
 0.51864  0.51864  0.51864
 0.55788  0.55788  0.55788
 0.59713  0.59713  0.59713
 0.36022  0.36022  0.36022
 0.39946  0.39946  0.39946
 0.43871  0.43871  0.43871
 0.47795  0.47795  0.47795
 0.51719  0.51719  0.51719
 0.55644  0.55644  0.55644
 0.59568  0.59568  0.59568
 0.63492  0.63492  0.63492
 0.67417  0.67417  0.67417
 0.43726  0.43726  0.43726
 0.47651  0.47651  0.47651
 0.51575  0.51575  0.51575
 0.55499  0.55499  0.55499
 0.59424  0.59424  0.59424
 0.63348  0.63348  0.63348
 0.67273  0.67273  0.67273
 0.71197  0.71197  0.71197
 0.75121  0.75121  0.75121
 0.51431  0.51431  0.51431
 0.55355  0.55355  0.55355
 0.59279  0.59279  0.59279
 0.63204  0.63204  0.63204
 0.67128  0.67128  0.67128
 0.71053  0.71053  0.71053
 0.74977  0.74977  0.74977
 0.78901  0.78901  0.78901
 0.82826  0.82826  0.82826
 0.59135  0.59135  0.59135
 0.63059  0.63059  0.63059
 0.66984  0.66984  0.66984
 0.70908  0.70908  0.70908
 0.74832  0.74832  0.74832
 0.78757  0.78757  0.78757
 0.82681  0.82681  0.82681
 0.86606  0.86606  0.86606
 0.90530  0.90530  0.90530
 0.00000  0.00000  0.00000
 0.02921  0.02921  0.02921
 0.06845  0.06845  0.06845
 0.10769  0.10769  0.10769
 0.14694  0.14694  0.14694
 0.18618  0.18618  0.18618
 0.22543  0.22543  0.22543
 0.26467  0.26467  0.26467
 0.30391  0.30391  0.30391
 0.06701  0.06701  0.06701
 0.10625  0.10625  0.10625
 0.14549  0.14549  0.14549
 0.18474  0.18474  0.18474
 0.22398  0.22398  0.22398
 0.26322  0.26322  0.26322
 0.30247  0.30247  0.30247
 0.34171  0.34171  0.34171
 0.38096  0.38096  0.38096
 0.14405  0.14405  0.14405
 0.18329  0.18329  0.18329
 0.22254  0.22254  0.22254
 0.26178  0.26178  0.26178
 0.30102  0.30102  0.30102
 0.34027  0.34027  0.34027
 0.37951  0.37951  0.37951
 0.41876  0.41876  0.41876
 0.45800  0.45800  0.45800
 0.22109  0.22109  0.22109
 0.26034  0.26034  0.26034
 0.29958  0.29958  0.29958
 0.33882  0.33882  0.33882
 0.37807  0.37807  0.37807
 0.41731  0.41731  0.41731
 0.45656  0.45656  0.45656
 0.49580  0.49580  0.49580
 0.53504  0.53504  0.53504
 0.29814  0.29814  0.29814
 0.33738  0.33738  0.33738
 0.37662  0.37662  0.37662
 0.41587  0.41587  0.41587
 0.45511  0.45511  0.45511
 0.49436  0.49436  0.49436
 0.53360  0.53360  0.53360
 0.57284  0.57284  0.57284
 0.61209  0.61209  0.61209
 0.37518  0.37518  0.37518
 0.41442  0.41442  0.41442
 0.45367  0.45367  0.45367
 0.49291  0.49291  0.49291
 0.53216  0.53216  0.53216
 0.57140  0.57140  0.57140
 0.61064  0.61064  0.61064
 0.64989  0.64989  0.64989
 0.68913  0.68913  0.68913
 0.45222  0.45222  0.45222
 0.49147  0.49147  0.49147
 0.53071  0.53071  0.53071
 0.56996  0.56996  0.56996
 0.60920  0.60920  0.60920
 0.64844  0.64844  0.64844
 0.68769  0.68769  0.68769
 0.72693  0.72693  0.72693
 0.76617  0.76617  0.76617
 0.52927  0.52927  0.52927
 0.56851  0.56851  0.56851
 0.60776  0.60776  0.60776
 0.64700  0.64700  0.64700
 0.68624  0.68624  0.68624
 0.72549  0.72549  0.72549
 0.76473  0.76473  0.76473
 0.80397  0.80397  0.80397
 0.84322  0.84322  0.84322
 0.60631  0.60631  0.60631
 0.64556  0.64556  0.64556
 0.68480  0.68480  0.68480
 0.72404  0.72404  0.72404
 0.76329  0.76329  0.76329
 0.80253  0.80253  0.80253
 0.84178  0.84178  0.84178
 0.88102  0.88102  0.88102
 0.92026  0.92026  0.92026
 0.00493  0.00493  0.00493
 0.04417  0.04417  0.04417
 0.08341  0.08341  0.08341
 0.12266  0.12266  0.12266
 0.16190  0.16190  0.16190
 0.20114  0.20114  0.20114
 0.24039  0.24039  0.24039
 0.27963  0.27963  0.27963
 0.31888  0.31888  0.31888
 0.08197  0.08197  0.08197
 0.12121  0.12121  0.12121
 0.16046  0.16046  0.16046
 0.19970  0.19970  0.19970
 0.23894  0.23894  0.23894
 0.27819  0.27819  0.27819
 0.31743  0.31743  0.31743
 0.35667  0.35667  0.35667
 0.39592  0.39592  0.39592
 0.15901  0.15901  0.15901
 0.19826  0.19826  0.19826
 0.23750  0.23750  0.23750
 0.27674  0.27674  0.27674
 0.31599  0.31599  0.31599
 0.35523  0.35523  0.35523
 0.39448  0.39448  0.39448
 0.43372  0.43372  0.43372
 0.47296  0.47296  0.47296
 0.23606  0.23606  0.23606
 0.27530  0.27530  0.27530
 0.31454  0.31454  0.31454
 0.35379  0.35379  0.35379
 0.39303  0.39303  0.39303
 0.43227  0.43227  0.43227
 0.47152  0.47152  0.47152
 0.51076  0.51076  0.51076
 0.55001  0.55001  0.55001
 0.31310  0.31310  0.31310
 0.35234  0.35234  0.35234
 0.39159  0.39159  0.39159
 0.43083  0.43083  0.43083
 0.47007  0.47007  0.47007
 0.50932  0.50932  0.50932
 0.54856  0.54856  0.54856
 0.58781  0.58781  0.58781
 0.62705  0.62705  0.62705
 0.39014  0.39014  0.39014
 0.42939  0.42939  0.42939
 0.46863  0.46863  0.46863
 0.50787  0.50787  0.50787
 0.54712  0.54712  0.54712
 0.58636  0.58636  0.58636
 0.62561  0.62561  0.62561
 0.66485  0.66485  0.66485
 0.70409  0.70409  0.70409
 0.46719  0.46719  0.46719
 0.50643  0.50643  0.50643
 0.54568  0.54568  0.54568
 0.58492  0.58492  0.58492
 0.62416  0.62416  0.62416
 0.66341  0.66341  0.66341
 0.70265  0.70265  0.70265
 0.74189  0.74189  0.74189
 0.78114  0.78114  0.78114
 0.54423  0.54423  0.54423
 0.58347  0.58347  0.58347
 0.62272  0.62272  0.62272
 0.66196  0.66196  0.66196
 0.70121  0.70121  0.70121
 0.74045  0.74045  0.74045
 0.77969  0.77969  0.77969
 0.81894  0.81894  0.81894
 0.85818  0.85818  0.85818
 0.62127  0.62127  0.62127
 0.66052  0.66052  0.66052
 0.69976  0.69976  0.69976
 0.73901  0.73901  0.73901
 0.77825  0.77825  0.77825
 0.81749  0.81749  0.81749
 0.85674  0.85674  0.85674
 0.89598  0.89598  0.89598
 0.93522  0.93522  0.93522
 0.01989  0.01989  0.01989
 0.05913  0.05913  0.05913
 0.09837  0.09837  0.09837
 0.13762  0.13762  0.13762
 0.17686  0.17686  0.17686
 0.21611  0.21611  0.21611
 0.25535  0.25535  0.25535
 0.29459  0.29459  0.29459
 0.33384  0.33384  0.33384
 0.09693  0.09693  0.09693
 0.13617  0.13617  0.13617
 0.17542  0.17542  0.17542
 0.21466  0.21466  0.21466
 0.25391  0.25391  0.25391
 0.29315  0.29315  0.29315
 0.33239  0.33239  0.33239
 0.37164  0.37164  0.37164
 0.41088  0.41088  0.41088
 0.17397  0.17397  0.17397
 0.21322  0.21322  0.21322
 0.25246  0.25246  0.25246
 0.29171  0.29171  0.29171
 0.33095  0.33095  0.33095
 0.37019  0.37019  0.37019
 0.40944  0.40944  0.40944
 0.44868  0.44868  0.44868
 0.48792  0.48792  0.48792
 0.25102  0.25102  0.25102
 0.29026  0.29026  0.29026
 0.32951  0.32951  0.32951
 0.36875  0.36875  0.36875
 0.40799  0.40799  0.40799
 0.44724  0.44724  0.44724
 0.48648  0.48648  0.48648
 0.52572  0.52572  0.52572
 0.56497  0.56497  0.56497
 0.32806  0.32806  0.32806
 0.36731  0.36731  0.36731
 0.40655  0.40655  0.40655
 0.44579  0.44579  0.44579
 0.48504  0.48504  0.48504
 0.52428  0.52428  0.52428
 0.56352  0.56352  0.56352
 0.60277  0.60277  0.60277
 0.64201  0.64201  0.64201
 0.40511  0.40511  0.40511
 0.44435  0.44435  0.44435
 0.48359  0.48359  0.48359
 0.52284  0.52284  0.52284
 0.56208  0.56208  0.56208
 0.60132  0.60132  0.60132
 0.64057  0.64057  0.64057
 0.67981  0.67981  0.67981
 0.71906  0.71906  0.71906
 0.48215  0.48215  0.48215
 0.52139  0.52139  0.52139
 0.56064  0.56064  0.56064
 0.59988  0.59988  0.59988
 0.63912  0.63912  0.63912
 0.67837  0.67837  0.67837
 0.71761  0.71761  0.71761
 0.75686  0.75686  0.75686
 0.79610  0.79610  0.79610
 0.55919  0.55919  0.55919
 0.59844  0.59844  0.59844
 0.63768  0.63768  0.63768
 0.67692  0.67692  0.67692
 0.71617  0.71617  0.71617
 0.75541  0.75541  0.75541
 0.79466  0.79466  0.79466
 0.83390  0.83390  0.83390
 0.87314  0.87314  0.87314
 0.63624  0.63624  0.63624
 0.67548  0.67548  0.67548
 0.71472  0.71472  0.71472
 0.75397  0.75397  0.75397
 0.79321  0.79321  0.79321
 0.83246  0.83246  0.83246
 0.87170  0.87170  0.87170
 0.91094  0.91094  0.91094
 0.95019  0.95019  0.95019
 0.03485  0.03485  0.03485
 0.07409  0.07409  0.07409
 0.11334  0.11334  0.11334
 0.15258  0.15258  0.15258
 0.19183  0.19183  0.19183
 0.23107  0.23107  0.23107
 0.27031  0.27031  0.27031
 0.30956  0.30956  0.30956
 0.34880  0.34880  0.34880
 0.11189  0.11189  0.11189
 0.15114  0.15114  0.15114
 0.19038  0.19038  0.19038
 0.22962  0.22962  0.22962
 0.26887  0.26887  0.26887
 0.30811  0.30811  0.30811
 0.34736  0.34736  0.34736
 0.38660  0.38660  0.38660
 0.42584  0.42584  0.42584
 0.18894  0.18894  0.18894
 0.22818  0.22818  0.22818
 0.26742  0.26742  0.26742
 0.30667  0.30667  0.30667
 0.34591  0.34591  0.34591
 0.38516  0.38516  0.38516
 0.42440  0.42440  0.42440
 0.46364  0.46364  0.46364
 0.50289  0.50289  0.50289
 0.26598  0.26598  0.26598
 0.30522  0.30522  0.30522
 0.34447  0.34447  0.34447
 0.38371  0.38371  0.38371
 0.42296  0.42296  0.42296
 0.46220  0.46220  0.46220
 0.50144  0.50144  0.50144
 0.54069  0.54069  0.54069
 0.57993  0.57993  0.57993
 0.34302  0.34302  0.34302
 0.38227  0.38227  0.38227
 0.42151  0.42151  0.42151
 0.46076  0.46076  0.46076
 0.50000  0.50000  0.50000
 0.53924  0.53924  0.53924
 0.57849  0.57849  0.57849
 0.61773  0.61773  0.61773
 0.65698  0.65698  0.65698
 0.42007  0.42007  0.42007
 0.45931  0.45931  0.45931
 0.49856  0.49856  0.49856
 0.53780  0.53780  0.53780
 0.57704  0.57704  0.57704
 0.61629  0.61629  0.61629
 0.65553  0.65553  0.65553
 0.69478  0.69478  0.69478
 0.73402  0.73402  0.73402
 0.49711  0.49711  0.49711
 0.53636  0.53636  0.53636
 0.57560  0.57560  0.57560
 0.61484  0.61484  0.61484
 0.65409  0.65409  0.65409
 0.69333  0.69333  0.69333
 0.73257  0.73257  0.73257
 0.77182  0.77182  0.77182
 0.81106  0.81106  0.81106
 0.57416  0.57416  0.57416
 0.61340  0.61340  0.61340
 0.65264  0.65264  0.65264
 0.69189  0.69189  0.69189
 0.73113  0.73113  0.73113
 0.77038  0.77038  0.77038
 0.80962  0.80962  0.80962
 0.84886  0.84886  0.84886
 0.88811  0.88811  0.88811
 0.65120  0.65120  0.65120
 0.69044  0.69044  0.69044
 0.72969  0.72969  0.72969
 0.76893  0.76893  0.76893
 0.80817  0.80817  0.80817
 0.84742  0.84742  0.84742
 0.88666  0.88666  0.88666
 0.92591  0.92591  0.92591
 0.96515  0.96515  0.96515
 0.04981  0.04981  0.04981
 0.08906  0.08906  0.08906
 0.12830  0.12830  0.12830
 0.16754  0.16754  0.16754
 0.20679  0.20679  0.20679
 0.24603  0.24603  0.24603
 0.28527  0.28527  0.28527
 0.32452  0.32452  0.32452
 0.36376  0.36376  0.36376
 0.12686  0.12686  0.12686
 0.16610  0.16610  0.16610
 0.20534  0.20534  0.20534
 0.24459  0.24459  0.24459
 0.28383  0.28383  0.28383
 0.32308  0.32308  0.32308
 0.36232  0.36232  0.36232
 0.40156  0.40156  0.40156
 0.44081  0.44081  0.44081
 0.20390  0.20390  0.20390
 0.24314  0.24314  0.24314
 0.28239  0.28239  0.28239
 0.32163  0.32163  0.32163
 0.36088  0.36088  0.36088
 0.40012  0.40012  0.40012
 0.43936  0.43936  0.43936
 0.47861  0.47861  0.47861
 0.51785  0.51785  0.51785
 0.28094  0.28094  0.28094
 0.32019  0.32019  0.32019
 0.35943  0.35943  0.35943
 0.39867  0.39867  0.39867
 0.43792  0.43792  0.43792
 0.47716  0.47716  0.47716
 0.51641  0.51641  0.51641
 0.55565  0.55565  0.55565
 0.59489  0.59489  0.59489
 0.35799  0.35799  0.35799
 0.39723  0.39723  0.39723
 0.43648  0.43648  0.43648
 0.47572  0.47572  0.47572
 0.51496  0.51496  0.51496
 0.55421  0.55421  0.55421
 0.59345  0.59345  0.59345
 0.63269  0.63269  0.63269
 0.67194  0.67194  0.67194
 0.43503  0.43503  0.43503
 0.47427  0.47427  0.47427
 0.51352  0.51352  0.51352
 0.55276  0.55276  0.55276
 0.59201  0.59201  0.59201
 0.63125  0.63125  0.63125
 0.67049  0.67049  0.67049
 0.70974  0.70974  0.70974
 0.74898  0.74898  0.74898
 0.51207  0.51207  0.51207
 0.55132  0.55132  0.55132
 0.59056  0.59056  0.59056
 0.62981  0.62981  0.62981
 0.66905  0.66905  0.66905
 0.70829  0.70829  0.70829
 0.74754  0.74754  0.74754
 0.78678  0.78678  0.78678
 0.82603  0.82603  0.82603
 0.58912  0.58912  0.58912
 0.62836  0.62836  0.62836
 0.66761  0.66761  0.66761
 0.70685  0.70685  0.70685
 0.74609  0.74609  0.74609
 0.78534  0.78534  0.78534
 0.82458  0.82458  0.82458
 0.86383  0.86383  0.86383
 0.90307  0.90307  0.90307
 0.66616  0.66616  0.66616
 0.70541  0.70541  0.70541
 0.74465  0.74465  0.74465
 0.78389  0.78389  0.78389
 0.82314  0.82314  0.82314
 0.86238  0.86238  0.86238
 0.90163  0.90163  0.90163
 0.94087  0.94087  0.94087
 0.98011  0.98011  0.98011
 0.06478  0.06478  0.06478
 0.10402  0.10402  0.10402
 0.14326  0.14326  0.14326
 0.18251  0.18251  0.18251
 0.22175  0.22175  0.22175
 0.26099  0.26099  0.26099
 0.30024  0.30024  0.30024
 0.33948  0.33948  0.33948
 0.37872  0.37872  0.37872
 0.14182  0.14182  0.14182
 0.18106  0.18106  0.18106
 0.22031  0.22031  0.22031
 0.25955  0.25955  0.25955
 0.29879  0.29879  0.29879
 0.33804  0.33804  0.33804
 0.37728  0.37728  0.37728
 0.41652  0.41652  0.41652
 0.45577  0.45577  0.45577
 0.21886  0.21886  0.21886
 0.25811  0.25811  0.25811
 0.29735  0.29735  0.29735
 0.33659  0.33659  0.33659
 0.37584  0.37584  0.37584
 0.41508  0.41508  0.41508
 0.45433  0.45433  0.45433
 0.49357  0.49357  0.49357
 0.53281  0.53281  0.53281
 0.29591  0.29591  0.29591
 0.33515  0.33515  0.33515
 0.37439  0.37439  0.37439
 0.41364  0.41364  0.41364
 0.45288  0.45288  0.45288
 0.49212  0.49212  0.49212
 0.53137  0.53137  0.53137
 0.57061  0.57061  0.57061
 0.60986  0.60986  0.60986
 0.37295  0.37295  0.37295
 0.41219  0.41219  0.41219
 0.45144  0.45144  0.45144
 0.49068  0.49068  0.49068
 0.52992  0.52992  0.52992
 0.56917  0.56917  0.56917
 0.60841  0.60841  0.60841
 0.64766  0.64766  0.64766
 0.68690  0.68690  0.68690
 0.44999  0.44999  0.44999
 0.48924  0.48924  0.48924
 0.52848  0.52848  0.52848
 0.56773  0.56773  0.56773
 0.60697  0.60697  0.60697
 0.64621  0.64621  0.64621
 0.68546  0.68546  0.68546
 0.72470  0.72470  0.72470
 0.76394  0.76394  0.76394
 0.52704  0.52704  0.52704
 0.56628  0.56628  0.56628
 0.60553  0.60553  0.60553
 0.64477  0.64477  0.64477
 0.68401  0.68401  0.68401
 0.72326  0.72326  0.72326
 0.76250  0.76250  0.76250
 0.80174  0.80174  0.80174
 0.84099  0.84099  0.84099
 0.60408  0.60408  0.60408
 0.64333  0.64333  0.64333
 0.68257  0.68257  0.68257
 0.72181  0.72181  0.72181
 0.76106  0.76106  0.76106
 0.80030  0.80030  0.80030
 0.83954  0.83954  0.83954
 0.87879  0.87879  0.87879
 0.91803  0.91803  0.91803
 0.68112  0.68112  0.68112
 0.72037  0.72037  0.72037
 0.75961  0.75961  0.75961
 0.79886  0.79886  0.79886
 0.83810  0.83810  0.83810
 0.87734  0.87734  0.87734
 0.91659  0.91659  0.91659
 0.95583  0.95583  0.95583
 0.99507  0.99507  0.99507
 0.07974  0.07974  0.07974
 0.11898  0.11898  0.11898
 0.15822  0.15822  0.15822
 0.19747  0.19747  0.19747
 0.23671  0.23671  0.23671
 0.27596  0.27596  0.27596
 0.31520  0.31520  0.31520
 0.35444  0.35444  0.35444
 0.39369  0.39369  0.39369
 0.15678  0.15678  0.15678
 0.19603  0.19603  0.19603
 0.23527  0.23527  0.23527
 0.27451  0.27451  0.27451
 0.31376  0.31376  0.31376
 0.35300  0.35300  0.35300
 0.39224  0.39224  0.39224
 0.43149  0.43149  0.43149
 0.47073  0.47073  0.47073
 0.23383  0.23383  0.23383
 0.27307  0.27307  0.27307
 0.31231  0.31231  0.31231
 0.35156  0.35156  0.35156
 0.39080  0.39080  0.39080
 0.43004  0.43004  0.43004
 0.46929  0.46929  0.46929
 0.50853  0.50853  0.50853
 0.54778  0.54778  0.54778
 0.31087  0.31087  0.31087
 0.35011  0.35011  0.35011
 0.38936  0.38936  0.38936
 0.42860  0.42860  0.42860
 0.46784  0.46784  0.46784
 0.50709  0.50709  0.50709
 0.54633  0.54633  0.54633
 0.58558  0.58558  0.58558
 0.62482  0.62482  0.62482
 0.38791  0.38791  0.38791
 0.42716  0.42716  0.42716
 0.46640  0.46640  0.46640
 0.50564  0.50564  0.50564
 0.54489  0.54489  0.54489
 0.58413  0.58413  0.58413
 0.62337  0.62337  0.62337
 0.66262  0.66262  0.66262
 0.70186  0.70186  0.70186
 0.46496  0.46496  0.46496
 0.50420  0.50420  0.50420
 0.54344  0.54344  0.54344
 0.58269  0.58269  0.58269
 0.62193  0.62193  0.62193
 0.66117  0.66117  0.66117
 0.70042  0.70042  0.70042
 0.73966  0.73966  0.73966
 0.77891  0.77891  0.77891
 0.54200  0.54200  0.54200
 0.58124  0.58124  0.58124
 0.62049  0.62049  0.62049
 0.65973  0.65973  0.65973
 0.69898  0.69898  0.69898
 0.73822  0.73822  0.73822
 0.77746  0.77746  0.77746
 0.81671  0.81671  0.81671
 0.85595  0.85595  0.85595
 0.61904  0.61904  0.61904
 0.65829  0.65829  0.65829
 0.69753  0.69753  0.69753
 0.73678  0.73678  0.73678
 0.77602  0.77602  0.77602
 0.81526  0.81526  0.81526
 0.85451  0.85451  0.85451
 0.89375  0.89375  0.89375
 0.93299  0.93299  0.93299
 0.69609  0.69609  0.69609
 0.73533  0.73533  0.73533
 0.77458  0.77458  0.77458
 0.81382  0.81382  0.81382
 0.85306  0.85306  0.85306
 0.89231  0.89231  0.89231
 0.93155  0.93155  0.93155
 0.97079  0.97079  0.97079
 1.00000  1.00000  1.00000
 0.09470  0.09470  0.09470
 0.13394  0.13394  0.13394
 0.17319  0.17319  0.17319
 0.21243  0.21243  0.21243
 0.25167  0.25167  0.25167
 0.29092  0.29092  0.29092
 0.33016  0.33016  0.33016
 0.36941  0.36941  0.36941
 0.40865  0.40865  0.40865
 0.17174  0.17174  0.17174
 0.21099  0.21099  0.21099
 0.25023  0.25023  0.25023
 0.28947  0.28947  0.28947
 0.32872  0.32872  0.32872
 0.36796  0.36796  0.36796
 0.40721  0.40721  0.40721
 0.44645  0.44645  0.44645
 0.48569  0.48569  0.48569
 0.24879  0.24879  0.24879
 0.28803  0.28803  0.28803
 0.32727  0.32727  0.32727
 0.36652  0.36652  0.36652
 0.40576  0.40576  0.40576
 0.44501  0.44501  0.44501
 0.48425  0.48425  0.48425
 0.52349  0.52349  0.52349
 0.56274  0.56274  0.56274
 0.32583  0.32583  0.32583
 0.36507  0.36507  0.36507
 0.40432  0.40432  0.40432
 0.44356  0.44356  0.44356
 0.48281  0.48281  0.48281
 0.52205  0.52205  0.52205
 0.56129  0.56129  0.56129
 0.60054  0.60054  0.60054
 0.63978  0.63978  0.63978
 0.40287  0.40287  0.40287
 0.44212  0.44212  0.44212
 0.48136  0.48136  0.48136
 0.52061  0.52061  0.52061
 0.55985  0.55985  0.55985
 0.59909  0.59909  0.59909
 0.63834  0.63834  0.63834
 0.67758  0.67758  0.67758
 0.71683  0.71683  0.71683
 0.47992  0.47992  0.47992
 0.51916  0.51916  0.51916
 0.55841  0.55841  0.55841
 0.59765  0.59765  0.59765
 0.63689  0.63689  0.63689
 0.67614  0.67614  0.67614
 0.71538  0.71538  0.71538
 0.75462  0.75462  0.75462
 0.79387  0.79387  0.79387
 0.55696  0.55696  0.55696
 0.59621  0.59621  0.59621
 0.63545  0.63545  0.63545
 0.67469  0.67469  0.67469
 0.71394  0.71394  0.71394
 0.75318  0.75318  0.75318
 0.79242  0.79242  0.79242
 0.83167  0.83167  0.83167
 0.87091  0.87091  0.87091
 0.63401  0.63401  0.63401
 0.67325  0.67325  0.67325
 0.71249  0.71249  0.71249
 0.75174  0.75174  0.75174
 0.79098  0.79098  0.79098
 0.83022  0.83022  0.83022
 0.86947  0.86947  0.86947
 0.90871  0.90871  0.90871
 0.94796  0.94796  0.94796
 0.71105  0.71105  0.71105
 0.75029  0.75029  0.75029
 0.78954  0.78954  0.78954
 0.82878  0.82878  0.82878
 0.86802  0.86802  0.86802
 0.90727  0.90727  0.90727
 0.94651  0.94651  0.94651
 0.98576  0.98576  0.98576
 1.00000  1.00000  1.00000
