src/assets/luts/bw-classic.cube
TITLE "经典黑白"
LUT_3D_SIZE 17
DOMAIN_MIN 0.0 0.0 0.0
DOMAIN_MAX 1.0 1.0 1.0
# LumEdit built-in LUT · 中性灰阶黑白
 0.00000  0.00000  0.00000
 0.00000  0.00000  0.00000
 0.01424  0.01424  0.01424
 0.03387  0.03387  0.03387
 0.05349  0.05349  0.05349
 0.07311  0.07311  0.07311
 0.09273  0.09273  0.09273
 0.11235  0.11235  0.11235
 0.13197  0.13197  0.13197
 0.15160  0.15160  0.15160
 0.17122  0.17122  0.17122
 0.19084  0.19084  0.19084
 0.21046  0.21046  0.21046
 0.23008  0.23008  0.23008
 0.24971  0.24971  0.24971
 0.26933  0.26933  0.26933
 0.28895  0.28895  0.28895
 0.01352  0.01352  0.01352
 0.03314  0.03314  0.03314
 0.05277  0.05277  0.05277
 0.07239  0.07239  0.07239
 0.09201  0.09201  0.09201
 0.11163  0.11163  0.11163
 0.13125  0.13125  0.13125
 0.15087  0.15087  0.15087
 0.17050  0.17050  0.17050
 0.19012  0.19012  0.19012
 0.20974  0.20974  0.20974
 0.22936  0.22936  0.22936
 0.24898  0.24898  0.24898
 0.26861  0.26861  0.26861
 0.28823  0.28823  0.28823
 0.30785  0.30785  0.30785
 0.32747  0.32747  0.32747
 0.05204  0.05204  0.05204
 0.07167  0.07167  0.07167
 0.09129  0.09129  0.09129
 0.11091  0.11091  0.11091
 0.13053  0.13053  0.13053
 0.15015  0.15015  0.15015
 0.16978  0.16978  0.16978
 0.18940  0.18940  0.18940
 0.20902  0.20902  0.20902
 0.22864  0.22864  0.22864
 0.24826  0.24826  0.24826
 0.26788  0.26788  0.26788
 0.28751  0.28751  0.28751
 0.30713  0.30713  0.30713
 0.32675  0.32675  0.32675
 0.34637  0.34637  0.34637
 0.36599  0.36599  0.36599
 0.09057  0.09057  0.09057
 0.11019  0.11019  0.11019
 0.12981  0.12981  0.12981
 0.14943  0.14943  0.14943
 0.16905  0.16905  0.16905
 0.18867  0.18867  0.18867
 0.20830  0.20830  0.20830
 0.22792  0.22792  0.22792
 0.24754  0.24754  0.24754
 0.26716  0.26716  0.26716
 0.28678  0.28678  0.28678
 0.30641  0.30641  0.30641
 0.32603  0.32603  0.32603
 0.34565  0.34565  0.34565
 0.36527  0.36527  0.36527
 0.38489  0.38489  0.38489
 0.40452  0.40452  0.40452
 0.12909  0.12909  0.12909
 0.14871  0.14871  0.14871
 0.16833  0.16833  0.16833
 0.18795  0.18795  0.18795
 0.20757  0.20757  0.20757
 0.22720  0.22720  0.22720
 0.24682  0.24682  0.24682
 0.26644  0.26644  0.26644
 0.28606  0.28606  0.28606
 0.30568  0.30568  0.30568
 0.32531  0.32531  0.32531
 0.34493  0.34493  0.34493
 0.36455  0.36455  0.36455
 0.38417  0.38417  0.38417
 0.40379  0.40379  0.40379
 0.42342  0.42342  0.42342
 0.44304  0.44304  0.44304
 0.16761  0.16761  0.16761
 0.18723  0.18723  0.18723
 0.20685  0.20685  0.20685
 0.22647  0.22647  0.22647
 0.24610  0.24610  0.24610
 0.26572  0.26572  0.26572
 0.28534  0.28534  0.28534
 0.30496  0.30496  0.30496
 0.32458  0.32458  0.32458
 0.34421  0.34421  0.34421
 0.36383  0.36383  0.36383
 0.38345  0.38345  0.38345
 0.40307  0.40307  0.40307
 0.42269  0.42269  0.42269
 0.44232  0.44232  0.44232
 0.46194  0.46194  0.46194
 0.48156  0.48156  0.48156
 0.20613  0.20613  0.20613
 0.22575  0.22575  0.22575
 0.24538  0.24538  0.24538
 0.26500  0.26500  0.26500
 0.28462  0.28462  0.28462
 0.30424  0.30424  0.30424
 0.32386  0.32386  0.32386
 0.34348  0.34348  0.34348
 0.36311  0.36311  0.36311
 0.38273  0.38273  0.38273
 0.40235  0.40235  0.40235
 0.42197  0.42197  0.42197
 0.44159  0.44159  0.44159
 0.46122  0.46122  0.46122
 0.48084  0.48084  0.48084
 0.50046  0.50046  0.50046
 0.52008  0.52008  0.52008
 0.24465  0.24465  0.24465
 0.26428  0.26428  0.26428
 0.28390  0.28390  0.28390
 0.30352  0.30352  0.30352
 0.32314  0.32314  0.32314
 0.34276  0.34276  0.34276
 0.36238  0.36238  0.36238
 0.38201  0.38201  0.38201
 0.40163  0.40163  0.40163
 0.42125  0.42125  0.42125
 0.44087  0.44087  0.44087
 0.46049  0.46049  0.46049
 0.48012  0.48012  0.48012
 0.49974  0.49974  0.49974
 0.51936  0.51936  0.51936
 0.53898  0.53898  0.53898
 0.55860  0.55860  0.55860
 0.28317  0.28317  0.28317
 0.30280  0.30280  0.30280
 0.32242  0.32242  0.32242
 0.34204  0.34204  0.34204
 0.36166  0.36166  0.36166
 0.38128  0.38128  0.38128
 0.40091  0.40091  0.40091
 0.42053  0.42053  0.42053
 0.44015  0.44015  0.44015
 0.45977  0.45977  0.45977
 0.47939  0.47939  0.47939
 0.49902  0.49902  0.49902
 0.51864  0.51864  0.51864
 0.53826  0.53826  0.53826
 0.55788  0.55788  0.55788
 0.57750  0.57750  0.57750
 0.59713  0.59713  0.59713
 0.32170  0.32170  0.32170
 0.34132  0.34132  0.34132
 0.36094  0.36094  0.36094
 0.38056  0.38056  0.38056
 0.40018  0.40018  0.40018
 0.41981  0.41981  0.41981
 0.43943  0.43943  0.43943
 0.45905  0.45905  0.45905
 0.47867  0.47867  0.47867
 0.49829  0.49829  0.49829
 0.51792  0.51792  0.51792
 0.53754  0.53754  0.53754
 0.55716  0.55716  0.55716
 0.57678  0.57678  0.57678
 0.59640  0.59640  0.59640
 0.61602  0.61602  0.61602
 0.63565  0.63565  0.63565
 0.36022  0.36022  0.36022
 0.37984  0.37984  0.37984
 0.39946  0.39946  0.39946
 0.41908  0.41908  0.41908
 0.43871  0.43871  0.43871
 0.45833  0.45833  0.45833
 0.47795  0.47795  0.47795
 0.49757  0.49757  0.49757
 0.51719  0.51719  0.51719
 0.53682  0.53682  0.53682
 0.55644  0.55644  0.55644
 0.57606  0.57606  0.57606
 0.59568  0.59568  0.59568
 0.61530  0.61530  0.61530
 0.63492  0.63492  0.63492
 0.65455  0.65455  0.65455
 0.67417  0.67417  0.67417
 0.39874  0.39874  0.39874
 0.41836  0.41836  0.41836
 0.43798  0.43798  0.43798
 0.45761  0.45761  0.45761
 0.47723  0.47723  0.47723
 0.49685  0.49685  0.49685
 0.51647  0.51647  0.51647
 0.53609  0.53609  0.53609
 0.55572  0.55572  0.55572
 0.57534  0.57534  0.57534
 0.59496  0.59496  0.59496
 0.61458  0.61458  0.61458
 0.63420  0.63420  0.63420
 0.65382  0.65382  0.65382
 0.67345  0.67345  0.67345
 0.69307  0.69307  0.69307
 0.71269  0.71269  0.71269
 0.43726  0.43726  0.43726
 0.45688  0.45688  0.45688
 0.47651  0.47651  0.47651
 0.49613  0.49613  0.49613
 0.51575  0.51575  0.51575
 0.53537  0.53537  0.53537
 0.55499  0.55499  0.55499
 0.57462  0.57462  0.57462
 0.59424  0.59424  0.59424
 0.61386  0.61386  0.61386
 0.63348  0.63348  0.63348
 0.65310  0.65310  0.65310
 0.67273  0.67273  0.67273
 0.69235  0.69235  0.69235
 0.71197  0.71197  0.71197
 0.73159  0.73159  0.73159
 0.75121  0.75121  0.75121
 0.47578  0.47578  0.47578
 0.49541  0.49541  0.49541
 0.51503  0.51503  0.51503
 0.53465  0.53465  0.53465
 0.55427  0.55427  0.55427
 0.57389  0.57389  0.57389
 0.59352  0.59352  0.59352
 0.61314  0.61314  0.61314
 0.63276  0.63276  0.63276
 0.65238  0.65238  0.65238
 0.67200  0.67200  0.67200
 0.69162  0.69162  0.69162
 0.71125  0.71125  0.71125
 0.73087  0.73087  0.73087
 0.75049  0.75049  0.75049
 0.77011  0.77011  0.77011
 0.78973  0.78973  0.78973
 0.51431  0.51431  0.51431
 0.53393  0.53393  0.53393
 0.55355  0.55355  0.55355
 0.57317  0.57317  0.57317
 0.59279  0.59279  0.59279
 0.61242  0.61242  0.61242
 0.63204  0.63204  0.63204
 0.65166  0.65166  0.65166
 0.67128  0.67128  0.67128
 0.69090  0.69090  0.69090
 0.71053  0.71053  0.71053
 0.73015  0.73015  0.73015
 0.74977  0.74977  0.74977
 0.76939  0.76939  0.76939
 0.78901  0.78901  0.78901
 0.80863  0.80863  0.80863
 0.82826  0.82826  0.82826
 0.55283  0.55283  0.55283
 0.57245  0.57245  0.57245
 0.59207  0.59207  0.59207
 0.61169  0.61169  0.61169
 0.63132  0.63132  0.63132
 0.65094  0.65094  0.65094
 0.67056  0.67056  0.67056
 0.69018  0.69018  0.69018
 0.70980  0.70980  0.70980
 0.72942  0.72942  0.72942
 0.74905  0.74905  0.74905
 0.76867  0.76867  0.76867
 0.78829  0.78829  0.78829
 0.80791  0.80791  0.80791
 0.82753  0.82753  0.82753
 0.84716  0.84716  0.84716
 0.86678  0.86678  0.86678
 0.59135  0.59135  0.59135
 0.61097  0.61097  0.61097
 0.63059  0.63059  0.63059
 0.65022  0.65022  0.65022
 0.66984  0.66984  0.66984
 0.68946  0.68946  0.68946
 0.70908  0.70908  0.70908
 0.72870  0.72870  0.72870
 0.74832  0.74832  0.74832
 0.76795  0.76795  0.76795
 0.78757  0.78757  0.78757
 0.80719  0.80719  0.80719
 0.82681  0.82681  0.82681
 0.84643  0.84643  0.84643
 0.86606  0.86606  0.86606
 0.88568  0.88568  0.88568
 0.90530  0.90530  0.90530
 0.00000  0.00000  0.00000
 0.00210  0.00210  0.00210
 0.02172  0.02172  0.02172
 0.04135  0.04135  0.04135
 0.06097  0.06097  0.06097
 0.08059  0.08059  0.08059
 0.10021  0.10021  0.10021
 0.11983  0.11983  0.11983
 0.13946  0.13946  0.13946
 0.15908  0.15908  0.15908
 0.17870  0.17870  0.17870
 0.19832  0.19832  0.19832
 0.21794  0.21794  0.21794
 0.23757  0.23757  0.23757
 0.25719  0.25719  0.25719
 0.27681  0.27681  0.27681
 0.29643  0.29643  0.29643
 0.02100  0.02100  0.02100
 0.04062  0.04062  0.04062
 0.06025  0.06025  0.06025
 0.07987  0.07987  0.07987
 0.09949  0.09949  0.09949
 0.11911  0.11911  0.11911
 0.13873  0.13873  0.13873
 0.15836  0.15836  0.15836
 0.17798  0.17798  0.17798
 0.19760  0.19760  0.19760
 0.21722  0.21722  0.21722
 0.23684  0.23684  0.23684
 0.25647  0.25647  0.25647
 0.27609  0.27609  0.27609
 0.29571  0.29571  0.29571
 0.31533  0.31533  0.31533
 0.33495  0.33495  0.33495
 0.05952  0.05952  0.05952
 0.07915  0.07915  0.07915
 0.09877  0.09877  0.09877
 0.11839  0.11839  0.11839
 0.13801  0.13801  0.13801
 0.15763  0.15763  0.15763
 0.17726  0.17726  0.17726
 0.19688  0.19688  0.19688
 0.21650  0.21650  0.21650
 0.23612  0.23612  0.23612
 0.25574  0.25574  0.25574
 0.27537  0.27537  0.27537
 0.29499  0.29499  0.29499
 0.31461  0.31461  0.31461
 0.33423  0.33423  0.33423
 0.35385  0.35385  0.35385
 0.37348  0.37348  0.37348
 0.09805  0.09805  0.09805
 0.11767  0.11767  0.11767
 0.13729  0.13729  0.13729
 0.15691  0.15691  0.15691
 0.17653  0.17653  0.17653
 0.19616  0.19616  0.19616
 0.21578  0.21578  0.21578
 0.23540  0.23540  0.23540
 0.25502  0.25502  0.25502
 0.27464  0.27464  0.27464
 0.29427  0.29427  0.29427
 0.31389  0.31389  0.31389
 0.33351  0.33351  0.33351
 0.35313  0.35313  0.35313
 0.37275  0.37275  0.37275
 0.39237  0.39237  0.39237
 0.41200  0.41200  0.41200
 0.13657  0.13657  0.13657
 0.15619  0.15619  0.15619
 0.17581  0.17581  0.17581
 0.19543  0.19543  0.19543
 0.21506  0.21506  0.21506
 0.23468  0.23468  0.23468
 0.25430  0.25430  0.25430
 0.27392  0.27392  0.27392
 0.29354  0.29354  0.29354
 0.31317  0.31317  0.31317
 0.33279  0.33279  0.33279
 0.35241  0.35241  0.35241
 0.37203  0.37203  0.37203
 0.39165  0.39165  0.39165
 0.41127  0.41127  0.41127
 0.43090  0.43090  0.43090
 0.45052  0.45052  0.45052
 0.17509  0.17509  0.17509
 0.19471  0.19471  0.19471
 0.21433  0.21433  0.21433
 0.23396  0.23396  0.23396
 0.25358  0.25358  0.25358
 0.27320  0.27320  0.27320
 0.29282  0.29282  0.29282
 0.31244  0.31244  0.31244
 0.33207  0.33207  0.33207
 0.35169  0.35169  0.35169
 0.37131  0.37131  0.37131
 0.39093  0.39093  0.39093
 0.41055  0.41055  0.41055
 0.43017  0.43017  0.43017
 0.44980  0.44980  0.44980
 0.46942  0.46942  0.46942
 0.48904  0.48904  0.48904
 0.21361  0.21361  0.21361
 0.23323  0.23323  0.23323
 0.25286  0.25286  0.25286
 0.27248  0.27248  0.27248
 0.29210  0.29210  0.29210
 0.31172  0.31172  0.31172
 0.33134  0.33134  0.33134
 0.35097  0.35097  0.35097
 0.37059  0.37059  0.37059
 0.39021  0.39021  0.39021
 0.40983  0.40983  0.40983
 0.42945  0.42945  0.42945
 0.44907  0.44907  0.44907
 0.46870  0.46870  0.46870
 0.48832  0.48832  0.48832
 0.50794  0.50794  0.50794
 0.52756  0.52756  0.52756
 0.25213  0.25213  0.25213
 0.27176  0.27176  0.27176
 0.29138  0.29138  0.29138
 0.31100  0.31100  0.31100
 0.33062  0.33062  0.33062
 0.35024  0.35024  0.35024
 0.36987  0.36987  0.36987
 0.38949  0.38949  0.38949
 0.40911  0.40911  0.40911
 0.42873  0.42873  0.42873
 0.44835  0.44835  0.44835
 0.46797  0.46797  0.46797
 0.48760  0.48760  0.48760
 0.50722  0.50722  0.50722
 0.52684  0.52684  0.52684
 0.54646  0.54646  0.54646
 0.56608  0.56608  0.56608
 0.29066  0.29066  0.29066
 0.31028  0.31028  0.31028
 0.32990  0.32990  0.32990
 0.34952  0.34952  0.34952
 0.36914  0.36914  0.36914
 0.38877  0.38877  0.38877
 0.40839  0.40839  0.40839
 0.42801  0.42801  0.42801
 0.44763  0.44763  0.44763
 0.46725  0.46725  0.46725
 0.48688  0.48688  0.48688
 0.50650  0.50650  0.50650
 0.52612  0.52612  0.52612
 0.54574  0.54574  0.54574
 0.56536  0.56536  0.56536
 0.58498  0.58498  0.58498
 0.60461  0.60461  0.60461
 0.32918  0.32918  0.32918
 0.34880  0.34880  0.34880
 0.36842  0.36842  0.36842
 0.38804  0.38804  0.38804
 0.40767  0.40767  0.40767
 0.42729  0.42729  0.42729
 0.44691  0.44691  0.44691
 0.46653  0.46653  0.46653
 0.48615  0.48615  0.48615
 0.50577  0.50577  0.50577
 0.52540  0.52540  0.52540
 0.54502  0.54502  0.54502
 0.56464  0.56464  0.56464
 0.58426  0.58426  0.58426
 0.60388  0.60388  0.60388
 0.62351  0.62351  0.62351
 0.64313  0.64313  0.64313
 0.36770  0.36770  0.36770
 0.38732  0.38732  0.38732
 0.40694  0.40694  0.40694
 0.42657  0.42657  0.42657
 0.44619  0.44619  0.44619
 0.46581  0.46581  0.46581
 0.48543  0.48543  0.48543
 0.50505  0.50505  0.50505
 0.52468  0.52468  0.52468
 0.54430  0.54430  0.54430
 0.56392  0.56392  0.56392
 0.58354  0.58354  0.58354
 0.60316  0.60316  0.60316
 0.62278  0.62278  0.62278
 0.64241  0.64241  0.64241
 0.66203  0.66203  0.66203
 0.68165  0.68165  0.68165
 0.40622  0.40622  0.40622
 0.42584  0.42584  0.42584
 0.44547  0.44547  0.44547
 0.46509  0.46509  0.46509
 0.48471  0.48471  0.48471
 0.50433  0.50433  0.50433
 0.52395  0.52395  0.52395
 0.54358  0.54358  0.54358
 0.56320  0.56320  0.56320
 0.58282  0.58282  0.58282
 0.60244  0.60244  0.60244
 0.62206  0.62206  0.62206
 0.64168  0.64168  0.64168
 0.66131  0.66131  0.66131
 0.68093  0.68093  0.68093
 0.70055  0.70055  0.70055
 0.72017  0.72017  0.72017
 0.44474  0.44474  0.44474
 0.46437  0.46437  0.46437
 0.48399  0.48399  0.48399
 0.50361  0.50361  0.50361
 0.52323  0.52323  0.52323
 0.54285  0.54285  0.54285
 0.56248  0.56248  0.56248
 0.58210  0.58210  0.58210
 0.60172  0.60172  0.60172
 0.62134  0.62134  0.62134
 0.64096  0.64096  0.64096
 0.66058  0.66058  0.66058
 0.68021  0.68021  0.68021
 0.69983  0.69983  0.69983
 0.71945  0.71945  0.71945
 0.73907  0.73907  0.73907
 0.75869  0.75869  0.75869
 0.48327  0.48327  0.48327
 0.50289  0.50289  0.50289
 0.52251  0.52251  0.52251
 0.54213  0.54213  0.54213
 0.56175  0.56175  0.56175
 0.58137  0.58137  0.58137
 0.60100  0.60100  0.60100
 0.62062  0.62062  0.62062
 0.64024  0.64024  0.64024
 0.65986  0.65986  0.65986
 0.67948  0.67948  0.67948
 0.69911  0.69911  0.69911
 0.71873  0.71873  0.71873
 0.73835  0.73835  0.73835
 0.75797  0.75797  0.75797
 0.77759  0.77759  0.77759
 0.79722  0.79722  0.79722
 0.52179  0.52179  0.52179
 0.54141  0.54141  0.54141
 0.56103  0.56103  0.56103
 0.58065  0.58065  0.58065
 0.60028  0.60028  0.60028
 0.61990  0.61990  0.61990
 0.63952  0.63952  0.63952
 0.65914  0.65914  0.65914
 0.67876  0.67876  0.67876
 0.69838  0.69838  0.69838
 0.71801  0.71801  0.71801
 0.73763  0.73763  0.73763
 0.75725  0.75725  0.75725
 0.77687  0.77687  0.77687
 0.79649  0.79649  0.79649
 0.81612  0.81612  0.81612
 0.83574  0.83574  0.83574
 0.56031  0.56031  0.56031
 0.57993  0.57993  0.57993
 0.59955  0.59955  0.59955
 0.61918  0.61918  0.61918
 0.63880  0.63880  0.63880
 0.65842  0.65842  0.65842
 0.67804  0.67804  0.67804
 0.69766  0.69766  0.69766
 0.71728  0.71728  0.71728
 0.73691  0.73691  0.73691
 0.75653  0.75653  0.75653
 0.77615  0.77615  0.77615
 0.79577  0.79577  0.79577
 0.81539  0.81539  0.81539
 0.83502  0.83502  0.83502
 0.85464  0.85464  0.85464
 0.87426  0.87426  0.87426
 0.59883  0.59883  0.59883
 0.61845  0.61845  0.61845
 0.63808  0.63808  0.63808
 0.65770  0.65770  0.65770
 0.67732  0.67732  0.67732
 0.69694  0.69694  0.69694
 0.71656  0.71656  0.71656
 0.73618  0.73618  0.73618
 0.75581  0.75581  0.75581
 0.77543  0.77543  0.77543
 0.79505  0.79505  0.79505
 0.81467  0.81467  0.81467
 0.83429  0.83429  0.83429
 0.85392  0.85392  0.85392
 0.87354  0.87354  0.87354
 0.89316  0.89316  0.89316
 0.91278  0.91278  0.91278
 0.00000  0.00000  0.00000
 0.00958  0.00958  0.00958
 0.02921  0.02921  0.02921
 0.04883  0.04883  0.04883
 0.06845  0.06845  0.06845
 0.08807  0.08807  0.08807
 0.10769  0.10769  0.10769
 0.12732  0.12732  0.12732
 0.14694  0.14694  0.14694
 0.16656  0.16656  0.16656
 0.18618  0.18618  0.18618
 0.20580  0.20580  0.20580
 0.22543  0.22543  0.22543
 0.24505  0.24505  0.24505
 0.26467  0.26467  0.26467
 0.28429  0.28429  0.28429
 0.30391  0.30391  0.30391
 0.02848  0.02848  0.02848
 0.04811  0.04811  0.04811
 0.06773  0.06773  0.06773
 0.08735  0.08735  0.08735
 0.10697  0.10697  0.10697
 0.12659  0.12659  0.12659
 0.14622  0.14622  0.14622
 0.16584  0.16584  0.16584
 0.18546  0.18546  0.18546
 0.20508  0.20508  0.20508
 0.22470  0.22470  0.22470
 0.24432  0.24432  0.24432
 0.26395  0.26395  0.26395
 0.28357  0.28357  0.28357
 0.30319  0.30319  0.30319
 0.32281  0.32281  0.32281
 0.34243  0.34243  0.34243
 0.06701  0.06701  0.06701
 0.08663  0.08663  0.08663
 0.10625  0.10625  0.10625
 0.12587  0.12587  0.12587
 0.14549  0.14549  0.14549
 0.16512  0.16512  0.16512
 0.18474  0.18474  0.18474
 0.20436  0.20436  0.20436
 0.22398  0.22398  0.22398
 0.24360  0.24360  0.24360
 0.26322  0.26322  0.26322
 0.28285  0.28285  0.28285
 0.30247  0.30247  0.30247
 0.32209  0.32209  0.32209
 0.34171  0.34171  0.34171
 0.36133  0.36133  0.36133
 0.38096  0.38096  0.38096
 0.10553  0.10553  0.10553
 0.12515  0.12515  0.12515
 0.14477  0.14477  0.14477
 0.16439  0.16439  0.16439
 0.18402  0.18402  0.18402
 0.20364  0.20364  0.20364
 0.22326  0.22326  0.22326
 0.24288  0.24288  0.24288
 0.26250  0.26250  0.26250
 0.28212  0.28212  0.28212
 0.30175  0.30175  0.30175
 0.32137  0.32137  0.32137
 0.34099  0.34099  0.34099
 0.36061  0.36061  0.36061
 0.38023  0.38023  0.38023
 0.39986  0.39986  0.39986
 0.41948  0.41948  0.41948
 0.14405  0.14405  0.14405
 0.16367  0.16367  0.16367
 0.18329  0.18329  0.18329
 0.20292  0.20292  0.20292
 0.22254  0.22254  0.22254
 0.24216  0.24216  0.24216
 0.26178  0.26178  0.26178
 0.28140  0.28140  0.28140
 0.30102  0.30102  0.30102
 0.32065  0.32065  0.32065
 0.34027  0.34027  0.34027
 0.35989  0.35989  0.35989
 0.37951  0.37951  0.37951
 0.39913  0.39913  0.39913
 0.41876  0.41876  0.41876
 0.43838  0.43838  0.43838
 0.45800  0.45800  0.45800
 0.18257  0.18257  0.18257
 0.20219  0.20219  0.20219
 0.22182  0.22182  0.22182
 0.24144  0.24144  0.24144
 0.26106  0.26106  0.26106
 0.28068  0.28068  0.28068
 0.30030  0.30030  0.30030
 0.31992  0.31992  0.31992
 0.33955  0.33955  0.33955
 0.35917  0.35917  0.35917
 0.37879  0.37879  0.37879
 0.39841  0.39841  0.39841
 0.41803  0.41803  0.41803
 0.43766  0.43766  0.43766
 0.45728  0.45728  0.45728
 0.47690  0.47690  0.47690
 0.49652  0.49652  0.49652
 0.22109  0.22109  0.22109
 0.24072  0.24072  0.24072
 0.26034  0.26034  0.26034
 0.27996  0.27996  0.27996
 0.29958  0.29958  0.29958
 0.31920  0.31920  0.31920
 0.33882  0.33882  0.33882
 0.35845  0.35845  0.35845
 0.37807  0.37807  0.37807
 0.39769  0.39769  0.39769
 0.41731  0.41731  0.41731
 0.43693  0.43693  0.43693
 0.45656  0.45656  0.45656
 0.47618  0.47618  0.47618
 0.49580  0.49580  0.49580
 0.51542  0.51542  0.51542
 0.53504  0.53504  0.53504
 0.25962  0.25962  0.25962
 0.27924  0.27924  0.27924
 0.29886  0.29886  0.29886
 0.31848  0.31848  0.31848
 0.33810  0.33810  0.33810
 0.35772  0.35772  0.35772
 0.37735  0.37735  0.37735
 0.39697  0.39697  0.39697
 0.41659  0.41659  0.41659
 0.43621  0.43621  0.43621
 0.45583  0.45583  0.45583
 0.47546  0.47546  0.47546
 0.49508  0.49508  0.49508
 0.51470  0.51470  0.51470
 0.53432  0.53432  0.53432
 0.55394  0.55394  0.55394
 0.57357  0.57357  0.57357
 0.29814  0.29814  0.29814
 0.31776  0.31776  0.31776
 0.33738  0.33738  0.33738
 0.35700  0.35700  0.35700
 0.37662  0.37662  0.37662
 0.39625  0.39625  0.39625
 0.41587  0.41587  0.41587
 0.43549  0.43549  0.43549
 0.45511  0.45511  0.45511
 0.47473  0.47473  0.47473
 0.49436  0.49436  0.49436
 0.51398  0.51398  0.51398
 0.53360  0.53360  0.53360
 0.55322  0.55322  0.55322
 0.57284  0.57284  0.57284
 0.59247  0.59247  0.59247
 0.61209  0.61209  0.61209
 0.33666  0.33666  0.33666
 0.35628  0.35628  0.35628
 0.37590  0.37590  0.37590
 0.39552  0.39552  0.39552
 0.41515  0.41515  0.41515
 0.43477  0.43477  0.43477
 0.45439  0.45439  0.45439
 0.47401  0.47401  0.47401
 0.49363  0.49363  0.49363
 0.51326  0.51326  0.51326
 0.53288  0.53288  0.53288
 0.55250  0.55250  0.55250
 0.57212  0.57212  0.57212
 0.59174  0.59174  0.59174
 0.61137  0.61137  0.61137
 0.63099  0.63099  0.63099
 0.65061  0.65061  0.65061
 0.37518  0.37518  0.37518
 0.39480  0.39480  0.39480
 0.41442  0.41442  0.41442
 0.43405  0.43405  0.43405
 0.45367  0.45367  0.45367
 0.47329  0.47329  0.47329
 0.49291  0.49291  0.49291
 0.51253  0.51253  0.51253
 0.53216  0.53216  0.53216
 0.55178  0.55178  0.55178
 0.57140  0.57140  0.57140
 0.59102  0.59102  0.59102
 0.61064  0.61064  0.61064
 0.63027  0.63027  0.63027
 0.64989  0.64989  0.64989
 0.66951  0.66951  0.66951
 0.68913  0.68913  0.68913
 0.41370  0.41370  0.41370
 0.43333  0.43333  0.43333
 0.45295  0.45295  0.45295
 0.47257  0.47257  0.47257
 0.49219  0.49219  0.49219
 0.51181  0.51181  0.51181
 0.53143  0.53143  0.53143
 0.55106  0.55106  0.55106
 0.57068  0.57068  0.57068
 0.59030  0.59030  0.59030
 0.60992  0.60992  0.60992
 0.62954  0.62954  0.62954
 0.64917  0.64917  0.64917
 0.66879  0.66879  0.66879
 0.68841  0.68841  0.68841
 0.70803  0.70803  0.70803
 0.72765  0.72765  0.72765
 0.45222  0.45222  0.45222
 0.47185  0.47185  0.47185
 0.49147  0.49147  0.49147
 0.51109  0.51109  0.51109
 0.53071  0.53071  0.53071
 0.55033  0.55033  0.55033
 0.56996  0.56996  0.56996
 0.58958  0.58958  0.58958
 0.60920  0.60920  0.60920
 0.62882  0.62882  0.62882
 0.64844  0.64844  0.64844
 0.66807  0.66807  0.66807
 0.68769  0.68769  0.68769
 0.70731  0.70731  0.70731
 0.72693  0.72693  0.72693
 0.74655  0.74655  0.74655
 0.76617  0.76617  0.76617
 0.49075  0.49075  0.49075
 0.51037  0.51037  0.51037
 0.52999  0.52999  0.52999
 0.54961  0.54961  0.54961
 0.56923  0.56923  0.56923
 0.58886  0.58886  0.58886
 0.60848  0.60848  0.60848
 0.62810  0.62810  0.62810
 0.64772  0.64772  0.64772
 0.66734  0.66734  0.66734
 0.68697  0.68697  0.68697
 0.70659  0.70659  0.70659
 0.72621  0.72621  0.72621
 0.74583  0.74583  0.74583
 0.76545  0.76545  0.76545
 0.78507  0.78507  0.78507
 0.80470  0.80470  0.80470
 0.52927  0.52927  0.52927
 0.54889  0.54889  0.54889
 0.56851  0.56851  0.56851
 0.58813  0.58813  0.58813
 0.60776  0.60776  0.60776
 0.62738  0.62738  0.62738
 0.64700  0.64700  0.64700
 0.66662  0.66662  0.66662
 0.68624  0.68624  0.68624
 0.70587  0.70587  0.70587
 0.72549  0.72549  0.72549
 0.74511  0.74511  0.74511
 0.76473  0.76473  0.76473
 0.78435  0.78435  0.78435
 0.80397  0.80397  0.80397
 0.82360  0.82360  0.82360
 0.84322  0.84322  0.84322
 0.56779  0.56779  0.56779
 0.58741  0.58741  0.58741
 0.60703  0.60703  0.60703
 0.62666  0.62666  0.62666
 0.64628  0.64628  0.64628
 0.66590  0.66590  0.66590
 0.68552  0.68552  0.68552
 0.70514  0.70514  0.70514
 0.72477  0.72477  0.72477
 0.74439  0.74439  0.74439
 0.76401  0.76401  0.76401
 0.78363  0.78363  0.78363
 0.80325  0.80325  0.80325
 0.82288  0.82288  0.82288
 0.84250  0.84250  0.84250
 0.86212  0.86212  0.86212
 0.88174  0.88174  0.88174
 0.60631  0.60631  0.60631
 0.62593  0.62593  0.62593
 0.64556  0.64556  0.64556
 0.66518  0.66518  0.66518
 0.68480  0.68480  0.68480
 0.70442  0.70442  0.70442
 0.72404  0.72404  0.72404
 0.74367  0.74367  0.74367
 0.76329  0.76329  0.76329
 0.78291  0.78291  0.78291
 0.80253  0.80253  0.80253
 0.82215  0.82215  0.82215
 0.84178  0.84178  0.84178
 0.86140  0.86140  0.86140
 0.88102  0.88102  0.88102
 0.90064  0.90064  0.90064
 0.92026  0.92026  0.92026
 0.00000  0.00000  0.00000
 0.01707  0.01707  0.01707
 0.03669  0.03669  0.03669
 0.05631  0.05631  0.05631
 0.07593  0.07593  0.07593
 0.09555  0.09555  0.09555
 0.11517  0.11517  0.11517
 0.13480  0.13480  0.13480
 0.15442  0.15442  0.15442
 0.17404  0.17404  0.17404
 0.19366  0.19366  0.19366
 0.21328  0.21328  0.21328
 0.23291  0.23291  0.23291
 0.25253  0.25253  0.25253
 0.27215  0.27215  0.27215
 0.29177  0.29177  0.29177
 0.31139  0.31139  0.31139
