src/assets/luts/bw-classic.cube
TITLE "经典黑白"
LUT_3D_SIZE 5
DOMAIN_MIN 0.0 0.0 0.0
DOMAIN_MAX 1.0 1.0 1.0
# LumEdit built-in LUT · 中性灰阶黑白
 0.00000  0.00000  0.00000
 0.05349  0.05349  0.05349
 0.13197  0.13197  0.13197
 0.21046  0.21046  0.21046
 0.28895  0.28895  0.28895
 0.12909  0.12909  0.12909
 0.20757  0.20757  0.20757
 0.28606  0.28606  0.28606
 0.36455  0.36455  0.36455
 0.44304  0.44304  0.44304
 0.28317  0.28317  0.28317
 0.36166  0.36166  0.36166
 0.44015  0.44015  0.44015
 0.51864  0.51864  0.51864
 0.59713  0.59713  0.59713
 0.43726  0.43726  0.43726
 0.51575  0.51575  0.51575
 0.59424  0.59424  0.59424
 0.67273  0.67273  0.67273
 0.75121  0.75121  0.75121
 0.59135  0.59135  0.59135
 0.66984  0.66984  0.66984
 0.74832  0.74832  0.74832
 0.82681  0.82681  0.82681
 0.90530  0.90530  0.90530
 0.00493  0.00493  0.00493
 0.08341  0.08341  0.08341
 0.16190  0.16190  0.16190
 0.24039  0.24039  0.24039
 0.31888  0.31888  0.31888
 0.15901  0.15901  0.15901
 0.23750  0.23750  0.23750
 0.31599  0.31599  0.31599
 0.39448  0.39448  0.39448
 0.47296  0.47296  0.47296
 0.31310  0.31310  0.31310
 0.39159  0.39159  0.39159
 0.47007  0.47007  0.47007
 0.54856  0.54856  0.54856
 0.62705  0.62705  0.62705
 0.46719  0.46719  0.46719
 0.54568  0.54568  0.54568
 0.62416  0.62416  0.62416
 0.70265  0.70265  0.70265
 0.78114  0.78114  0.78114
 0.62127  0.62127  0.62127
 0.69976  0.69976  0.69976
 0.77825  0.77825  0.77825
 0.85674  0.85674  0.85674
 0.93522  0.93522  0.93522
 0.03485  0.03485  0.03485
 0.11334  0.11334  0.11334
 0.19183  0.19183  0.19183
 0.27031  0.27031  0.27031
 0.34880  0.34880  0.34880
 0.18894  0.18894  0.18894
 0.26742  0.26742  0.26742
 0.34591  0.34591  0.34591
 0.42440  0.42440  0.42440
 0.50289  0.50289  0.50289
 0.34302  0.34302  0.34302
 0.42151  0.42151  0.42151
 0.50000  0.50000  0.50000
 0.57849  0.57849  0.57849
 0.65698  0.65698  0.65698
 0.49711  0.49711  0.49711
 0.57560  0.57560  0.57560
 0.65409  0.65409  0.65409
 0.73257  0.73257  0.73257
 0.81106  0.81106  0.81106
 0.65120  0.65120  0.65120
 0.72969  0.72969  0.72969
 0.80817  0.80817  0.80817
 0.88666  0.88666  0.88666
 0.96515  0.96515  0.96515
 0.06478  0.06478  0.06478
 0.14326  0.14326  0.14326
 0.22175  0.22175  0.22175
 0.30024  0.30024  0.30024
 0.37872  0.37872  0.37872
 0.21886  0.21886  0.21886
 0.29735  0.29735  0.29735
 0.37584  0.37584  0.37584
 0.45433  0.45433  0.45433
 0.53281  0.53281  0.53281
 0.37295  0.37295  0.37295
 0.45144  0.45144  0.45144
 0.52992  0.52992  0.52992
 0.60841  0.60841  0.60841
 0.68690  0.68690  0.68690
 0.52704  0.52704  0.52704
 0.60553  0.60553  0.60553
 0.68401  0.68401  0.68401
 0.76250  0.76250  0.76250
 0.84099  0.84099  0.84099
 0.68112  0.68112  0.68112
 0.75961  0.75961  0.75961
 0.83810  0.83810  0.83810
 0.91659  0.91659  0.91659
 0.99507  0.99507  0.99507
 0.09470  0.09470  0.09470
 0.17319  0.17319  0.17319
 0.25167  0.25167  0.25167
 0.33016  0.33016  0.33016
 0.40865  0.40865  0.40865
 0.24879  0.24879  0.24879
 0.32727  0.32727  0.32727
 0.40576  0.40576  0.40576
 0.48425  0.48425  0.48425
 0.56274  0.56274  0.56274
 0.40287  0.40287  0.40287
 0.48136  0.48136  0.48136
 0.55985  0.55985  0.55985
 0.63834  0.63834  0.63834
 0.71683  0.71683  0.71683
 0.55696  0.55696  0.55696
 0.63545  0.63545  0.63545
 0.71394  0.71394  0.71394
 0.79242  0.79242  0.79242
 0.87091  0.87091  0.87091
 0.71105  0.71105  0.71105
 0.78954  0.78954  0.78954
 0.86802  0.86802  0.86802
 0.94651  0.94651  0.94651
 1.00000  1.00000  1.00000
