src/assets/luts/cinestill-800t.cube
TITLE "CineStill 800T"
LUT_3D_SIZE 9
DOMAIN_MIN 0.0 0.0 0.0
DOMAIN_MAX 1.0 1.0 1.0
# LumEdit built-in LUT · 夜景胶片，阴影青、高光暖
 0.00000  0.00000  0.00000
 0.08625  0.00000  0.00000
 0.22168  0.00000  0.00000
 0.35711  0.00000  0.00000
 0.49254  0.00000  0.00000
 0.62797  0.00000  0.00000
 0.76340  0.00000  0.00000
 0.89883  0.00000  0.00000
 1.00000  0.00000  0.00000
 0.00000  0.10827  0.00000
 0.09298  0.10901  0.00000
 0.22841  0.10975  0.00000
 0.36384  0.11048  0.00000
 0.49927  0.11122  0.00000
 0.63470  0.11196  0.00000
 0.77013  0.11270  0.00000
 0.90556  0.11344  0.00000
 1.00000  0.11418  0.00000
 0.00000  0.24172  0.00000
 0.09971  0.24246  0.00000
 0.23514  0.24320  0.00000
 0.37058  0.24394  0.00000
 0.50601  0.24468  0.00000
 0.64144  0.24542  0.00000
 0.77687  0.24615  0.00000
 0.91230  0.24689  0.00000
 1.00000  0.24763  0.00000
 0.00000  0.37517  0.00000
 0.10645  0.37591  0.00000
 0.24188  0.37665  0.00000
 0.37731  0.37739  0.00000
 0.51274  0.37813  0.00000
 0.64817  0.37887  0.00000
 0.78360  0.37961  0.00000
 0.91903  0.38035  0.00000
 1.00000  0.38108  0.00000
 0.00000  0.50862  0.00000
 0.11318  0.50936  0.00000
 0.24861  0.51010  0.00000
 0.38404  0.51084  0.00000
 0.51947  0.51158  0.00000
 0.65491  0.51232  0.00000
 0.79034  0.51306  0.00000
 0.92577  0.51380  0.00000
 1.00000  0.51454  0.00000
 0.00000  0.64207  0.00000
 0.11992  0.64281  0.00000
 0.25535  0.64355  0.00000
 0.39078  0.64429  0.00000
 0.52621  0.64503  0.00000
 0.66164  0.64577  0.00000
 0.79707  0.64651  0.00000
 0.93250  0.64725  0.00000
 1.00000  0.64799  0.00000
 0.00000  0.77552  0.00000
 0.12665  0.77626  0.00000
 0.26208  0.77700  0.00000
 0.39751  0.77774  0.00000
 0.53294  0.77848  0.00000
 0.66837  0.77922  0.00000
 0.80380  0.77996  0.00000
 0.93924  0.78070  0.00000
 1.00000  0.78144  0.00000
 0.00000  0.90898  0.00000
 0.13339  0.90972  0.00000
 0.26882  0.91045  0.00000
 0.40425  0.91119  0.00000
 0.53968  0.91193  0.00000
 0.67511  0.91267  0.00000
 0.81054  0.91341  0.00000
 0.94597  0.91415  0.00000
 1.00000  0.91489  0.00000
 0.00469  1.00000  0.00000
 0.14012  1.00000  0.00000
 0.27555  1.00000  0.00000
 0.41098  1.00000  0.00000
 0.54641  1.00000  0.00000
 0.68184  1.00000  0.00000
 0.81727  1.00000  0.00000
 0.95270  1.00000  0.00000
 1.00000  1.00000  0.00000
 0.00000  0.00000  0.13075
 0.08755  0.00000  0.13060
 0.22298  0.00000  0.13044
 0.35841  0.00000  0.13028
 0.49384  0.00000  0.13012
 0.62927  0.00000  0.12997
 0.76471  0.00000  0.12981
 0.90014  0.00000  0.12965
 1.00000  0.00000  0.12949
 0.00000  0.10855  0.13045
 0.09429  0.10929  0.13029
 0.22972  0.11003  0.13013
 0.36515  0.11077  0.12997
 0.50058  0.11151  0.12982
 0.63601  0.11225  0.12966
 0.77144  0.11298  0.12950
 0.90687  0.11372  0.12934
 1.00000  0.11446  0.12918
 0.00000  0.24200  0.13014
 0.10102  0.24274  0.12998
 0.23645  0.24348  0.12982
 0.37188  0.24422  0.12966
 0.50731  0.24496  0.12951
 0.64274  0.24570  0.12935
 0.77817  0.24644  0.12919
 0.91360  0.24718  0.12903
 1.00000  0.24792  0.12888
 0.00000  0.37545  0.12983
 0.10776  0.37619  0.12967
 0.24319  0.37693  0.12951
 0.37862  0.37767  0.12935
 0.51405  0.37841  0.12920
 0.64948  0.37915  0.12904
 0.78491  0.37989  0.12888
 0.92034  0.38063  0.12872
 1.00000  0.38137  0.12857
 0.00000  0.50890  0.12952
 0.11449  0.50964  0.12936
 0.24992  0.51038  0.12920
 0.38535  0.51112  0.12904
 0.52078  0.51186  0.12889
 0.65621  0.51260  0.12873
 0.79164  0.51334  0.12857
 0.92707  0.51408  0.12841
 1.00000  0.51482  0.12826
 0.00000  0.64235  0.12921
 0.12123  0.64309  0.12905
 0.25666  0.64383  0.12889
 0.39209  0.64457  0.12873
 0.52752  0.64531  0.12858
 0.66295  0.64605  0.12842
 0.79838  0.64679  0.12826
 0.93381  0.64753  0.12810
 1.00000  0.64827  0.12795
 0.00000  0.77581  0.12890
 0.12796  0.77655  0.12874
 0.26339  0.77729  0.12858
 0.39882  0.77802  0.12843
 0.53425  0.77876  0.12827
 0.66968  0.77950  0.12811
 0.80511  0.78024  0.12795
 0.94054  0.78098  0.12780
 1.00000  0.78172  0.12764
 0.00000  0.90926  0.12859
 0.13470  0.91000  0.12843
 0.27013  0.91074  0.12827
 0.40556  0.91148  0.12812
 0.54099  0.91222  0.12796
 0.67642  0.91295  0.12780
 0.81185  0.91369  0.12764
 0.94728  0.91443  0.12749
 1.00000  0.91517  0.12733
 0.00600  1.00000  0.12828
 0.14143  1.00000  0.12812
 0.27686  1.00000  0.12796
 0.41229  1.00000  0.12781
 0.54772  1.00000  0.12765
 0.68315  1.00000  0.12749
 0.81858  1.00000  0.12733
 0.95401  1.00000  0.12718
 1.00000  1.00000  0.12702
 0.00000  0.00000  0.26269
 0.08886  0.00000  0.26254
 0.22429  0.00000  0.26238
 0.35972  0.00000  0.26222
 0.49515  0.00000  0.26206
 0.63058  0.00000  0.26191
 0.76601  0.00000  0.26175
 0.90144  0.00000  0.26159
 1.00000  0.00000  0.26143
 0.00000  0.10883  0.26239
 0.09560  0.10957  0.26223
 0.23103  0.11031  0.26207
 0.36646  0.11105  0.26191
 0.50189  0.11179  0.26175
 0.63732  0.11253  0.26160
 0.77275  0.11327  0.26144
 0.90818  0.11401  0.26128
 1.00000  0.11475  0.26112
 0.00000  0.24228  0.26208
 0.10233  0.24302  0.26192
 0.23776  0.24376  0.26176
 0.37319  0.24450  0.26160
 0.50862  0.24524  0.26145
 0.64405  0.24598  0.26129
 0.77948  0.24672  0.26113
 0.91491  0.24746  0.26097
 1.00000  0.24820  0.26082
 0.00000  0.37573  0.26177
 0.10906  0.37647  0.26161
 0.24450  0.37721  0.26145
 0.37993  0.37795  0.26129
 0.51536  0.37869  0.26114
 0.65079  0.37943  0.26098
 0.78622  0.38017  0.26082
 0.92165  0.38091  0.26066
 1.00000  0.38165  0.26051
 0.00000  0.50919  0.26146
 0.11580  0.50992  0.26130
 0.25123  0.51066  0.26114
 0.38666  0.51140  0.26098
 0.52209  0.51214  0.26083
 0.65752  0.51288  0.26067
 0.79295  0.51362  0.26051
 0.92838  0.51436  0.26035
 1.00000  0.51510  0.26020
 0.00000  0.64264  0.26115
 0.12253  0.64338  0.26099
 0.25796  0.64412  0.26083
 0.39339  0.64485  0.26067
 0.52883  0.64559  0.26052
 0.66426  0.64633  0.26036
 0.79969  0.64707  0.26020
 0.93512  0.64781  0.26004
 1.00000  0.64855  0.25989
 0.00000  0.77609  0.26084
 0.12927  0.77683  0.26068
 0.26470  0.77757  0.26052
 0.40013  0.77831  0.26037
 0.53556  0.77905  0.26021
 0.67099  0.77979  0.26005
 0.80642  0.78052  0.25989
 0.94185  0.78126  0.25974
 1.00000  0.78200  0.25958
 0.00057  0.90954  0.26053
 0.13600  0.91028  0.26037
 0.27143  0.91102  0.26021
 0.40686  0.91176  0.26006
 0.54229  0.91250  0.25990
 0.67772  0.91324  0.25974
 0.81316  0.91398  0.25958
 0.94859  0.91472  0.25943
 1.00000  0.91545  0.25927
 0.00731  1.00000  0.26022
 0.14274  1.00000  0.26006
 0.27817  1.00000  0.25990
 0.41360  1.00000  0.25975
 0.54903  1.00000  0.25959
 0.68446  1.00000  0.25943
 0.81989  1.00000  0.25927
 0.95532  1.00000  0.25912
 1.00000  1.00000  0.25896
 0.00000  0.00000  0.39463
 0.09017  0.00000  0.39448
 0.22560  0.00000  0.39432
 0.36103  0.00000  0.39416
 0.49646  0.00000  0.39400
 0.63189  0.00000  0.39385
 0.76732  0.00000  0.39369
 0.90275  0.00000  0.39353
 1.00000  0.00000  0.39337
 0.00000  0.10911  0.39433
 0.09690  0.10985  0.39417
 0.23233  0.11059  0.39401
 0.36776  0.11133  0.39385
 0.50319  0.11207  0.39369
 0.63863  0.11281  0.39354
 0.77406  0.11355  0.39338
 0.90949  0.11429  0.39322
 1.00000  0.11503  0.39306
 0.00000  0.24256  0.39402
 0.10364  0.24330  0.39386
 0.23907  0.24404  0.39370
 0.37450  0.24478  0.39354
 0.50993  0.24552  0.39339
 0.64536  0.24626  0.39323
 0.78079  0.24700  0.39307
 0.91622  0.24774  0.39291
 1.00000  0.24848  0.39275
 0.00000  0.37602  0.39371
 0.11037  0.37675  0.39355
 0.24580  0.37749  0.39339
 0.38123  0.37823  0.39323
 0.51666  0.37897  0.39308
 0.65209  0.37971  0.39292
 0.78752  0.38045  0.39276
 0.92296  0.38119  0.39260
 1.00000  0.38193  0.39245
 0.00000  0.50947  0.39340
 0.11711  0.51021  0.39324
 0.25254  0.51095  0.39308
 0.38797  0.51169  0.39292
 0.52340  0.51242  0.39277
 0.65883  0.51316  0.39261
 0.79426  0.51390  0.39245
 0.92969  0.51464  0.39229
 1.00000  0.51538  0.39214
 0.00000  0.64292  0.39309
 0.12384  0.64366  0.39293
 0.25927  0.64440  0.39277
 0.39470  0.64514  0.39261
 0.53013  0.64588  0.39246
 0.66556  0.64662  0.39230
 0.80099  0.64735  0.39214
 0.93642  0.64809  0.39198
 1.00000  0.64883  0.39183
 0.00000  0.77637  0.39278
 0.13058  0.77711  0.39262
 0.26601  0.77785  0.39246
 0.40144  0.77859  0.39231
 0.53687  0.77933  0.39215
 0.67230  0.78007  0.39199
 0.80773  0.78081  0.39183
 0.94316  0.78155  0.39167
 1.00000  0.78229  0.39152
 0.00188  0.90982  0.39247
 0.13731  0.91056  0.39231
 0.27274  0.91130  0.39215
 0.40817  0.91204  0.39200
 0.54360  0.91278  0.39184
 0.67903  0.91352  0.39168
 0.81446  0.91426  0.39152
 0.94989  0.91500  0.39137
 1.00000  0.91574  0.39121
 0.00862  1.00000  0.39216
 0.14405  1.00000  0.39200
 0.27948  1.00000  0.39184
 0.41491  1.00000  0.39169
 0.55034  1.00000  0.39153
 0.68577  1.00000  0.39137
 0.82120  1.00000  0.39121
 0.95663  1.00000  0.39106
 1.00000  1.00000  0.39090
 0.00000  0.00000  0.52657
 0.09148  0.00000  0.52642
 0.22691  0.00000  0.52626
 0.36234  0.00000  0.52610
 0.49777  0.00000  0.52594
 0.63320  0.00000  0.52579
 0.76863  0.00000  0.52563
 0.90406  0.00000  0.52547
 1.00000  0.00000  0.52531
 0.00000  0.10939  0.52627
 0.09821  0.11013  0.52611
 0.23364  0.11087  0.52595
 0.36907  0.11161  0.52579
 0.50450  0.11235  0.52563
 0.63993  0.11309  0.52548
 0.77536  0.11383  0.52532
 0.91079  0.11457  0.52516
 1.00000  0.11531  0.52500
 0.00000  0.24285  0.52596
 0.10495  0.24359  0.52580
 0.24038  0.24432  0.52564
 0.37581  0.24506  0.52548
 0.51124  0.24580  0.52533
 0.64667  0.24654  0.52517
 0.78210  0.24728  0.52501
 0.91753  0.24802  0.52485
 1.00000  0.24876  0.52469
 0.00000  0.37630  0.52565
 0.11168  0.37704  0.52549
 0.24711  0.37778  0.52533
 0.38254  0.37852  0.52517
 0.51797  0.37925  0.52502
 0.65340  0.37999  0.52486
 0.78883  0.38073  0.52470
 0.92426  0.38147  0.52454
 1.00000  0.38221  0.52439
 0.00000  0.50975  0.52534
 0.11842  0.51049  0.52518
 0.25385  0.51123  0.52502
 0.38928  0.51197  0.52486
 0.52471  0.51271  0.52471
 0.66014  0.51345  0.52455
 0.79557  0.51419  0.52439
 0.93100  0.51492  0.52423
 1.00000  0.51566  0.52408
 0.00000  0.64320  0.52503
 0.12515  0.64394  0.52487
 0.26058  0.64468  0.52471
 0.39601  0.64542  0.52455
 0.53144  0.64616  0.52440
 0.66687  0.64690  0.52424
 0.80230  0.64764  0.52408
 0.93773  0.64838  0.52392
 1.00000  0.64912  0.52377
 0.00000  0.77665  0.52472
 0.13188  0.77739  0.52456
 0.26731  0.77813  0.52440
 0.40275  0.77887  0.52425
 0.53818  0.77961  0.52409
 0.67361  0.78035  0.52393
 0.80904  0.78109  0.52377
 0.94447  0.78183  0.52361
 1.00000  0.78257  0.52346
 0.00319  0.91010  0.52441
 0.13862  0.91084  0.52425
 0.27405  0.91158  0.52409
 0.40948  0.91232  0.52394
 0.54491  0.91306  0.52378
 0.68034  0.91380  0.52362
 0.81577  0.91454  0.52346
 0.95120  0.91528  0.52331
 1.00000  0.91602  0.52315
 0.00992  1.00000  0.52410
 0.14535  1.00000  0.52394
 0.28078  1.00000  0.52378
 0.41621  1.00000  0.52363
 0.55164  1.00000  0.52347
 0.68708  1.00000  0.52331
 0.82251  1.00000  0.52315
 0.95794  1.00000  0.52300
 1.00000  1.00000  0.52284
 0.00000  0.00000  0.65851
 0.09278  0.00000  0.65836
 0.22822  0.00000  0.65820
 0.36365  0.00000  0.65804
 0.49908  0.00000  0.65788
 0.63451  0.00000  0.65773
 0.76994  0.00000  0.65757
 0.90537  0.00000  0.65741
 1.00000  0.00000  0.65725
 0.00000  0.10968  0.65821
 0.09952  0.11042  0.65805
 0.23495  0.11115  0.65789
 0.37038  0.11189  0.65773
 0.50581  0.11263  0.65757
 0.64124  0.11337  0.65742
 0.77667  0.11411  0.65726
 0.91210  0.11485  0.65710
 1.00000  0.11559  0.65694
 0.00000  0.24313  0.65790
 0.10625  0.24387  0.65774
 0.24168  0.24461  0.65758
 0.37711  0.24535  0.65742
 0.51255  0.24609  0.65727
 0.64798  0.24682  0.65711
 0.78341  0.24756  0.65695
 0.91884  0.24830  0.65679
 1.00000  0.24904  0.65663
 0.00000  0.37658  0.65759
 0.11299  0.37732  0.65743
 0.24842  0.37806  0.65727
 0.38385  0.37880  0.65711
 0.51928  0.37954  0.65696
 0.65471  0.38028  0.65680
 0.79014  0.38102  0.65664
 0.92557  0.38175  0.65648
 1.00000  0.38249  0.65633
 0.00000  0.51003  0.65728
 0.11972  0.51077  0.65712
 0.25515  0.51151  0.65696
 0.39058  0.51225  0.65680
 0.52601  0.51299  0.65665
 0.66144  0.51373  0.65649
 0.79688  0.51447  0.65633
 0.93231  0.51521  0.65617
 1.00000  0.51595  0.65602
 0.00000  0.64348  0.65697
 0.12646  0.64422  0.65681
 0.26189  0.64496  0.65665
 0.39732  0.64570  0.65649
 0.53275  0.64644  0.65634
 0.66818  0.64718  0.65618
 0.80361  0.64792  0.65602
 0.93904  0.64866  0.65586
 1.00000  0.64940  0.65571
 0.00000  0.77693  0.65666
 0.13319  0.77767  0.65650
 0.26862  0.77841  0.65634
 0.40405  0.77915  0.65619
 0.53948  0.77989  0.65603
 0.67491  0.78063  0.65587
 0.81034  0.78137  0.65571
 0.94577  0.78211  0.65555
 1.00000  0.78285  0.65540
 0.00450  0.91039  0.65635
 0.13993  0.91112  0.65619
 0.27536  0.91186  0.65603
 0.41079  0.91260  0.65588
 0.54622  0.91334  0.65572
 0.68165  0.91408  0.65556
 0.81708  0.91482  0.65540
 0.95251  0.91556  0.65525
 1.00000  0.91630  0.65509
 0.01123  1.00000  0.65604
 0.14666  1.00000  0.65588
 0.28209  1.00000  0.65572
 0.41752  1.00000  0.65557
 0.55295  1.00000  0.65541
 0.68838  1.00000  0.65525
 0.82381  1.00000  0.65509
 0.95924  1.00000  0.65494
 1.00000  1.00000  0.65478
 0.00000  0.00000  0.79045
 0.09409  0.00000  0.79030
 0.22952  0.00000  0.79014
 0.36495  0.00000  0.78998
 0.50038  0.00000  0.78982
 0.63581  0.00000  0.78967
 0.77124  0.00000  0.78951
 0.90668  0.00000  0.78935
 1.00000  0.00000  0.78919
 0.00000  0.10996  0.79015
 0.10083  0.11070  0.78999
 0.23626  0.11144  0.78983
 0.37169  0.11218  0.78967
 0.50712  0.11292  0.78951
 0.64255  0.11365  0.78936
 0.77798  0.11439  0.78920
 0.91341  0.11513  0.78904
 1.00000  0.11587  0.78888
 0.00000  0.24341  0.78984
 0.10756  0.24415  0.78968
 0.24299  0.24489  0.78952
 0.37842  0.24563  0.78936
 0.51385  0.24637  0.78921
 0.64928  0.24711  0.78905
 0.78471  0.24785  0.78889
 0.92014  0.24859  0.78873
 1.00000  0.24932  0.78857
 0.00000  0.37686  0.78953
 0.11430  0.37760  0.78937
 0.24973  0.37834  0.78921
 0.38516  0.37908  0.78905
 0.52059  0.37982  0.78890
 0.65602  0.38056  0.78874
 0.79145  0.38130  0.78858
 0.92688  0.38204  0.78842
 1.00000  0.38278  0.78827
 0.00000  0.51031  0.78922
 0.12103  0.51105  0.78906
 0.25646  0.51179  0.78890
 0.39189  0.51253  0.78874
 0.52732  0.51327  0.78859
 0.66275  0.51401  0.78843
 0.79818  0.51475  0.78827
 0.93361  0.51549  0.78811
 1.00000  0.51623  0.78796
 0.00000  0.64376  0.78891
 0.12777  0.64450  0.78875
 0.26320  0.64524  0.78859
 0.39863  0.64598  0.78843
 0.53406  0.64672  0.78828
 0.66949  0.64746  0.78812
 0.80492  0.64820  0.78796
 0.94035  0.64894  0.78780
 1.00000  0.64968  0.78765
 0.00000  0.77722  0.78860
 0.13450  0.77796  0.78844
 0.26993  0.77869  0.78828
 0.40536  0.77943  0.78813
 0.54079  0.78017  0.78797
 0.67622  0.78091  0.78781
 0.81165  0.78165  0.78765
 0.94708  0.78239  0.78749
 1.00000  0.78313  0.78734
 0.00580  0.91067  0.78829
 0.14123  0.91141  0.78813
 0.27667  0.91215  0.78797
 0.41210  0.91289  0.78782
 0.54753  0.91363  0.78766
 0.68296  0.91436  0.78750
 0.81839  0.91510  0.78734
 0.95382  0.91584  0.78719
 1.00000  0.91658  0.78703
 0.01254  1.00000  0.78798
 0.14797  1.00000  0.78782
 0.28340  1.00000  0.78766
 0.41883  1.00000  0.78751
 0.55426  1.00000  0.78735
 0.68969  1.00000  0.78719
 0.82512  1.00000  0.78703
 0.96055  1.00000  0.78688
 1.00000  1.00000  0.78672
 0.00000  0.00000  0.92239
 0.09540  0.00000  0.92224
 0.23083  0.00000  0.92208
 0.36626  0.00000  0.92192
 0.50169  0.00000  0.92176
 0.63712  0.00000  0.92161
 0.77255  0.00000  0.92145
 0.90798  0.00000  0.92129
 1.00000  0.00000  0.92113
 0.00000  0.11024  0.92208
 0.10214  0.11098  0.92193
 0.23757  0.11172  0.92177
 0.37300  0.11246  0.92161
 0.50843  0.11320  0.92145
 0.64386  0.11394  0.92130
 0.77929  0.11468  0.92114
 0.91472  0.11542  0.92098
 1.00000  0.11616  0.92082
 0.00000  0.24369  0.92178
 0.10887  0.24443  0.92162
 0.24430  0.24517  0.92146
 0.37973  0.24591  0.92130
 0.51516  0.24665  0.92115
 0.65059  0.24739  0.92099
 0.78602  0.24813  0.92083
 0.92145  0.24887  0.92067
 1.00000  0.24961  0.92051
 0.00000  0.37714  0.92147
 0.11560  0.37788  0.92131
 0.25103  0.37862  0.92115
 0.38647  0.37936  0.92099
 0.52190  0.38010  0.92084
 0.65733  0.38084  0.92068
 0.79276  0.38158  0.92052
 0.92819  0.38232  0.92036
 1.00000  0.38306  0.92021
 0.00000  0.51059  0.92116
 0.12234  0.51133  0.92100
 0.25777  0.51207  0.92084
 0.39320  0.51281  0.92068
 0.52863  0.51355  0.92053
 0.66406  0.51429  0.92037
 0.79949  0.51503  0.92021
 0.93492  0.51577  0.92005
 1.00000  0.51651  0.91990
 0.00000  0.64405  0.92085
 0.12907  0.64479  0.92069
 0.26450  0.64553  0.92053
 0.39993  0.64626  0.92037
 0.53536  0.64700  0.92022
 0.67080  0.64774  0.92006
 0.80623  0.64848  0.91990
 0.94166  0.64922  0.91974
 1.00000  0.64996  0.91959
 0.00038  0.77750  0.92054
 0.13581  0.77824  0.92038
 0.27124  0.77898  0.92022
 0.40667  0.77972  0.92006
 0.54210  0.78046  0.91991
 0.67753  0.78119  0.91975
 0.81296  0.78193  0.91959
 0.94839  0.78267  0.91943
 1.00000  0.78341  0.91928
 0.00711  0.91095  0.92023
 0.14254  0.91169  0.92007
 0.27797  0.91243  0.91991
 0.41340  0.91317  0.91976
 0.54883  0.91391  0.91960
 0.68426  0.91465  0.91944
 0.81969  0.91539  0.91928
 0.95513  0.91613  0.91913
 1.00000  0.91686  0.91897
 0.01385  1.00000  0.91992
 0.14928  1.00000  0.91976
 0.28471  1.00000  0.91960
 0.42014  1.00000  0.91945
 0.55557  1.00000  0.91929
 0.69100  1.00000  0.91913
 0.82643  1.00000  0.91897
 0.96186  1.00000  0.91882
 1.00000  1.00000  0.91866
 0.00000  0.00000  1.00000
 0.09671  0.00000  1.00000
 0.23214  0.00000  1.00000
 0.36757  0.00000  1.00000
 0.50300  0.00000  1.00000
 0.63843  0.00000  1.00000
 0.77386  0.00000  1.00000
 0.90929  0.00000  1.00000
 1.00000  0.00000  1.00000
 0.00000  0.11052  1.00000
 0.10344  0.11126  1.00000
 0.23887  0.11200  1.00000
 0.37430  0.11274  1.00000
 0.50973  0.11348  1.00000
 0.64516  0.11422  1.00000
 0.78060  0.11496  1.00000
 0.91603  0.11570  1.00000
 1.00000  0.11644  1.00000
 0.00000  0.24397  1.00000
 0.11018  0.24471  1.00000
 0.24561  0.24545  1.00000
 0.38104  0.24619  1.00000
 0.51647  0.24693  1.00000
 0.65190  0.24767  1.00000
 0.78733  0.24841  1.00000
 0.92276  0.24915  1.00000
 1.00000  0.24989  1.00000
 0.00000  0.37742  1.00000
 0.11691  0.37816  1.00000
 0.25234  0.37890  1.00000
 0.38777  0.37964  1.00000
 0.52320  0.38038  1.00000
 0.65863  0.38112  1.00000
 0.79406  0.38186  1.00000
 0.92949  0.38260  1.00000
 1.00000  0.38334  1.00000
 0.00000  0.51088  1.00000
 0.12365  0.51162  1.00000
 0.25908  0.51236  1.00000
 0.39451  0.51309  1.00000
 0.52994  0.51383  1.00000
 0.66537  0.51457  1.00000
 0.80080  0.51531  1.00000
 0.93623  0.51605  1.00000
 1.00000  0.51679  1.00000
 0.00000  0.64433  1.00000
 0.13038  0.64507  1.00000
 0.26581  0.64581  1.00000
 0.40124  0.64655  1.00000
 0.53667  0.64729  1.00000
 0.67210  0.64803  1.00000
 0.80753  0.64876  1.00000
 0.94296  0.64950  1.00000
 1.00000  0.65024  1.00000
 0.00169  0.77778  1.00000
 0.13712  0.77852  1.00000
 0.27255  0.77926  1.00000
 0.40798  0.78000  1.00000
 0.54341  0.78074  1.00000
 0.67884  0.78148  1.00000
 0.81427  0.78222  1.00000
 0.94970  0.78296  1.00000
 1.00000  0.78369  1.00000
 0.00842  0.91123  1.00000
 0.14385  0.91197  1.00000
 0.27928  0.91271  1.00000
 0.41471  0.91345  1.00000
 0.55014  0.91419  1.00000
 0.68557  0.91493  1.00000
 0.82100  0.91567  1.00000
 0.95643  0.91641  1.00000
 1.00000  0.91715  1.00000
 0.01515  1.00000  1.00000
 0.15059  1.00000  1.00000
 0.28602  1.00000  1.00000
 0.42145  1.00000  1.00000
 0.55688  1.00000  1.00000
 0.69231  1.00000  1.00000
 0.82774  1.00000  1.00000
 0.96317  1.00000  1.00000
 1.00000  1.00000  1.00000
