src/assets/luts/cinestill-800t.cube
TITLE "CineStill 800T"
LUT_3D_SIZE 17
DOMAIN_MIN 0.0 0.0 0.0
DOMAIN_MAX 1.0 1.0 1.0
# LumEdit built-in LUT · 夜景胶片，阴影青、高光暖
 0.00000  0.00000  0.00000
 0.01853  0.00000  0.00000
 0.08625  0.00000  0.00000
 0.15396  0.00000  0.00000
 0.22168  0.00000  0.00000
 0.28939  0.00000  0.00000
 0.35711  0.00000  0.00000
 0.42482  0.00000  0.00000
 0.49254  0.00000  0.00000
 0.56025  0.00000  0.00000
 0.62797  0.00000  0.00000
 0.69568  0.00000  0.00000
 0.76340  0.00000  0.00000
 0.83111  0.00000  0.00000
 0.89883  0.00000  0.00000
 0.96654  0.00000  0.00000
 1.00000  0.00000  0.00000
 0.00000  0.04154  0.00000
 0.02190  0.04191  0.00000
 0.08961  0.04228  0.00000
 0.15733  0.04265  0.00000
 0.22504  0.04302  0.00000
 0.29276  0.04339  0.00000
 0.36047  0.04376  0.00000
 0.42819  0.04413  0.00000
 0.49590  0.04450  0.00000
 0.56362  0.04487  0.00000
 0.63133  0.04524  0.00000
 0.69905  0.04561  0.00000
 0.76676  0.04598  0.00000
 0.83448  0.04635  0.00000
 0.90220  0.04672  0.00000
 0.96991  0.04709  0.00000
 1.00000  0.04746  0.00000
 0.00000  0.10827  0.00000
 0.02526  0.10864  0.00000
 0.09298  0.10901  0.00000
 0.16070  0.10938  0.00000
 0.22841  0.10975  0.00000
 0.29613  0.11012  0.00000
 0.36384  0.11048  0.00000
 0.43156  0.11085  0.00000
 0.49927  0.11122  0.00000
 0.56699  0.11159  0.00000
 0.63470  0.11196  0.00000
 0.70242  0.11233  0.00000
 0.77013  0.11270  0.00000
 0.83785  0.11307  0.00000
 0.90556  0.11344  0.00000
 0.97328  0.11381  0.00000
 1.00000  0.11418  0.00000
 0.00000  0.17499  0.00000
 0.02863  0.17536  0.00000
 0.09635  0.17573  0.00000
 0.16406  0.17610  0.00000
 0.23178  0.17647  0.00000
 0.29949  0.17684  0.00000
 0.36721  0.17721  0.00000
 0.43492  0.17758  0.00000
 0.50264  0.17795  0.00000
 0.57035  0.17832  0.00000
 0.63807  0.17869  0.00000
 0.70578  0.17906  0.00000
 0.77350  0.17943  0.00000
 0.84121  0.17980  0.00000
 0.90893  0.18017  0.00000
 0.97664  0.18054  0.00000
 1.00000  0.18091  0.00000
 0.00000  0.24172  0.00000
 0.03200  0.24209  0.00000
 0.09971  0.24246  0.00000
 0.16743  0.24283  0.00000
 0.23514  0.24320  0.00000
 0.30286  0.24357  0.00000
 0.37058  0.24394  0.00000
 0.43829  0.24431  0.00000
 0.50601  0.24468  0.00000
 0.57372  0.24505  0.00000
 0.64144  0.24542  0.00000
 0.70915  0.24578  0.00000
 0.77687  0.24615  0.00000
 0.84458  0.24652  0.00000
 0.91230  0.24689  0.00000
 0.98001  0.24726  0.00000
 1.00000  0.24763  0.00000
 0.00000  0.30844  0.00000
 0.03537  0.30881  0.00000
 0.10308  0.30918  0.00000
 0.17080  0.30955  0.00000
 0.23851  0.30992  0.00000
 0.30623  0.31029  0.00000
 0.37394  0.31066  0.00000
 0.44166  0.31103  0.00000
 0.50937  0.31140  0.00000
 0.57709  0.31177  0.00000
 0.64480  0.31214  0.00000
 0.71252  0.31251  0.00000
 0.78023  0.31288  0.00000
 0.84795  0.31325  0.00000
 0.91566  0.31362  0.00000
 0.98338  0.31399  0.00000
 1.00000  0.31436  0.00000
 0.00000  0.37517  0.00000
 0.03873  0.37554  0.00000
 0.10645  0.37591  0.00000
 0.17416  0.37628  0.00000
 0.24188  0.37665  0.00000
 0.30959  0.37702  0.00000
 0.37731  0.37739  0.00000
 0.44503  0.37776  0.00000
 0.51274  0.37813  0.00000
 0.58046  0.37850  0.00000
 0.64817  0.37887  0.00000
 0.71589  0.37924  0.00000
 0.78360  0.37961  0.00000
 0.85132  0.37998  0.00000
 0.91903  0.38035  0.00000
 0.98675  0.38072  0.00000
 1.00000  0.38108  0.00000
 0.00000  0.44190  0.00000
 0.04210  0.44227  0.00000
 0.10982  0.44263  0.00000
 0.17753  0.44300  0.00000
 0.24525  0.44337  0.00000
 0.31296  0.44374  0.00000
 0.38068  0.44411  0.00000
 0.44839  0.44448  0.00000
 0.51611  0.44485  0.00000
 0.58382  0.44522  0.00000
 0.65154  0.44559  0.00000
 0.71925  0.44596  0.00000
 0.78697  0.44633  0.00000
 0.85468  0.44670  0.00000
 0.92240  0.44707  0.00000
 0.99011  0.44744  0.00000
 1.00000  0.44781  0.00000
 0.00000  0.50862  0.00000
 0.04547  0.50899  0.00000
 0.11318  0.50936  0.00000
 0.18090  0.50973  0.00000
 0.24861  0.51010  0.00000
 0.31633  0.51047  0.00000
 0.38404  0.51084  0.00000
 0.45176  0.51121  0.00000
 0.51947  0.51158  0.00000
 0.58719  0.51195  0.00000
 0.65491  0.51232  0.00000
 0.72262  0.51269  0.00000
 0.79034  0.51306  0.00000
 0.85805  0.51343  0.00000
 0.92577  0.51380  0.00000
 0.99348  0.51417  0.00000
 1.00000  0.51454  0.00000
 0.00000  0.57535  0.00000
 0.04884  0.57572  0.00000
 0.11655  0.57609  0.00000
 0.18427  0.57646  0.00000
 0.25198  0.57683  0.00000
 0.31970  0.57720  0.00000
 0.38741  0.57757  0.00000
 0.45513  0.57793  0.00000
 0.52284  0.57830  0.00000
 0.59056  0.57867  0.00000
 0.65827  0.57904  0.00000
 0.72599  0.57941  0.00000
 0.79370  0.57978  0.00000
 0.86142  0.58015  0.00000
 0.92913  0.58052  0.00000
 0.99685  0.58089  0.00000
 1.00000  0.58126  0.00000
 0.00000  0.64207  0.00000
 0.05220  0.64244  0.00000
 0.11992  0.64281  0.00000
 0.18763  0.64318  0.00000
 0.25535  0.64355  0.00000
 0.32306  0.64392  0.00000
 0.39078  0.64429  0.00000
 0.45849  0.64466  0.00000
 0.52621  0.64503  0.00000
 0.59392  0.64540  0.00000
 0.66164  0.64577  0.00000
 0.72936  0.64614  0.00000
 0.79707  0.64651  0.00000
 0.86479  0.64688  0.00000
 0.93250  0.64725  0.00000
 1.00000  0.64762  0.00000
 1.00000  0.64799  0.00000
 0.00000  0.70880  0.00000
 0.05557  0.70917  0.00000
 0.12329  0.70954  0.00000
 0.19100  0.70991  0.00000
 0.25872  0.71028  0.00000
 0.32643  0.71065  0.00000
 0.39415  0.71102  0.00000
 0.46186  0.71139  0.00000
 0.52958  0.71176  0.00000
 0.59729  0.71213  0.00000
 0.66501  0.71250  0.00000
 0.73272  0.71287  0.00000
 0.80044  0.71324  0.00000
 0.86815  0.71360  0.00000
 0.93587  0.71397  0.00000
 1.00000  0.71434  0.00000
 1.00000  0.71471  0.00000
 0.00000  0.77552  0.00000
 0.05894  0.77589  0.00000
 0.12665  0.77626  0.00000
 0.19437  0.77663  0.00000
 0.26208  0.77700  0.00000
 0.32980  0.77737  0.00000
 0.39751  0.77774  0.00000
 0.46523  0.77811  0.00000
 0.53294  0.77848  0.00000
 0.60066  0.77885  0.00000
 0.66837  0.77922  0.00000
 0.73609  0.77959  0.00000
 0.80380  0.77996  0.00000
 0.87152  0.78033  0.00000
 0.93924  0.78070  0.00000
 1.00000  0.78107  0.00000
 1.00000  0.78144  0.00000
 0.00000  0.84225  0.00000
 0.06230  0.84262  0.00000
 0.13002  0.84299  0.00000
 0.19774  0.84336  0.00000
 0.26545  0.84373  0.00000
 0.33317  0.84410  0.00000
 0.40088  0.84447  0.00000
 0.46860  0.84484  0.00000
 0.53631  0.84521  0.00000
 0.60403  0.84558  0.00000
 0.67174  0.84595  0.00000
 0.73946  0.84632  0.00000
 0.80717  0.84669  0.00000
 0.87489  0.84706  0.00000
 0.94260  0.84743  0.00000
 1.00000  0.84780  0.00000
 1.00000  0.84817  0.00000
 0.00000  0.90898  0.00000
 0.06567  0.90935  0.00000
 0.13339  0.90972  0.00000
 0.20110  0.91009  0.00000
 0.26882  0.91045  0.00000
 0.33653  0.91082  0.00000
 0.40425  0.91119  0.00000
 0.47196  0.91156  0.00000
 0.53968  0.91193  0.00000
 0.60739  0.91230  0.00000
 0.67511  0.91267  0.00000
 0.74282  0.91304  0.00000
 0.81054  0.91341  0.00000
 0.87825  0.91378  0.00000
 0.94597  0.91415  0.00000
 1.00000  0.91452  0.00000
 1.00000  0.91489  0.00000
 0.00132  0.97570  0.00000
 0.06904  0.97607  0.00000
 0.13675  0.97644  0.00000
 0.20447  0.97681  0.00000
 0.27219  0.97718  0.00000
 0.33990  0.97755  0.00000
 0.40762  0.97792  0.00000
 0.47533  0.97829  0.00000
 0.54305  0.97866  0.00000
 0.61076  0.97903  0.00000
 0.67848  0.97940  0.00000
 0.74619  0.97977  0.00000
 0.81391  0.98014  0.00000
 0.88162  0.98051  0.00000
 0.94934  0.98088  0.00000
 1.00000  0.98125  0.00000
 1.00000  0.98162  0.00000
 0.00469  1.00000  0.00000
 0.07241  1.00000  0.00000
 0.14012  1.00000  0.00000
 0.20784  1.00000  0.00000
 0.27555  1.00000  0.00000
 0.34327  1.00000  0.00000
 0.41098  1.00000  0.00000
 0.47870  1.00000  0.00000
 0.54641  1.00000  0.00000
 0.61413  1.00000  0.00000
 0.68184  1.00000  0.00000
 0.74956  1.00000  0.00000
 0.81727  1.00000  0.00000
 0.88499  1.00000  0.00000
 0.95270  1.00000  0.00000
 1.00000  1.00000  0.00000
 1.00000  1.00000  0.00000
 0.00000  0.00000  0.06478
 0.01918  0.00000  0.06471
 0.08690  0.00000  0.06463
 0.15461  0.00000  0.06455
 0.22233  0.00000  0.06447
 0.29004  0.00000  0.06439
 0.35776  0.00000  0.06431
 0.42548  0.00000  0.06423
 0.49319  0.00000  0.06415
 0.56091  0.00000  0.06408
 0.62862  0.00000  0.06400
 0.69634  0.00000  0.06392
 0.76405  0.00000  0.06384
 0.83177  0.00000  0.06376
 0.89948  0.00000  0.06368
 0.96720  0.00000  0.06360
 1.00000  0.00000  0.06352
 0.00000  0.04168  0.06463
 0.02255  0.04205  0.06455
 0.09027  0.04242  0.06447
 0.15798  0.04279  0.06439
 0.22570  0.04316  0.06432
 0.29341  0.04353  0.06424
 0.36113  0.04390  0.06416
 0.42884  0.04427  0.06408
 0.49656  0.04464  0.06400
 0.56427  0.04501  0.06392
 0.63199  0.04538  0.06384
 0.69970  0.04575  0.06376
 0.76742  0.04612  0.06368
 0.83513  0.04649  0.06361
 0.90285  0.04686  0.06353
 0.97056  0.04723  0.06345
 1.00000  0.04760  0.06337
 0.00000  0.10841  0.06448
 0.02592  0.10878  0.06440
 0.09363  0.10915  0.06432
 0.16135  0.10952  0.06424
 0.22906  0.10989  0.06416
 0.29678  0.11026  0.06408
 0.36449  0.11063  0.06400
 0.43221  0.11100  0.06392
 0.49993  0.11137  0.06385
 0.56764  0.11173  0.06377
 0.63536  0.11210  0.06369
 0.70307  0.11247  0.06361
 0.77079  0.11284  0.06353
 0.83850  0.11321  0.06345
 0.90622  0.11358  0.06337
 0.97393  0.11395  0.06329
 1.00000  0.11432  0.06321
 0.00000  0.17513  0.06432
 0.02929  0.17550  0.06424
 0.09700  0.17587  0.06416
 0.16472  0.17624  0.06408
 0.23243  0.17661  0.06401
 0.30015  0.17698  0.06393
 0.36786  0.17735  0.06385
 0.43558  0.17772  0.06377
 0.50329  0.17809  0.06369
 0.57101  0.17846  0.06361
 0.63872  0.17883  0.06353
 0.70644  0.17920  0.06345
 0.77415  0.17957  0.06338
 0.84187  0.17994  0.06330
 0.90958  0.18031  0.06322
 0.97730  0.18068  0.06314
 1.00000  0.18105  0.06306
 0.00000  0.24186  0.06417
 0.03265  0.24223  0.06409
 0.10037  0.24260  0.06401
 0.16808  0.24297  0.06393
 0.23580  0.24334  0.06385
 0.30351  0.24371  0.06377
 0.37123  0.24408  0.06369
 0.43894  0.24445  0.06361
 0.50666  0.24482  0.06354
 0.57437  0.24519  0.06346
 0.64209  0.24556  0.06338
 0.70981  0.24593  0.06330
 0.77752  0.24630  0.06322
 0.84524  0.24667  0.06314
 0.91295  0.24703  0.06306
 0.98067  0.24740  0.06298
 1.00000  0.24777  0.06291
 0.00000  0.30858  0.06401
 0.03602  0.30895  0.06393
 0.10374  0.30932  0.06385
 0.17145  0.30969  0.06377
 0.23917  0.31006  0.06370
 0.30688  0.31043  0.06362
 0.37460  0.31080  0.06354
 0.44231  0.31117  0.06346
 0.51003  0.31154  0.06338
 0.57774  0.31191  0.06330
 0.64546  0.31228  0.06322
 0.71317  0.31265  0.06314
 0.78089  0.31302  0.06307
 0.84860  0.31339  0.06299
 0.91632  0.31376  0.06291
 0.98403  0.31413  0.06283
 1.00000  0.31450  0.06275
 0.00000  0.37531  0.06386
 0.03939  0.37568  0.06378
 0.10710  0.37605  0.06370
 0.17482  0.37642  0.06362
 0.24253  0.37679  0.06354
 0.31025  0.37716  0.06346
 0.37796  0.37753  0.06338
 0.44568  0.37790  0.06331
 0.51339  0.37827  0.06323
 0.58111  0.37864  0.06315
 0.64882  0.37901  0.06307
 0.71654  0.37938  0.06299
 0.78426  0.37975  0.06291
 0.85197  0.38012  0.06283
 0.91969  0.38049  0.06275
 0.98740  0.38086  0.06267
 1.00000  0.38123  0.06260
 0.00000  0.44204  0.06370
 0.04276  0.44241  0.06362
 0.11047  0.44278  0.06354
 0.17819  0.44315  0.06347
 0.24590  0.44352  0.06339
 0.31362  0.44388  0.06331
 0.38133  0.44425  0.06323
 0.44905  0.44462  0.06315
 0.51676  0.44499  0.06307
 0.58448  0.44536  0.06299
 0.65219  0.44573  0.06291
 0.71991  0.44610  0.06284
 0.78762  0.44647  0.06276
 0.85534  0.44684  0.06268
 0.92305  0.44721  0.06260
 0.99077  0.44758  0.06252
 1.00000  0.44795  0.06244
 0.00000  0.50876  0.06355
 0.04612  0.50913  0.06347
 0.11384  0.50950  0.06339
 0.18155  0.50987  0.06331
 0.24927  0.51024  0.06323
 0.31698  0.51061  0.06315
 0.38470  0.51098  0.06307
 0.45241  0.51135  0.06300
 0.52013  0.51172  0.06292
 0.58784  0.51209  0.06284
 0.65556  0.51246  0.06276
 0.72327  0.51283  0.06268
 0.79099  0.51320  0.06260
 0.85870  0.51357  0.06252
 0.92642  0.51394  0.06244
 0.99414  0.51431  0.06237
 1.00000  0.51468  0.06229
 0.00000  0.57549  0.06339
 0.04949  0.57586  0.06331
 0.11720  0.57623  0.06323
 0.18492  0.57660  0.06316
 0.25264  0.57697  0.06308
 0.32035  0.57734  0.06300
 0.38807  0.57771  0.06292
 0.45578  0.57808  0.06284
 0.52350  0.57845  0.06276
 0.59121  0.57882  0.06268
 0.65893  0.57919  0.06260
 0.72664  0.57955  0.06253
 0.79436  0.57992  0.06245
 0.86207  0.58029  0.06237
 0.92979  0.58066  0.06229
 0.99750  0.58103  0.06221
 1.00000  0.58140  0.06213
 0.00000  0.64221  0.06324
 0.05286  0.64258  0.06316
 0.12057  0.64295  0.06308
 0.18829  0.64332  0.06300
 0.25600  0.64369  0.06292
 0.32372  0.64406  0.06284
 0.39143  0.64443  0.06277
 0.45915  0.64480  0.06269
 0.52686  0.64517  0.06261
 0.59458  0.64554  0.06253
 0.66229  0.64591  0.06245
 0.73001  0.64628  0.06237
 0.79772  0.64665  0.06229
 0.86544  0.64702  0.06221
 0.93315  0.64739  0.06213
 1.00000  0.64776  0.06206
 1.00000  0.64813  0.06198
 0.00000  0.70894  0.06308
 0.05622  0.70931  0.06300
 0.12394  0.70968  0.06293
 0.19165  0.71005  0.06285
 0.25937  0.71042  0.06277
 0.32709  0.71079  0.06269
 0.39480  0.71116  0.06261
 0.46252  0.71153  0.06253
 0.53023  0.71190  0.06245
 0.59795  0.71227  0.06237
 0.66566  0.71264  0.06230
 0.73338  0.71301  0.06222
 0.80109  0.71338  0.06214
 0.86881  0.71375  0.06206
 0.93652  0.71412  0.06198
 1.00000  0.71449  0.06190
 1.00000  0.71485  0.06182
 0.00000  0.77567  0.06293
 0.05959  0.77604  0.06285
 0.12731  0.77640  0.06277
 0.19502  0.77677  0.06269
 0.26274  0.77714  0.06261
 0.33045  0.77751  0.06253
 0.39817  0.77788  0.06246
 0.46588  0.77825  0.06238
 0.53360  0.77862  0.06230
 0.60131  0.77899  0.06222
 0.66903  0.77936  0.06214
 0.73674  0.77973  0.06206
 0.80446  0.78010  0.06198
 0.87217  0.78047  0.06190
 0.93989  0.78084  0.06183
 1.00000  0.78121  0.06175
 1.00000  0.78158  0.06167
 0.00000  0.84239  0.06277
 0.06296  0.84276  0.06269
 0.13067  0.84313  0.06262
 0.19839  0.84350  0.06254
 0.26610  0.84387  0.06246
 0.33382  0.84424  0.06238
 0.40153  0.84461  0.06230
 0.46925  0.84498  0.06222
 0.53697  0.84535  0.06214
 0.60468  0.84572  0.06206
 0.67240  0.84609  0.06199
 0.74011  0.84646  0.06191
 0.80783  0.84683  0.06183
 0.87554  0.84720  0.06175
 0.94326  0.84757  0.06167
 1.00000  0.84794  0.06159
 1.00000  0.84831  0.06151
 0.00000  0.90912  0.06262
 0.06633  0.90949  0.06254
 0.13404  0.90986  0.06246
 0.20176  0.91023  0.06238
 0.26947  0.91060  0.06230
 0.33719  0.91097  0.06222
 0.40490  0.91134  0.06215
 0.47262  0.91170  0.06207
 0.54033  0.91207  0.06199
 0.60805  0.91244  0.06191
 0.67576  0.91281  0.06183
 0.74348  0.91318  0.06175
 0.81119  0.91355  0.06167
 0.87891  0.91392  0.06159
 0.94662  0.91429  0.06152
 1.00000  0.91466  0.06144
 1.00000  0.91503  0.06136
 0.00198  0.97584  0.06246
 0.06969  0.97621  0.06239
 0.13741  0.97658  0.06231
 0.20512  0.97695  0.06223
 0.27284  0.97732  0.06215
 0.34055  0.97769  0.06207
 0.40827  0.97806  0.06199
 0.47598  0.97843  0.06191
 0.54370  0.97880  0.06183
 0.61142  0.97917  0.06176
 0.67913  0.97954  0.06168
 0.74685  0.97991  0.06160
 0.81456  0.98028  0.06152
 0.88228  0.98065  0.06144
 0.94999  0.98102  0.06136
 1.00000  0.98139  0.06128
 1.00000  0.98176  0.06120
 0.00535  1.00000  0.06231
 0.07306  1.00000  0.06223
 0.14078  1.00000  0.06215
 0.20849  1.00000  0.06207
 0.27621  1.00000  0.06199
 0.34392  1.00000  0.06192
 0.41164  1.00000  0.06184
 0.47935  1.00000  0.06176
 0.54707  1.00000  0.06168
 0.61478  1.00000  0.06160
 0.68250  1.00000  0.06152
 0.75021  1.00000  0.06144
 0.81793  1.00000  0.06136
 0.88564  1.00000  0.06129
 0.95336  1.00000  0.06121
 1.00000  1.00000  0.06113
 1.00000  1.00000  0.06105
 0.00000  0.00000  0.13075
 0.01984  0.00000  0.13068
 0.08755  0.00000  0.13060
 0.15527  0.00000  0.13052
 0.22298  0.00000  0.13044
 0.29070  0.00000  0.13036
 0.35841  0.00000  0.13028
 0.42613  0.00000  0.13020
 0.49384  0.00000  0.13012
 0.56156  0.00000  0.13005
 0.62927  0.00000  0.12997
 0.69699  0.00000  0.12989
 0.76471  0.00000  0.12981
 0.83242  0.00000  0.12973
 0.90014  0.00000  0.12965
 0.96785  0.00000  0.12957
 1.00000  0.00000  0.12949
 0.00000  0.04182  0.13060
 0.02321  0.04219  0.13052
 0.09092  0.04256  0.13044
 0.15864  0.04293  0.13036
 0.22635  0.04330  0.13028
 0.29407  0.04367  0.13021
 0.36178  0.04404  0.13013
 0.42950  0.04441  0.13005
 0.49721  0.04478  0.12997
 0.56493  0.04515  0.12989
 0.63264  0.04552  0.12981
 0.70036  0.04589  0.12973
 0.76807  0.04626  0.12965
 0.83579  0.04663  0.12958
 0.90350  0.04700  0.12950
 0.97122  0.04737  0.12942
 1.00000  0.04774  0.12934
 0.00000  0.10855  0.13045
 0.02657  0.10892  0.13037
 0.09429  0.10929  0.13029
 0.16200  0.10966  0.13021
 0.22972  0.11003  0.13013
 0.29743  0.11040  0.13005
 0.36515  0.11077  0.12997
 0.43286  0.11114  0.12989
 0.50058  0.11151  0.12982
 0.56829  0.11188  0.12974
 0.63601  0.11225  0.12966
 0.70372  0.11262  0.12958
 0.77144  0.11298  0.12950
 0.83916  0.11335  0.12942
 0.90687  0.11372  0.12934
 0.97459  0.11409  0.12926
 1.00000  0.11446  0.12918
 0.00000  0.17527  0.13029
 0.02994  0.17564  0.13021
 0.09766  0.17601  0.13013
 0.16537  0.17638  0.13005
 0.23309  0.17675  0.12998
 0.30080  0.17712  0.12990
 0.36852  0.17749  0.12982
 0.43623  0.17786  0.12974
 0.50395  0.17823  0.12966
 0.57166  0.17860  0.12958
 0.63938  0.17897  0.12950
 0.70709  0.17934  0.12942
 0.77481  0.17971  0.12935
 0.84252  0.18008  0.12927
 0.91024  0.18045  0.12919
 0.97795  0.18082  0.12911
 1.00000  0.18119  0.12903
 0.00000  0.24200  0.13014
 0.03331  0.24237  0.13006
 0.10102  0.24274  0.12998
 0.16874  0.24311  0.12990
 0.23645  0.24348  0.12982
 0.30417  0.24385  0.12974
 0.37188  0.24422  0.12966
 0.43960  0.24459  0.12958
 0.50731  0.24496  0.12951
 0.57503  0.24533  0.12943
 0.64274  0.24570  0.12935
 0.71046  0.24607  0.12927
 0.77817  0.24644  0.12919
 0.84589  0.24681  0.12911
 0.91360  0.24718  0.12903
 0.98132  0.24755  0.12895
 1.00000  0.24792  0.12888
 0.00000  0.30873  0.12998
 0.03667  0.30910  0.12990
 0.10439  0.30947  0.12982
 0.17210  0.30983  0.12974
 0.23982  0.31020  0.12967
 0.30754  0.31057  0.12959
 0.37525  0.31094  0.12951
 0.44297  0.31131  0.12943
 0.51068  0.31168  0.12935
 0.57840  0.31205  0.12927
 0.64611  0.31242  0.12919
 0.71383  0.31279  0.12911
 0.78154  0.31316  0.12904
 0.84926  0.31353  0.12896
 0.91697  0.31390  0.12888
 0.98469  0.31427  0.12880
 1.00000  0.31464  0.12872
 0.00000  0.37545  0.12983
 0.04004  0.37582  0.12975
 0.10776  0.37619  0.12967
 0.17547  0.37656  0.12959
 0.24319  0.37693  0.12951
 0.31090  0.37730  0.12943
 0.37862  0.37767  0.12935
 0.44633  0.37804  0.12928
 0.51405  0.37841  0.12920
 0.58176  0.37878  0.12912
 0.64948  0.37915  0.12904
 0.71719  0.37952  0.12896
 0.78491  0.37989  0.12888
 0.85262  0.38026  0.12880
 0.92034  0.38063  0.12872
 0.98805  0.38100  0.12864
 1.00000  0.38137  0.12857
 0.00000  0.44218  0.12967
 0.04341  0.44255  0.12959
 0.11112  0.44292  0.12951
 0.17884  0.44329  0.12944
 0.24655  0.44366  0.12936
 0.31427  0.44403  0.12928
 0.38199  0.44440  0.12920
 0.44970  0.44477  0.12912
 0.51742  0.44513  0.12904
 0.58513  0.44550  0.12896
 0.65285  0.44587  0.12888
 0.72056  0.44624  0.12881
 0.78828  0.44661  0.12873
 0.85599  0.44698  0.12865
 0.92371  0.44735  0.12857
 0.99142  0.44772  0.12849
 1.00000  0.44809  0.12841
 0.00000  0.50890  0.12952
 0.04678  0.50927  0.12944
 0.11449  0.50964  0.12936
 0.18221  0.51001  0.12928
 0.24992  0.51038  0.12920
 0.31764  0.51075  0.12912
 0.38535  0.51112  0.12904
 0.45307  0.51149  0.12897
 0.52078  0.51186  0.12889
 0.58850  0.51223  0.12881
 0.65621  0.51260  0.12873
 0.72393  0.51297  0.12865
 0.79164  0.51334  0.12857
 0.85936  0.51371  0.12849
 0.92707  0.51408  0.12841
 0.99479  0.51445  0.12834
 1.00000  0.51482  0.12826
 0.00000  0.57563  0.12936
 0.05014  0.57600  0.12928
 0.11786  0.57637  0.12920
 0.18557  0.57674  0.12913
 0.25329  0.57711  0.12905
 0.32100  0.57748  0.12897
 0.38872  0.57785  0.12889
 0.45643  0.57822  0.12881
 0.52415  0.57859  0.12873
 0.59187  0.57896  0.12865
 0.65958  0.57933  0.12857
 0.72730  0.57970  0.12850
 0.79501  0.58007  0.12842
 0.86273  0.58044  0.12834
 0.93044  0.58080  0.12826
 0.99816  0.58117  0.12818
 1.00000  0.58154  0.12810
 0.00000  0.64235  0.12921
 0.05351  0.64272  0.12913
 0.12123  0.64309  0.12905
 0.18894  0.64346  0.12897
 0.25666  0.64383  0.12889
 0.32437  0.64420  0.12881
 0.39209  0.64457  0.12873
 0.45980  0.64494  0.12866
 0.52752  0.64531  0.12858
 0.59523  0.64568  0.12850
 0.66295  0.64605  0.12842
 0.73066  0.64642  0.12834
 0.79838  0.64679  0.12826
 0.86609  0.64716  0.12818
 0.93381  0.64753  0.12810
 1.00000  0.64790  0.12803
 1.00000  0.64827  0.12795
 0.00000  0.70908  0.12905
 0.05688  0.70945  0.12897
 0.12459  0.70982  0.12890
 0.19231  0.71019  0.12882
 0.26002  0.71056  0.12874
 0.32774  0.71093  0.12866
 0.39545  0.71130  0.12858
 0.46317  0.71167  0.12850
 0.53088  0.71204  0.12842
 0.59860  0.71241  0.12834
 0.66632  0.71278  0.12827
 0.73403  0.71315  0.12819
 0.80175  0.71352  0.12811
 0.86946  0.71389  0.12803
 0.93718  0.71426  0.12795
 1.00000  0.71463  0.12787
 1.00000  0.71500  0.12779
 0.00000  0.77581  0.12890
 0.06025  0.77618  0.12882
 0.12796  0.77655  0.12874
 0.19568  0.77692  0.12866
 0.26339  0.77729  0.12858
 0.33111  0.77765  0.12850
 0.39882  0.77802  0.12843
 0.46654  0.77839  0.12835
 0.53425  0.77876  0.12827
 0.60197  0.77913  0.12819
 0.66968  0.77950  0.12811
 0.73740  0.77987  0.12803
 0.80511  0.78024  0.12795
 0.87283  0.78061  0.12787
 0.94054  0.78098  0.12780
 1.00000  0.78135  0.12772
 1.00000  0.78172  0.12764
 0.00000  0.84253  0.12874
 0.06361  0.84290  0.12866
 0.13133  0.84327  0.12859
 0.19904  0.84364  0.12851
 0.26676  0.84401  0.12843
 0.33447  0.84438  0.12835
 0.40219  0.84475  0.12827
 0.46990  0.84512  0.12819
 0.53762  0.84549  0.12811
 0.60533  0.84586  0.12803
 0.67305  0.84623  0.12796
 0.74076  0.84660  0.12788
 0.80848  0.84697  0.12780
 0.87620  0.84734  0.12772
 0.94391  0.84771  0.12764
 1.00000  0.84808  0.12756
 1.00000  0.84845  0.12748
 0.00000  0.90926  0.12859
 0.06698  0.90963  0.12851
 0.13470  0.91000  0.12843
 0.20241  0.91037  0.12835
 0.27013  0.91074  0.12827
 0.33784  0.91111  0.12819
 0.40556  0.91148  0.12812
 0.47327  0.91185  0.12804
 0.54099  0.91222  0.12796
 0.60870  0.91259  0.12788
 0.67642  0.91295  0.12780
 0.74413  0.91332  0.12772
 0.81185  0.91369  0.12764
 0.87956  0.91406  0.12756
 0.94728  0.91443  0.12749
 1.00000  0.91480  0.12741
 1.00000  0.91517  0.12733
 0.00263  0.97598  0.12843
 0.07035  0.97635  0.12836
 0.13806  0.97672  0.12828
 0.20578  0.97709  0.12820
 0.27349  0.97746  0.12812
 0.34121  0.97783  0.12804
 0.40892  0.97820  0.12796
 0.47664  0.97857  0.12788
 0.54435  0.97894  0.12780
 0.61207  0.97931  0.12772
 0.67978  0.97968  0.12765
 0.74750  0.98005  0.12757
 0.81521  0.98042  0.12749
 0.88293  0.98079  0.12741
 0.95064  0.98116  0.12733
 1.00000  0.98153  0.12725
 1.00000  0.98190  0.12717
 0.00600  1.00000  0.12828
 0.07371  1.00000  0.12820
 0.14143  1.00000  0.12812
 0.20915  1.00000  0.12804
 0.27686  1.00000  0.12796
 0.34458  1.00000  0.12789
 0.41229  1.00000  0.12781
 0.48001  1.00000  0.12773
 0.54772  1.00000  0.12765
 0.61544  1.00000  0.12757
 0.68315  1.00000  0.12749
 0.75087  1.00000  0.12741
 0.81858  1.00000  0.12733
 0.88630  1.00000  0.12726
 0.95401  1.00000  0.12718
 1.00000  1.00000  0.12710
 1.00000  1.00000  0.12702
 0.00000  0.00000  0.19672
 0.02049  0.00000  0.19665
 0.08821  0.00000  0.19657
 0.15592  0.00000  0.19649
 0.22364  0.00000  0.19641
 0.29135  0.00000  0.19633
 0.35907  0.00000  0.19625
 0.42678  0.00000  0.19617
 0.49450  0.00000  0.19609
 0.56221  0.00000  0.19602
 0.62993  0.00000  0.19594
 0.69764  0.00000  0.19586
 0.76536  0.00000  0.19578
 0.83307  0.00000  0.19570
 0.90079  0.00000  0.19562
 0.96850  0.00000  0.19554
 1.00000  0.00000  0.19546
