src/assets/luts/cinematic-cool.cube
TITLE "冷调电影"
LUT_3D_SIZE 5
DOMAIN_MIN 0.0 0.0 0.0
DOMAIN_MAX 1.0 1.0 1.0
# LumEdit built-in LUT · 冷色温高对比电影感
 0.00000  0.00000  0.00000
 0.20168  0.00000  0.00000
 0.46106  0.00000  0.00000
 0.72043  0.00000  0.00000
 0.97981  0.00000  0.00000
 0.00000  0.21424  0.00000
 0.20990  0.21826  0.00000
 0.46927  0.22227  0.00000
 0.72865  0.22629  0.00000
 0.98803  0.23031  0.00000
 0.00000  0.48845  0.00000
 0.21811  0.49247  0.00000
 0.47749  0.49649  0.00000
 0.73687  0.50051  0.00000
 0.99625  0.50453  0.00000
 0.00000  0.76267  0.00000
 0.22633  0.76669  0.00000
 0.48571  0.77071  0.00000
 0.74509  0.77473  0.00000
 1.00000  0.77875  0.00000
 0.00000  1.00000  0.00000
 0.23455  1.00000  0.00000
 0.49393  1.00000  0.00000
 0.75331  1.00000  0.00000
 1.00000  1.00000  0.00000
 0.00000  0.00000  0.21814
 0.20335  0.00000  0.22216
 0.46273  0.00000  0.22618
 0.72211  0.00000  0.23020
 0.98149  0.00000  0.23422
 0.00000  0.21591  0.22636
 0.21157  0.21993  0.23038
 0.47095  0.22395  0.23440
 0.73033  0.22797  0.23842
 0.98971  0.23199  0.24244
 0.00000  0.49013  0.23458
 0.21979  0.49415  0.23860
 0.47917  0.49817  0.24262
 0.73855  0.50219  0.24664
 0.99792  0.50620  0.25065
 0.00000  0.76435  0.24280
 0.22801  0.76837  0.24682
 0.48739  0.77239  0.25084
 0.74676  0.77640  0.25485
 1.00000  0.78042  0.25887
 0.00000  1.00000  0.25102
 0.23623  1.00000  0.25504
 0.49560  1.00000  0.25905
 0.75498  1.00000  0.26307
 1.00000  1.00000  0.26709
 0.00000  0.00000  0.49912
 0.20503  0.00000  0.50314
 0.46441  0.00000  0.50716
 0.72379  0.00000  0.51118
 0.98316  0.00000  0.51519
 0.00000  0.21759  0.50734
 0.21325  0.22161  0.51136
 0.47263  0.22563  0.51538
 0.73200  0.22964  0.51939
 0.99138  0.23366  0.52341
 0.00000  0.49181  0.51556
 0.22146  0.49582  0.51957
 0.48084  0.49984  0.52359
 0.74022  0.50386  0.52761
 0.99960  0.50788  0.53163
 0.00000  0.76602  0.52377
 0.22968  0.77004  0.52779
 0.48906  0.77406  0.53181
 0.74844  0.77808  0.53583
 1.00000  0.78210  0.53985
 0.00000  1.00000  0.53199
 0.23790  1.00000  0.53601
 0.49728  1.00000  0.54003
 0.75666  1.00000  0.54405
 1.00000  1.00000  0.54807
 0.00000  0.00000  0.78010
 0.20670  0.00000  0.78411
 0.46608  0.00000  0.78813
 0.72546  0.00000  0.79215
 0.98484  0.00000  0.79617
 0.00000  0.21926  0.78831
 0.21492  0.22328  0.79233
 0.47430  0.22730  0.79635
 0.73368  0.23132  0.80037
 0.99306  0.23534  0.80439
 0.00000  0.49348  0.79653
 0.22314  0.49750  0.80055
 0.48252  0.50152  0.80457
 0.74190  0.50554  0.80859
 1.00000  0.50956  0.81261
 0.00000  0.76770  0.80475
 0.23136  0.77172  0.80877
 0.49074  0.77574  0.81279
 0.75012  0.77976  0.81681
 1.00000  0.78377  0.82082
 0.00000  1.00000  0.81297
 0.23958  1.00000  0.81699
 0.49896  1.00000  0.82101
 0.75833  1.00000  0.82502
 1.00000  1.00000  0.82904
 0.00000  0.00000  1.00000
 0.20838  0.00000  1.00000
 0.46776  0.00000  1.00000
 0.72714  0.00000  1.00000
 0.98652  0.00000  1.00000
 0.00000  0.22094  1.00000
 0.21660  0.22496  1.00000
 0.47598  0.22898  1.00000
 0.73536  0.23300  1.00000
 0.99473  0.23701  1.00000
 0.00000  0.49516  1.00000
 0.22482  0.49918  1.00000
 0.48420  0.50320  1.00000
 0.74357  0.50721  1.00000
 1.00000  0.51123  1.00000
 0.00000  0.76938  1.00000
 0.23303  0.77339  1.00000
 0.49241  0.77741  1.00000
 0.75179  0.78143  1.00000
 1.00000  0.78545  1.00000
 0.00000  1.00000  1.00000
 0.24125  1.00000  1.00000
 0.50063  1.00000  1.00000
 0.76001  1.00000  1.00000
 1.00000  1.00000  1.00000
