src/assets/luts/cinestill-800t.cube
TITLE "CineStill 800T"
LUT_3D_SIZE 5
DOMAIN_MIN 0.0 0.0 0.0
DOMAIN_MAX 1.0 1.0 1.0
# LumEdit built-in LUT · 夜景胶片，阴影青、高光暖
 0.00000  0.00000  0.00000
 0.22168  0.00000  0.00000
 0.49254  0.00000  0.00000
 0.76340  0.00000  0.00000
 1.00000  0.00000  0.00000
 0.00000  0.24172  0.00000
 0.23514  0.24320  0.00000
 0.50601  0.24468  0.00000
 0.77687  0.24615  0.00000
 1.00000  0.24763  0.00000
 0.00000  0.50862  0.00000
 0.24861  0.51010  0.00000
 0.51947  0.51158  0.00000
 0.79034  0.51306  0.00000
 1.00000  0.51454  0.00000
 0.00000  0.77552  0.00000
 0.26208  0.77700  0.00000
 0.53294  0.77848  0.00000
 0.80380  0.77996  0.00000
 1.00000  0.78144  0.00000
 0.00469  1.00000  0.00000
 0.27555  1.00000  0.00000
 0.54641  1.00000  0.00000
 0.81727  1.00000  0.00000
 1.00000  1.00000  0.00000
 0.00000  0.00000  0.26269
 0.22429  0.00000  0.26238
 0.49515  0.00000  0.26206
 0.76601  0.00000  0.26175
 1.00000  0.00000  0.26143
 0.00000  0.24228  0.26208
 0.23776  0.24376  0.26176
 0.50862  0.24524  0.26145
 0.77948  0.24672  0.26113
 1.00000  0.24820  0.26082
 0.00000  0.50919  0.26146
 0.25123  0.51066  0.26114
 0.52209  0.51214  0.26083
 0.79295  0.51362  0.26051
 1.00000  0.51510  0.26020
 0.00000  0.77609  0.26084
 0.26470  0.77757  0.26052
 0.53556  0.77905  0.26021
 0.80642  0.78052  0.25989
 1.00000  0.78200  0.25958
 0.00731  1.00000  0.26022
 0.27817  1.00000  0.25990
 0.54903  1.00000  0.25959
 0.81989  1.00000  0.25927
 1.00000  1.00000  0.25896
 0.00000  0.00000  0.52657
 0.22691  0.00000  0.52626
 0.49777  0.00000  0.52594
 0.76863  0.00000  0.52563
 1.00000  0.00000  0.52531
 0.00000  0.24285  0.52596
 0.24038  0.24432  0.52564
 0.51124  0.24580  0.52533
 0.78210  0.24728  0.52501
 1.00000  0.24876  0.52469
 0.00000  0.50975  0.52534
 0.25385  0.51123  0.52502
 0.52471  0.51271  0.52471
 0.79557  0.51419  0.52439
 1.00000  0.51566  0.52408
 0.00000  0.77665  0.52472
 0.26731  0.77813  0.52440
 0.53818  0.77961  0.52409
 0.80904  0.78109  0.52377
 1.00000  0.78257  0.52346
 0.00992  1.00000  0.52410
 0.28078  1.00000  0.52378
 0.55164  1.00000  0.52347
 0.82251  1.00000  0.52315
 1.00000  1.00000  0.52284
 0.00000  0.00000  0.79045
 0.22952  0.00000  0.79014
 0.50038  0.00000  0.78982
 0.77124  0.00000  0.78951
 1.00000  0.00000  0.78919
 0.00000  0.24341  0.78984
 0.24299  0.24489  0.78952
 0.51385  0.24637  0.78921
 0.78471  0.24785  0.78889
 1.00000  0.24932  0.78857
 0.00000  0.51031  0.78922
 0.25646  0.51179  0.78890
 0.52732  0.51327  0.78859
 0.79818  0.51475  0.78827
 1.00000  0.51623  0.78796
 0.00000  0.77722  0.78860
 0.26993  0.77869  0.78828
 0.54079  0.78017  0.78797
 0.81165  0.78165  0.78765
 1.00000  0.78313  0.78734
 0.01254  1.00000  0.78798
 0.28340  1.00000  0.78766
 0.55426  1.00000  0.78735
 0.82512  1.00000  0.78703
 1.00000  1.00000  0.78672
 0.00000  0.00000  1.00000
 0.23214  0.00000  1.00000
 0.50300  0.00000  1.00000
 0.77386  0.00000  1.00000
 1.00000  0.00000  1.00000
 0.00000  0.24397  1.00000
 0.24561  0.24545  1.00000
 0.51647  0.24693  1.00000
 0.78733  0.24841  1.00000
 1.00000  0.24989  1.00000
 0.00000  0.51088  1.00000
 0.25908  0.51236  1.00000
 0.52994  0.51383  1.00000
 0.80080  0.51531  1.00000
 1.00000  0.51679  1.00000
 0.00169  0.77778  1.00000
 0.27255  0.77926  1.00000
 0.54341  0.78074  1.00000
 0.81427  0.78222  1.00000
 1.00000  0.78369  1.00000
 0.01515  1.00000  1.00000
 0.28602  1.00000  1.00000
 0.55688  1.00000  1.00000
 0.82774  1.00000  1.00000
 1.00000  1.00000  1.00000
