src/assets/luts/cinematic-warm.cube
TITLE "暖调电影"
LUT_3D_SIZE 9
DOMAIN_MIN 0.0 0.0 0.0
DOMAIN_MAX 1.0 1.0 1.0
# LumEdit built-in LUT · 暖色温高对比电影感
 0.00000  0.00000  0.00000
 0.07819  0.00000  0.00000
 0.21869  0.00000  0.00000
 0.35919  0.00000  0.00000
 0.49968  0.00000  0.00000
 0.64018  0.00000  0.00000
 0.78068  0.00000  0.00000
 0.92117  0.00000  0.00000
 1.00000  0.00000  0.00000
 0.00000  0.07709  0.00000
 0.08230  0.07926  0.00000
 0.22280  0.08144  0.00000
 0.36330  0.08362  0.00000
 0.50379  0.08579  0.00000
 0.64429  0.08797  0.00000
 0.78479  0.09015  0.00000
 0.92528  0.09232  0.00000
 1.00000  0.09450  0.00000
 0.00000  0.21420  0.00000
 0.08641  0.21637  0.00000
 0.22691  0.21855  0.00000
 0.36741  0.22073  0.00000
 0.50790  0.22290  0.00000
 0.64840  0.22508  0.00000
 0.78890  0.22726  0.00000
 0.92939  0.22943  0.00000
 1.00000  0.23161  0.00000
 0.00000  0.35130  0.00000
 0.09052  0.35348  0.00000
 0.23102  0.35566  0.00000
 0.37151  0.35783  0.00000
 0.51201  0.36001  0.00000
 0.65251  0.36219  0.00000
 0.79301  0.36437  0.00000
 0.93350  0.36654  0.00000
 1.00000  0.36872  0.00000
 0.00000  0.48841  0.00000
 0.09463  0.49059  0.00000
 0.23513  0.49277  0.00000
 0.37562  0.49494  0.00000
 0.51612  0.49712  0.00000
 0.65662  0.49930  0.00000
 0.79711  0.50147  0.00000
 0.93761  0.50365  0.00000
 1.00000  0.50583  0.00000
 0.00000  0.62552  0.00000
 0.09874  0.62770  0.00000
 0.23924  0.62988  0.00000
 0.37973  0.63205  0.00000
 0.52023  0.63423  0.00000
 0.66073  0.63641  0.00000
 0.80122  0.63858  0.00000
 0.94172  0.64076  0.00000
 1.00000  0.64294  0.00000
 0.00000  0.76263  0.00000
 0.10285  0.76481  0.00000
 0.24335  0.76699  0.00000
 0.38384  0.76916  0.00000
 0.52434  0.77134  0.00000
 0.66484  0.77352  0.00000
 0.80533  0.77569  0.00000
 0.94583  0.77787  0.00000
 1.00000  0.78005  0.00000
 0.00000  0.89974  0.00000
 0.10696  0.90192  0.00000
 0.24745  0.90409  0.00000
 0.38795  0.90627  0.00000
 0.52845  0.90845  0.00000
 0.66894  0.91062  0.00000
 0.80944  0.91280  0.00000
 0.94994  0.91498  0.00000
 1.00000  0.91715  0.00000
 0.00000  1.00000  0.00000
 0.11107  1.00000  0.00000
 0.25156  1.00000  0.00000
 0.39206  1.00000  0.00000
 0.53256  1.00000  0.00000
 0.67305  1.00000  0.00000
 0.81355  1.00000  0.00000
 0.95405  1.00000  0.00000
 1.00000  1.00000  0.00000
 0.00000  0.00000  0.07070
 0.07896  0.00000  0.07288
 0.21946  0.00000  0.07506
 0.35995  0.00000  0.07723
 0.50045  0.00000  0.07941
 0.64095  0.00000  0.08159
 0.78144  0.00000  0.08376
 0.92194  0.00000  0.08594
 1.00000  0.00000  0.08812
 0.00000  0.07785  0.07481
 0.08307  0.08003  0.07699
 0.22357  0.08221  0.07917
 0.36406  0.08438  0.08134
 0.50456  0.08656  0.08352
 0.64506  0.08874  0.08570
 0.78555  0.09091  0.08787
 0.92605  0.09309  0.09005
 1.00000  0.09527  0.09223
 0.00000  0.21496  0.07892
 0.08718  0.21714  0.08110
 0.22768  0.21932  0.08328
 0.36817  0.22149  0.08545
 0.50867  0.22367  0.08763
 0.64917  0.22585  0.08981
 0.78966  0.22802  0.09198
 0.93016  0.23020  0.09416
 1.00000  0.23238  0.09634
 0.00000  0.35207  0.08303
 0.09129  0.35425  0.08521
 0.23178  0.35642  0.08738
 0.37228  0.35860  0.08956
 0.51278  0.36078  0.09174
 0.65327  0.36295  0.09391
 0.79377  0.36513  0.09609
 0.93427  0.36731  0.09827
 1.00000  0.36948  0.10044
 0.00000  0.48918  0.08714
 0.09540  0.49136  0.08932
 0.23589  0.49353  0.09149
 0.37639  0.49571  0.09367
 0.51689  0.49789  0.09585
 0.65738  0.50006  0.09802
 0.79788  0.50224  0.10020
 0.93838  0.50442  0.10238
 1.00000  0.50659  0.10455
 0.00000  0.62629  0.09125
 0.09951  0.62847  0.09343
 0.24000  0.63064  0.09560
 0.38050  0.63282  0.09778
 0.52100  0.63500  0.09996
 0.66149  0.63717  0.10213
 0.80199  0.63935  0.10431
 0.94249  0.64153  0.10649
 1.00000  0.64370  0.10866
 0.00000  0.76340  0.09536
 0.10361  0.76557  0.09753
 0.24411  0.76775  0.09971
 0.38461  0.76993  0.10189
 0.52510  0.77210  0.10406
 0.66560  0.77428  0.10624
 0.80610  0.77646  0.10842
 0.94659  0.77863  0.11059
 1.00000  0.78081  0.11277
 0.00000  0.90051  0.09947
 0.10772  0.90268  0.10164
 0.24822  0.90486  0.10382
 0.38872  0.90704  0.10600
 0.52921  0.90921  0.10817
 0.66971  0.91139  0.11035
 0.81021  0.91357  0.11253
 0.95070  0.91574  0.11470
 1.00000  0.91792  0.11688
 0.00000  1.00000  0.10358
 0.11183  1.00000  0.10575
 0.25233  1.00000  0.10793
 0.39283  1.00000  0.11011
 0.53332  1.00000  0.11228
 0.67382  1.00000  0.11446
 0.81432  1.00000  0.11664
 0.95481  1.00000  0.11881
 1.00000  1.00000  0.12099
 0.00000  0.00000  0.19915
 0.07973  0.00000  0.20133
 0.22022  0.00000  0.20350
 0.36072  0.00000  0.20568
 0.50122  0.00000  0.20786
 0.64171  0.00000  0.21003
 0.78221  0.00000  0.21221
 0.92271  0.00000  0.21439
 1.00000  0.00000  0.21656
 0.00000  0.07862  0.20326
 0.08384  0.08080  0.20544
 0.22433  0.08297  0.20761
 0.36483  0.08515  0.20979
 0.50533  0.08733  0.21197
 0.64582  0.08950  0.21414
 0.78632  0.09168  0.21632
 0.92682  0.09386  0.21850
 1.00000  0.09603  0.22067
 0.00000  0.21573  0.20737
 0.08794  0.21790  0.20954
 0.22844  0.22008  0.21172
 0.36894  0.22226  0.21390
 0.50943  0.22443  0.21607
 0.64993  0.22661  0.21825
 0.79043  0.22879  0.22043
 0.93093  0.23096  0.22260
 1.00000  0.23314  0.22478
 0.00000  0.35284  0.21148
 0.09205  0.35501  0.21365
 0.23255  0.35719  0.21583
 0.37305  0.35937  0.21801
 0.51354  0.36154  0.22018
 0.65404  0.36372  0.22236
 0.79454  0.36590  0.22454
 0.93503  0.36807  0.22671
 1.00000  0.37025  0.22889
 0.00000  0.48995  0.21559
 0.09616  0.49212  0.21776
 0.23666  0.49430  0.21994
 0.37716  0.49648  0.22212
 0.51765  0.49865  0.22429
 0.65815  0.50083  0.22647
 0.79865  0.50301  0.22865
 0.93914  0.50518  0.23082
 1.00000  0.50736  0.23300
 0.00000  0.62705  0.21969
 0.10027  0.62923  0.22187
 0.24077  0.63141  0.22405
 0.38127  0.63359  0.22623
 0.52176  0.63576  0.22840
 0.66226  0.63794  0.23058
 0.80276  0.64012  0.23276
 0.94325  0.64229  0.23493
 1.00000  0.64447  0.23711
 0.00000  0.76416  0.22380
 0.10438  0.76634  0.22598
 0.24488  0.76852  0.22816
 0.38537  0.77069  0.23033
 0.52587  0.77287  0.23251
 0.66637  0.77505  0.23469
 0.80686  0.77722  0.23686
 0.94736  0.77940  0.23904
 1.00000  0.78158  0.24122
 0.00000  0.90127  0.22791
 0.10849  0.90345  0.23009
 0.24899  0.90563  0.23227
 0.38948  0.90780  0.23444
 0.52998  0.90998  0.23662
 0.67048  0.91216  0.23880
 0.81097  0.91433  0.24097
 0.95147  0.91651  0.24315
 1.00000  0.91869  0.24533
 0.00000  1.00000  0.23202
 0.11260  1.00000  0.23420
 0.25310  1.00000  0.23638
 0.39359  1.00000  0.23855
 0.53409  1.00000  0.24073
 0.67459  1.00000  0.24291
 0.81508  1.00000  0.24508
 0.95558  1.00000  0.24726
 1.00000  1.00000  0.24944
 0.00000  0.00000  0.32760
 0.08049  0.00000  0.32977
 0.22099  0.00000  0.33195
 0.36149  0.00000  0.33413
 0.50198  0.00000  0.33630
 0.64248  0.00000  0.33848
 0.78298  0.00000  0.34066
 0.92347  0.00000  0.34283
 1.00000  0.00000  0.34501
 0.00000  0.07939  0.33171
 0.08460  0.08156  0.33388
 0.22510  0.08374  0.33606
 0.36560  0.08592  0.33824
 0.50609  0.08809  0.34041
 0.64659  0.09027  0.34259
 0.78709  0.09245  0.34477
 0.92758  0.09462  0.34694
 1.00000  0.09680  0.34912
 0.00000  0.21649  0.33581
 0.08871  0.21867  0.33799
 0.22921  0.22085  0.34017
 0.36970  0.22302  0.34234
 0.51020  0.22520  0.34452
 0.65070  0.22738  0.34670
 0.79119  0.22955  0.34887
 0.93169  0.23173  0.35105
 1.00000  0.23391  0.35323
 0.00000  0.35360  0.33992
 0.09282  0.35578  0.34210
 0.23332  0.35796  0.34428
 0.37381  0.36013  0.34645
 0.51431  0.36231  0.34863
 0.65481  0.36449  0.35081
 0.79530  0.36666  0.35298
 0.93580  0.36884  0.35516
 1.00000  0.37102  0.35734
 0.00000  0.49071  0.34403
 0.09693  0.49289  0.34621
 0.23743  0.49507  0.34839
 0.37792  0.49724  0.35056
 0.51842  0.49942  0.35274
 0.65892  0.50160  0.35492
 0.79941  0.50377  0.35709
 0.93991  0.50595  0.35927
 1.00000  0.50813  0.36145
 0.00000  0.62782  0.34814
 0.10104  0.63000  0.35032
 0.24153  0.63217  0.35249
 0.38203  0.63435  0.35467
 0.52253  0.63653  0.35685
 0.66302  0.63870  0.35902
 0.80352  0.64088  0.36120
 0.94402  0.64306  0.36338
 1.00000  0.64523  0.36555
 0.00000  0.76493  0.35225
 0.10515  0.76711  0.35443
 0.24564  0.76928  0.35660
 0.38614  0.77146  0.35878
 0.52664  0.77364  0.36096
 0.66713  0.77581  0.36313
 0.80763  0.77799  0.36531
 0.94813  0.78017  0.36749
 1.00000  0.78234  0.36966
 0.00000  0.90204  0.35636
 0.10926  0.90422  0.35854
 0.24975  0.90639  0.36071
 0.39025  0.90857  0.36289
 0.53075  0.91075  0.36507
 0.67124  0.91292  0.36724
 0.81174  0.91510  0.36942
 0.95224  0.91728  0.37160
 1.00000  0.91945  0.37377
 0.00000  1.00000  0.36047
 0.11336  1.00000  0.36264
 0.25386  1.00000  0.36482
 0.39436  1.00000  0.36700
 0.53485  1.00000  0.36917
 0.67535  1.00000  0.37135
 0.81585  1.00000  0.37353
 0.95635  1.00000  0.37571
 1.00000  1.00000  0.37788
 0.00000  0.00000  0.45604
 0.08126  0.00000  0.45822
 0.22176  0.00000  0.46040
 0.36225  0.00000  0.46257
 0.50275  0.00000  0.46475
 0.64325  0.00000  0.46693
 0.78374  0.00000  0.46910
 0.92424  0.00000  0.47128
 1.00000  0.00000  0.47346
 0.00000  0.08015  0.46015
 0.08537  0.08233  0.46233
 0.22586  0.08450  0.46450
 0.36636  0.08668  0.46668
 0.50686  0.08886  0.46886
 0.64735  0.09103  0.47103
 0.78785  0.09321  0.47321
 0.92835  0.09539  0.47539
 1.00000  0.09756  0.47756
 0.00000  0.21726  0.46426
 0.08948  0.21944  0.46644
 0.22997  0.22161  0.46861
 0.37047  0.22379  0.47079
 0.51097  0.22597  0.47297
 0.65146  0.22814  0.47514
 0.79196  0.23032  0.47732
 0.93246  0.23250  0.47950
 1.00000  0.23467  0.48167
 0.00000  0.35437  0.46837
 0.09359  0.35655  0.47055
 0.23408  0.35872  0.47272
 0.37458  0.36090  0.47490
 0.51508  0.36308  0.47708
 0.65557  0.36525  0.47925
 0.79607  0.36743  0.48143
 0.93657  0.36961  0.48361
 1.00000  0.37178  0.48578
 0.00000  0.49148  0.47248
 0.09769  0.49365  0.47465
 0.23819  0.49583  0.47683
 0.37869  0.49801  0.47901
 0.51919  0.50018  0.48118
 0.65968  0.50236  0.48336
 0.80018  0.50454  0.48554
 0.94068  0.50672  0.48772
 1.00000  0.50889  0.48989
 0.00000  0.62859  0.47659
 0.10180  0.63076  0.47876
 0.24230  0.63294  0.48094
 0.38280  0.63512  0.48312
 0.52329  0.63729  0.48529
 0.66379  0.63947  0.48747
 0.80429  0.64165  0.48965
 0.94478  0.64382  0.49182
 1.00000  0.64600  0.49400
 0.00000  0.76570  0.48070
 0.10591  0.76787  0.48287
 0.24641  0.77005  0.48505
 0.38691  0.77223  0.48723
 0.52740  0.77440  0.48940
 0.66790  0.77658  0.49158
 0.80840  0.77876  0.49376
 0.94889  0.78093  0.49593
 1.00000  0.78311  0.49811
 0.00000  0.90281  0.48481
 0.11002  0.90498  0.48698
 0.25052  0.90716  0.48916
 0.39102  0.90934  0.49134
 0.53151  0.91151  0.49351
 0.67201  0.91369  0.49569
 0.81251  0.91587  0.49787
 0.95300  0.91804  0.50004
 1.00000  0.92022  0.50222
 0.00000  1.00000  0.48891
 0.11413  1.00000  0.49109
 0.25463  1.00000  0.49327
 0.39512  1.00000  0.49544
 0.53562  1.00000  0.49762
 0.67612  1.00000  0.49980
 0.81661  1.00000  0.50197
 0.95711  1.00000  0.50415
 1.00000  1.00000  0.50633
 0.00000  0.00000  0.58449
 0.08202  0.00000  0.58666
 0.22252  0.00000  0.58884
 0.36302  0.00000  0.59102
 0.50352  0.00000  0.59320
 0.64401  0.00000  0.59537
 0.78451  0.00000  0.59755
 0.92501  0.00000  0.59973
 1.00000  0.00000  0.60190
 0.00000  0.08092  0.58860
 0.08613  0.08309  0.59077
 0.22663  0.08527  0.59295
 0.36713  0.08745  0.59513
 0.50762  0.08962  0.59730
 0.64812  0.09180  0.59948
 0.78862  0.09398  0.60166
 0.92911  0.09615  0.60383
 1.00000  0.09833  0.60601
 0.00000  0.21803  0.59271
 0.09024  0.22020  0.59488
 0.23074  0.22238  0.59706
 0.37124  0.22456  0.59924
 0.51173  0.22673  0.60141
 0.65223  0.22891  0.60359
 0.79273  0.23109  0.60577
 0.93322  0.23326  0.60794
 1.00000  0.23544  0.61012
 0.00000  0.35514  0.59682
 0.09435  0.35731  0.59899
 0.23485  0.35949  0.60117
 0.37535  0.36167  0.60335
 0.51584  0.36384  0.60552
 0.65634  0.36602  0.60770
 0.79684  0.36820  0.60988
 0.93733  0.37037  0.61205
 1.00000  0.37255  0.61423
 0.00000  0.49224  0.60092
 0.09846  0.49442  0.60310
 0.23896  0.49660  0.60528
 0.37945  0.49877  0.60745
 0.51995  0.50095  0.60963
 0.66045  0.50313  0.61181
 0.80094  0.50530  0.61398
 0.94144  0.50748  0.61616
 1.00000  0.50966  0.61834
 0.00000  0.62935  0.60503
 0.10257  0.63153  0.60721
 0.24307  0.63371  0.60939
 0.38356  0.63588  0.61156
 0.52406  0.63806  0.61374
 0.66456  0.64024  0.61592
 0.80505  0.64241  0.61809
 0.94555  0.64459  0.62027
 1.00000  0.64677  0.62245
 0.00000  0.76646  0.60914
 0.10668  0.76864  0.61132
 0.24718  0.77082  0.61350
 0.38767  0.77299  0.61567
 0.52817  0.77517  0.61785
 0.66867  0.77735  0.62003
 0.80916  0.77952  0.62220
 0.94966  0.78170  0.62438
 1.00000  0.78388  0.62656
 0.00000  0.90357  0.61325
 0.11079  0.90575  0.61543
 0.25128  0.90792  0.61760
 0.39178  0.91010  0.61978
 0.53228  0.91228  0.62196
 0.67277  0.91445  0.62413
 0.81327  0.91663  0.62631
 0.95377  0.91881  0.62849
 1.00000  0.92098  0.63066
 0.00000  1.00000  0.61736
 0.11490  1.00000  0.61954
 0.25539  1.00000  0.62171
 0.39589  1.00000  0.62389
 0.53639  1.00000  0.62607
 0.67688  1.00000  0.62824
 0.81738  1.00000  0.63042
 0.95788  1.00000  0.63260
 1.00000  1.00000  0.63477
 0.00000  0.00000  0.71293
 0.08279  0.00000  0.71511
 0.22329  0.00000  0.71729
 0.36378  0.00000  0.71946
 0.50428  0.00000  0.72164
 0.64478  0.00000  0.72382
 0.78527  0.00000  0.72599
 0.92577  0.00000  0.72817
 1.00000  0.00000  0.73035
 0.00000  0.08168  0.71704
 0.08690  0.08386  0.71922
 0.22740  0.08604  0.72140
 0.36789  0.08821  0.72357
 0.50839  0.09039  0.72575
 0.64889  0.09257  0.72793
 0.78938  0.09474  0.73010
 0.92988  0.09692  0.73228
 1.00000  0.09910  0.73446
 0.00000  0.21879  0.72115
 0.09101  0.22097  0.72333
 0.23151  0.22315  0.72551
 0.37200  0.22532  0.72768
 0.51250  0.22750  0.72986
 0.65300  0.22968  0.73204
 0.79349  0.23185  0.73421
 0.93399  0.23403  0.73639
 1.00000  0.23621  0.73857
 0.00000  0.35590  0.72526
 0.09512  0.35808  0.72744
 0.23561  0.36025  0.72961
 0.37611  0.36243  0.73179
 0.51661  0.36461  0.73397
 0.65710  0.36678  0.73614
 0.79760  0.36896  0.73832
 0.93810  0.37114  0.74050
 1.00000  0.37332  0.74268
 0.00000  0.49301  0.72937
 0.09923  0.49519  0.73155
 0.23972  0.49736  0.73372
 0.38022  0.49954  0.73590
 0.52072  0.50172  0.73808
 0.66121  0.50389  0.74025
 0.80171  0.50607  0.74243
 0.94221  0.50825  0.74461
 1.00000  0.51042  0.74678
 0.00000  0.63012  0.73348
 0.10334  0.63230  0.73566
 0.24383  0.63447  0.73783
 0.38433  0.63665  0.74001
 0.52483  0.63883  0.74219
 0.66532  0.64100  0.74436
 0.80582  0.64318  0.74654
 0.94632  0.64536  0.74872
 1.00000  0.64753  0.75089
 0.00000  0.76723  0.73759
 0.10744  0.76941  0.73977
 0.24794  0.77158  0.74194
 0.38844  0.77376  0.74412
 0.52894  0.77594  0.74630
 0.66943  0.77811  0.74847
 0.80993  0.78029  0.75065
 0.95043  0.78247  0.75283
 1.00000  0.78464  0.75500
 0.00000  0.90434  0.74170
 0.11155  0.90651  0.74387
 0.25205  0.90869  0.74605
 0.39255  0.91087  0.74823
 0.53304  0.91304  0.75040
 0.67354  0.91522  0.75258
 0.81404  0.91740  0.75476
 0.95453  0.91957  0.75693
 1.00000  0.92175  0.75911
 0.00000  1.00000  0.74581
 0.11566  1.00000  0.74798
 0.25616  1.00000  0.75016
 0.39666  1.00000  0.75234
 0.53715  1.00000  0.75451
 0.67765  1.00000  0.75669
 0.81815  1.00000  0.75887
 0.95864  1.00000  0.76104
 1.00000  1.00000  0.76322
 0.00000  0.00000  0.84138
 0.08356  0.00000  0.84356
 0.22405  0.00000  0.84573
 0.36455  0.00000  0.84791
 0.50505  0.00000  0.85009
 0.64554  0.00000  0.85226
 0.78604  0.00000  0.85444
 0.92654  0.00000  0.85662
 1.00000  0.00000  0.85879
 0.00000  0.08245  0.84549
 0.08767  0.08463  0.84767
 0.22816  0.08680  0.84984
 0.36866  0.08898  0.85202
 0.50916  0.09116  0.85420
 0.64965  0.09333  0.85637
 0.79015  0.09551  0.85855
 0.93065  0.09769  0.86073
 1.00000  0.09986  0.86290
 0.00000  0.21956  0.84960
 0.09178  0.22174  0.85178
 0.23227  0.22391  0.85395
 0.37277  0.22609  0.85613
 0.51327  0.22827  0.85831
 0.65376  0.23044  0.86048
 0.79426  0.23262  0.86266
 0.93476  0.23480  0.86484
 1.00000  0.23697  0.86701
 0.00000  0.35667  0.85371
 0.09588  0.35884  0.85588
 0.23638  0.36102  0.85806
 0.37688  0.36320  0.86024
 0.51737  0.36537  0.86241
 0.65787  0.36755  0.86459
 0.79837  0.36973  0.86677
 0.93886  0.37190  0.86894
 1.00000  0.37408  0.87112
 0.00000  0.49378  0.85782
 0.09999  0.49595  0.85999
 0.24049  0.49813  0.86217
 0.38099  0.50031  0.86435
 0.52148  0.50248  0.86652
 0.66198  0.50466  0.86870
 0.80248  0.50684  0.87088
 0.94297  0.50901  0.87305
 1.00000  0.51119  0.87523
 0.00000  0.63089  0.86193
 0.10410  0.63306  0.86410
 0.24460  0.63524  0.86628
 0.38510  0.63742  0.86846
 0.52559  0.63959  0.87063
 0.66609  0.64177  0.87281
 0.80659  0.64395  0.87499
 0.94708  0.64612  0.87716
 1.00000  0.64830  0.87934
 0.00000  0.76799  0.86603
 0.10821  0.77017  0.86821
 0.24871  0.77235  0.87039
 0.38920  0.77452  0.87256
 0.52970  0.77670  0.87474
 0.67020  0.77888  0.87692
 0.81069  0.78105  0.87909
 0.95119  0.78323  0.88127
 1.00000  0.78541  0.88345
 0.00000  0.90510  0.87014
 0.11232  0.90728  0.87232
 0.25282  0.90946  0.87450
 0.39331  0.91163  0.87667
 0.53381  0.91381  0.87885
 0.67431  0.91599  0.88103
 0.81480  0.91816  0.88320
 0.95530  0.92034  0.88538
 1.00000  0.92252  0.88756
 0.00000  1.00000  0.87425
 0.11643  1.00000  0.87643
 0.25693  1.00000  0.87861
 0.39742  1.00000  0.88078
 0.53792  1.00000  0.88296
 0.67842  1.00000  0.88514
 0.81891  1.00000  0.88731
 0.95941  1.00000  0.88949
 1.00000  1.00000  0.89167
 0.00000  0.00000  0.96983
 0.08432  0.00000  0.97200
 0.22482  0.00000  0.97418
 0.36532  0.00000  0.97636
 0.50581  0.00000  0.97853
 0.64631  0.00000  0.98071
 0.78681  0.00000  0.98289
 0.92730  0.00000  0.98506
 1.00000  0.00000  0.98724
 0.00000  0.08322  0.97394
 0.08843  0.08539  0.97611
 0.22893  0.08757  0.97829
 0.36943  0.08975  0.98047
 0.50992  0.09192  0.98264
 0.65042  0.09410  0.98482
 0.79092  0.09628  0.98700
 0.93141  0.09845  0.98917
 1.00000  0.10063  0.99135
 0.00000  0.22032  0.97804
 0.09254  0.22250  0.98022
 0.23304  0.22468  0.98240
 0.37353  0.22685  0.98457
 0.51403  0.22903  0.98675
 0.65453  0.23121  0.98893
 0.79502  0.23338  0.99110
 0.93552  0.23556  0.99328
 1.00000  0.23774  0.99546
 0.00000  0.35743  0.98215
 0.09665  0.35961  0.98433
 0.23715  0.36179  0.98651
 0.37764  0.36396  0.98868
 0.51814  0.36614  0.99086
 0.65864  0.36832  0.99304
 0.79913  0.37049  0.99521
 0.93963  0.37267  0.99739
 1.00000  0.37485  0.99957
 0.00000  0.49454  0.98626
 0.10076  0.49672  0.98844
 0.24126  0.49890  0.99062
 0.38175  0.50107  0.99279
 0.52225  0.50325  0.99497
 0.66275  0.50543  0.99715
 0.80324  0.50760  0.99932
 0.94374  0.50978  1.00000
 1.00000  0.51196  1.00000
 0.00000  0.63165  0.99037
 0.10487  0.63383  0.99255
 0.24536  0.63600  0.99472
 0.38586  0.63818  0.99690
 0.52636  0.64036  0.99908
 0.66686  0.64254  1.00000
 0.80735  0.64471  1.00000
 0.94785  0.64689  1.00000
 1.00000  0.64907  1.00000
 0.00000  0.76876  0.99448
 0.10898  0.77094  0.99666
 0.24947  0.77311  0.99883
 0.38997  0.77529  1.00000
 0.53047  0.77747  1.00000
 0.67096  0.77964  1.00000
 0.81146  0.78182  1.00000
 0.95196  0.78400  1.00000
 1.00000  0.78617  1.00000
 0.00000  0.90587  0.99859
 0.11309  0.90805  1.00000
 0.25358  0.91022  1.00000
 0.39408  0.91240  1.00000
 0.53458  0.91458  1.00000
 0.67507  0.91675  1.00000
 0.81557  0.91893  1.00000
 0.95607  0.92111  1.00000
 1.00000  0.92328  1.00000
 0.00000  1.00000  1.00000
 0.11720  1.00000  1.00000
 0.25769  1.00000  1.00000
 0.39819  1.00000  1.00000
 0.53869  1.00000  1.00000
 0.67918  1.00000  1.00000
 0.81968  1.00000  1.00000
 0.96018  1.00000  1.00000
 1.00000  1.00000  1.00000
