src/assets/luts/cinematic-cool.cube
TITLE "冷调电影"
LUT_3D_SIZE 9
DOMAIN_MIN 0.0 0.0 0.0
DOMAIN_MAX 1.0 1.0 1.0
# LumEdit built-in LUT · 冷色温高对比电影感
 0.00000  0.00000  0.00000
 0.07199  0.00000  0.00000
 0.20168  0.00000  0.00000
 0.33137  0.00000  0.00000
 0.46106  0.00000  0.00000
 0.59075  0.00000  0.00000
 0.72043  0.00000  0.00000
 0.85012  0.00000  0.00000
 0.97981  0.00000  0.00000
 0.00000  0.07713  0.00000
 0.07610  0.07914  0.00000
 0.20579  0.08115  0.00000
 0.33548  0.08316  0.00000
 0.46516  0.08516  0.00000
 0.59485  0.08717  0.00000
 0.72454  0.08918  0.00000
 0.85423  0.09119  0.00000
 0.98392  0.09320  0.00000
 0.00000  0.21424  0.00000
 0.08021  0.21625  0.00000
 0.20990  0.21826  0.00000
 0.33958  0.22026  0.00000
 0.46927  0.22227  0.00000
 0.59896  0.22428  0.00000
 0.72865  0.22629  0.00000
 0.85834  0.22830  0.00000
 0.98803  0.23031  0.00000
 0.00000  0.35135  0.00000
 0.08432  0.35336  0.00000
 0.21400  0.35536  0.00000
 0.34369  0.35737  0.00000
 0.47338  0.35938  0.00000
 0.60307  0.36139  0.00000
 0.73276  0.36340  0.00000
 0.86245  0.36541  0.00000
 0.99214  0.36742  0.00000
 0.00000  0.48845  0.00000
 0.08842  0.49046  0.00000
 0.21811  0.49247  0.00000
 0.34780  0.49448  0.00000
 0.47749  0.49649  0.00000
 0.60718  0.49850  0.00000
 0.73687  0.50051  0.00000
 0.86656  0.50252  0.00000
 0.99625  0.50453  0.00000
 0.00000  0.62556  0.00000
 0.09253  0.62757  0.00000
 0.22222  0.62958  0.00000
 0.35191  0.63159  0.00000
 0.48160  0.63360  0.00000
 0.61129  0.63561  0.00000
 0.74098  0.63762  0.00000
 0.87067  0.63963  0.00000
 1.00000  0.64164  0.00000
 0.00000  0.76267  0.00000
 0.09664  0.76468  0.00000
 0.22633  0.76669  0.00000
 0.35602  0.76870  0.00000
 0.48571  0.77071  0.00000
 0.61540  0.77272  0.00000
 0.74509  0.77473  0.00000
 0.87478  0.77674  0.00000
 1.00000  0.77875  0.00000
 0.00000  0.89978  0.00000
 0.10075  0.90179  0.00000
 0.23044  0.90380  0.00000
 0.36013  0.90581  0.00000
 0.48982  0.90782  0.00000
 0.61951  0.90983  0.00000
 0.74920  0.91184  0.00000
 0.87889  0.91385  0.00000
 1.00000  0.91586  0.00000
 0.00000  1.00000  0.00000
 0.10486  1.00000  0.00000
 0.23455  1.00000  0.00000
 0.36424  1.00000  0.00000
 0.49393  1.00000  0.00000
 0.62362  1.00000  0.00000
 0.75331  1.00000  0.00000
 0.88300  1.00000  0.00000
 1.00000  1.00000  0.00000
 0.00000  0.00000  0.07766
 0.07283  0.00000  0.07967
 0.20252  0.00000  0.08168
 0.33220  0.00000  0.08368
 0.46189  0.00000  0.08569
 0.59158  0.00000  0.08770
 0.72127  0.00000  0.08971
 0.85096  0.00000  0.09172
 0.98065  0.00000  0.09373
 0.00000  0.07797  0.08177
 0.07693  0.07997  0.08377
 0.20662  0.08198  0.08578
 0.33631  0.08399  0.08779
 0.46600  0.08600  0.08980
 0.59569  0.08801  0.09181
 0.72538  0.09002  0.09382
 0.85507  0.09203  0.09583
 0.98476  0.09404  0.09784
 0.00000  0.21507  0.08587
 0.08104  0.21708  0.08788
 0.21073  0.21909  0.08989
 0.34042  0.22110  0.09190
 0.47011  0.22311  0.09391
 0.59980  0.22512  0.09592
 0.72949  0.22713  0.09793
 0.85918  0.22914  0.09994
 0.98887  0.23115  0.10195
 0.00000  0.35218  0.08998
 0.08515  0.35419  0.09199
 0.21484  0.35620  0.09400
 0.34453  0.35821  0.09601
 0.47422  0.36022  0.09802
 0.60391  0.36223  0.10003
 0.73360  0.36424  0.10204
 0.86329  0.36625  0.10405
 0.99298  0.36826  0.10606
 0.00000  0.48929  0.09409
 0.08926  0.49130  0.09610
 0.21895  0.49331  0.09811
 0.34864  0.49532  0.10012
 0.47833  0.49733  0.10213
 0.60802  0.49934  0.10414
 0.73771  0.50135  0.10615
 0.86740  0.50336  0.10816
 0.99709  0.50537  0.11017
 0.00000  0.62640  0.09820
 0.09337  0.62841  0.10021
 0.22306  0.63042  0.10222
 0.35275  0.63243  0.10423
 0.48244  0.63444  0.10624
 0.61213  0.63645  0.10825
 0.74182  0.63846  0.11026
 0.87151  0.64047  0.11227
 1.00000  0.64248  0.11428
 0.00000  0.76351  0.10231
 0.09748  0.76552  0.10432
 0.22717  0.76753  0.10633
 0.35686  0.76954  0.10834
 0.48655  0.77155  0.11035
 0.61624  0.77356  0.11236
 0.74593  0.77557  0.11437
 0.87562  0.77758  0.11638
 1.00000  0.77958  0.11838
 0.00000  0.90062  0.10642
 0.10159  0.90263  0.10843
 0.23128  0.90464  0.11044
 0.36097  0.90665  0.11245
 0.49066  0.90866  0.11446
 0.62035  0.91067  0.11647
 0.75004  0.91268  0.11848
 0.87972  0.91468  0.12048
 1.00000  0.91669  0.12249
 0.00000  1.00000  0.11053
 0.10570  1.00000  0.11254
 0.23539  1.00000  0.11455
 0.36508  1.00000  0.11656
 0.49477  1.00000  0.11857
 0.62446  1.00000  0.12058
 0.75414  1.00000  0.12258
 0.88383  1.00000  0.12459
 1.00000  1.00000  0.12660
 0.00000  0.00000  0.21814
 0.07366  0.00000  0.22015
 0.20335  0.00000  0.22216
 0.33304  0.00000  0.22417
 0.46273  0.00000  0.22618
 0.59242  0.00000  0.22819
 0.72211  0.00000  0.23020
 0.85180  0.00000  0.23221
 0.98149  0.00000  0.23422
 0.00000  0.07880  0.22225
 0.07777  0.08081  0.22426
 0.20746  0.08282  0.22627
 0.33715  0.08483  0.22828
 0.46684  0.08684  0.23029
 0.59653  0.08885  0.23230
 0.72622  0.09086  0.23431
 0.85591  0.09287  0.23632
 0.98560  0.09488  0.23833
 0.00000  0.21591  0.22636
 0.08188  0.21792  0.22837
 0.21157  0.21993  0.23038
 0.34126  0.22194  0.23239
 0.47095  0.22395  0.23440
 0.60064  0.22596  0.23641
 0.73033  0.22797  0.23842
 0.86002  0.22998  0.24043
 0.98971  0.23199  0.24244
 0.00000  0.35302  0.23047
 0.08599  0.35503  0.23248
 0.21568  0.35704  0.23449
 0.34537  0.35905  0.23650
 0.47506  0.36106  0.23851
 0.60475  0.36307  0.24052
 0.73444  0.36508  0.24253
 0.86413  0.36709  0.24454
 0.99382  0.36910  0.24655
 0.00000  0.49013  0.23458
 0.09010  0.49214  0.23659
 0.21979  0.49415  0.23860
 0.34948  0.49616  0.24061
 0.47917  0.49817  0.24262
 0.60886  0.50018  0.24463
 0.73855  0.50219  0.24664
 0.86824  0.50420  0.24865
 0.99792  0.50620  0.25065
 0.00000  0.62724  0.23869
 0.09421  0.62925  0.24070
 0.22390  0.63126  0.24271
 0.35359  0.63327  0.24472
 0.48328  0.63528  0.24673
 0.61297  0.63729  0.24874
 0.74266  0.63930  0.25075
 0.87234  0.64130  0.25275
 1.00000  0.64331  0.25476
 0.00000  0.76435  0.24280
 0.09832  0.76636  0.24481
 0.22801  0.76837  0.24682
 0.35770  0.77038  0.24883
 0.48739  0.77239  0.25084
 0.61707  0.77439  0.25284
 0.74676  0.77640  0.25485
 0.87645  0.77841  0.25686
 1.00000  0.78042  0.25887
 0.00000  0.90146  0.24691
 0.10243  0.90347  0.24892
 0.23212  0.90548  0.25093
 0.36181  0.90749  0.25294
 0.49149  0.90949  0.25494
 0.62118  0.91150  0.25695
 0.75087  0.91351  0.25896
 0.88056  0.91552  0.26097
 1.00000  0.91753  0.26298
 0.00000  1.00000  0.25102
 0.10654  1.00000  0.25303
 0.23623  1.00000  0.25504
 0.36591  1.00000  0.25704
 0.49560  1.00000  0.25905
 0.62529  1.00000  0.26106
 0.75498  1.00000  0.26307
 0.88467  1.00000  0.26508
 1.00000  1.00000  0.26709
 0.00000  0.00000  0.35863
 0.07450  0.00000  0.36064
 0.20419  0.00000  0.36265
 0.33388  0.00000  0.36466
 0.46357  0.00000  0.36667
 0.59326  0.00000  0.36868
 0.72295  0.00000  0.37069
 0.85264  0.00000  0.37270
 0.98233  0.00000  0.37471
 0.00000  0.07964  0.36274
 0.07861  0.08165  0.36475
 0.20830  0.08366  0.36676
 0.33799  0.08567  0.36877
 0.46768  0.08768  0.37078
 0.59737  0.08969  0.37279
 0.72706  0.09170  0.37480
 0.85675  0.09371  0.37681
 0.98644  0.09572  0.37882
 0.00000  0.21675  0.36685
 0.08272  0.21876  0.36886
 0.21241  0.22077  0.37087
 0.34210  0.22278  0.37288
 0.47179  0.22479  0.37489
 0.60148  0.22680  0.37690
 0.73117  0.22881  0.37891
 0.86086  0.23082  0.38092
 0.99054  0.23282  0.38292
 0.00000  0.35386  0.37096
 0.08683  0.35587  0.37297
 0.21652  0.35788  0.37498
 0.34621  0.35989  0.37699
 0.47590  0.36190  0.37900
 0.60559  0.36391  0.38101
 0.73528  0.36592  0.38302
 0.86496  0.36792  0.38502
 0.99465  0.36993  0.38703
 0.00000  0.49097  0.37507
 0.09094  0.49298  0.37708
 0.22063  0.49499  0.37909
 0.35032  0.49700  0.38110
 0.48001  0.49901  0.38311
 0.60969  0.50101  0.38511
 0.73938  0.50302  0.38712
 0.86907  0.50503  0.38913
 0.99876  0.50704  0.39114
 0.00000  0.62808  0.37918
 0.09505  0.63009  0.38119
 0.22474  0.63210  0.38320
 0.35443  0.63411  0.38521
 0.48411  0.63611  0.38721
 0.61380  0.63812  0.38922
 0.74349  0.64013  0.39123
 0.87318  0.64214  0.39324
 1.00000  0.64415  0.39525
 0.00000  0.76519  0.38329
 0.09916  0.76720  0.38530
 0.22885  0.76921  0.38731
 0.35853  0.77121  0.38931
 0.48822  0.77322  0.39132
 0.61791  0.77523  0.39333
 0.74760  0.77724  0.39534
 0.87729  0.77925  0.39735
 1.00000  0.78126  0.39936
 0.00000  0.90230  0.38740
 0.10326  0.90430  0.38940
 0.23295  0.90631  0.39141
 0.36264  0.90832  0.39342
 0.49233  0.91033  0.39543
 0.62202  0.91234  0.39744
 0.75171  0.91435  0.39945
 0.88140  0.91636  0.40146
 1.00000  0.91837  0.40347
 0.00000  1.00000  0.39150
 0.10737  1.00000  0.39351
 0.23706  1.00000  0.39552
 0.36675  1.00000  0.39753
 0.49644  1.00000  0.39954
 0.62613  1.00000  0.40155
 0.75582  1.00000  0.40356
 0.88551  1.00000  0.40557
 1.00000  1.00000  0.40758
 0.00000  0.00000  0.49912
 0.07534  0.00000  0.50113
 0.20503  0.00000  0.50314
 0.33472  0.00000  0.50515
 0.46441  0.00000  0.50716
 0.59410  0.00000  0.50917
 0.72379  0.00000  0.51118
 0.85348  0.00000  0.51319
 0.98316  0.00000  0.51519
 0.00000  0.08048  0.50323
 0.07945  0.08249  0.50524
 0.20914  0.08450  0.50725
 0.33883  0.08651  0.50926
 0.46852  0.08852  0.51127
 0.59821  0.09053  0.51328
 0.72790  0.09254  0.51529
 0.85758  0.09454  0.51729
 0.98727  0.09655  0.51930
 0.00000  0.21759  0.50734
 0.08356  0.21960  0.50935
 0.21325  0.22161  0.51136
 0.34294  0.22362  0.51337
 0.47263  0.22563  0.51538
 0.60231  0.22763  0.51738
 0.73200  0.22964  0.51939
 0.86169  0.23165  0.52140
 0.99138  0.23366  0.52341
 0.00000  0.35470  0.51145
 0.08767  0.35671  0.51346
 0.21736  0.35872  0.51547
 0.34705  0.36073  0.51748
 0.47673  0.36273  0.51948
 0.60642  0.36474  0.52149
 0.73611  0.36675  0.52350
 0.86580  0.36876  0.52551
 0.99549  0.37077  0.52752
 0.00000  0.49181  0.51556
 0.09178  0.49382  0.51757
 0.22146  0.49582  0.51957
 0.35115  0.49783  0.52158
 0.48084  0.49984  0.52359
 0.61053  0.50185  0.52560
 0.74022  0.50386  0.52761
 0.86991  0.50587  0.52962
 0.99960  0.50788  0.53163
 0.00000  0.62892  0.51967
 0.09588  0.63092  0.52167
 0.22557  0.63293  0.52368
 0.35526  0.63494  0.52569
 0.48495  0.63695  0.52770
 0.61464  0.63896  0.52971
 0.74433  0.64097  0.53172
 0.87402  0.64298  0.53373
 1.00000  0.64499  0.53574
 0.00000  0.76602  0.52377
 0.09999  0.76803  0.52578
 0.22968  0.77004  0.52779
 0.35937  0.77205  0.52980
 0.48906  0.77406  0.53181
 0.61875  0.77607  0.53382
 0.74844  0.77808  0.53583
 0.87813  0.78009  0.53784
 1.00000  0.78210  0.53985
 0.00000  0.90313  0.52788
 0.10410  0.90514  0.52989
 0.23379  0.90715  0.53190
 0.36348  0.90916  0.53391
 0.49317  0.91117  0.53592
 0.62286  0.91318  0.53793
 0.75255  0.91519  0.53994
 0.88224  0.91720  0.54195
 1.00000  0.91921  0.54396
 0.00000  1.00000  0.53199
 0.10821  1.00000  0.53400
 0.23790  1.00000  0.53601
 0.36759  1.00000  0.53802
 0.49728  1.00000  0.54003
 0.62697  1.00000  0.54204
 0.75666  1.00000  0.54405
 0.88635  1.00000  0.54606
 1.00000  1.00000  0.54807
 0.00000  0.00000  0.63961
 0.07618  0.00000  0.64162
 0.20587  0.00000  0.64363
 0.33556  0.00000  0.64564
 0.46525  0.00000  0.64765
 0.59493  0.00000  0.64965
 0.72462  0.00000  0.65166
 0.85431  0.00000  0.65367
 0.98400  0.00000  0.65568
 0.00000  0.08132  0.64372
 0.08029  0.08333  0.64573
 0.20998  0.08534  0.64774
 0.33967  0.08735  0.64975
 0.46935  0.08935  0.65175
 0.59904  0.09136  0.65376
 0.72873  0.09337  0.65577
 0.85842  0.09538  0.65778
 0.98811  0.09739  0.65979
 0.00000  0.21843  0.64783
 0.08440  0.22044  0.64984
 0.21408  0.22244  0.65184
 0.34377  0.22445  0.65385
 0.47346  0.22646  0.65586
 0.60315  0.22847  0.65787
 0.73284  0.23048  0.65988
 0.86253  0.23249  0.66189
 0.99222  0.23450  0.66390
 0.00000  0.35554  0.65194
 0.08850  0.35754  0.65394
 0.21819  0.35955  0.65595
 0.34788  0.36156  0.65796
 0.47757  0.36357  0.65997
 0.60726  0.36558  0.66198
 0.73695  0.36759  0.66399
 0.86664  0.36960  0.66600
 0.99633  0.37161  0.66801
 0.00000  0.49264  0.65604
 0.09261  0.49465  0.65805
 0.22230  0.49666  0.66006
 0.35199  0.49867  0.66207
 0.48168  0.50068  0.66408
 0.61137  0.50269  0.66609
 0.74106  0.50470  0.66810
 0.87075  0.50671  0.67011
 1.00000  0.50872  0.67212
 0.00000  0.62975  0.66015
 0.09672  0.63176  0.66216
 0.22641  0.63377  0.66417
 0.35610  0.63578  0.66618
 0.48579  0.63779  0.66819
 0.61548  0.63980  0.67020
 0.74517  0.64181  0.67221
 0.87486  0.64382  0.67422
 1.00000  0.64583  0.67623
 0.00000  0.76686  0.66426
 0.10083  0.76887  0.66627
 0.23052  0.77088  0.66828
 0.36021  0.77289  0.67029
 0.48990  0.77490  0.67230
 0.61959  0.77691  0.67431
 0.74928  0.77892  0.67632
 0.87897  0.78093  0.67833
 1.00000  0.78294  0.68034
 0.00000  0.90397  0.66837
 0.10494  0.90598  0.67038
 0.23463  0.90799  0.67239
 0.36432  0.91000  0.67440
 0.49401  0.91201  0.67641
 0.62370  0.91402  0.67842
 0.75339  0.91603  0.68043
 0.88308  0.91804  0.68244
 1.00000  0.92005  0.68445
 0.00000  1.00000  0.67248
 0.10905  1.00000  0.67449
 0.23874  1.00000  0.67650
 0.36843  1.00000  0.67851
 0.49812  1.00000  0.68052
 0.62781  1.00000  0.68253
 0.75750  1.00000  0.68454
 0.88719  1.00000  0.68655
 1.00000  1.00000  0.68855
 0.00000  0.00000  0.78010
 0.07702  0.00000  0.78211
 0.20670  0.00000  0.78411
 0.33639  0.00000  0.78612
 0.46608  0.00000  0.78813
 0.59577  0.00000  0.79014
 0.72546  0.00000  0.79215
 0.85515  0.00000  0.79416
 0.98484  0.00000  0.79617
 0.00000  0.08216  0.78421
 0.08112  0.08416  0.78621
 0.21081  0.08617  0.78822
 0.34050  0.08818  0.79023
 0.47019  0.09019  0.79224
 0.59988  0.09220  0.79425
 0.72957  0.09421  0.79626
 0.85926  0.09622  0.79827
 0.98895  0.09823  0.80028
 0.00000  0.21926  0.78831
 0.08523  0.22127  0.79032
 0.21492  0.22328  0.79233
 0.34461  0.22529  0.79434
 0.47430  0.22730  0.79635
 0.60399  0.22931  0.79836
 0.73368  0.23132  0.80037
 0.86337  0.23333  0.80238
 0.99306  0.23534  0.80439
 0.00000  0.35637  0.79242
 0.08934  0.35838  0.79443
 0.21903  0.36039  0.79644
 0.34872  0.36240  0.79845
 0.47841  0.36441  0.80046
 0.60810  0.36642  0.80247
 0.73779  0.36843  0.80448
 0.86748  0.37044  0.80649
 0.99717  0.37245  0.80850
 0.00000  0.49348  0.79653
 0.09345  0.49549  0.79854
 0.22314  0.49750  0.80055
 0.35283  0.49951  0.80256
 0.48252  0.50152  0.80457
 0.61221  0.50353  0.80658
 0.74190  0.50554  0.80859
 0.87159  0.50755  0.81060
 1.00000  0.50956  0.81261
 0.00000  0.63059  0.80064
 0.09756  0.63260  0.80265
 0.22725  0.63461  0.80466
 0.35694  0.63662  0.80667
 0.48663  0.63863  0.80868
 0.61632  0.64064  0.81069
 0.74601  0.64265  0.81270
 0.87570  0.64466  0.81471
 1.00000  0.64667  0.81672
 0.00000  0.76770  0.80475
 0.10167  0.76971  0.80676
 0.23136  0.77172  0.80877
 0.36105  0.77373  0.81078
 0.49074  0.77574  0.81279
 0.62043  0.77775  0.81480
 0.75012  0.77976  0.81681
 0.87981  0.78177  0.81882
 1.00000  0.78377  0.82082
 0.00000  0.90481  0.80886
 0.10578  0.90682  0.81087
 0.23547  0.90883  0.81288
 0.36516  0.91084  0.81489
 0.49485  0.91285  0.81690
 0.62454  0.91486  0.81891
 0.75422  0.91686  0.82091
 0.88391  0.91887  0.82292
 1.00000  0.92088  0.82493
 0.00000  1.00000  0.81297
 0.10989  1.00000  0.81498
 0.23958  1.00000  0.81699
 0.36927  1.00000  0.81900
 0.49896  1.00000  0.82101
 0.62864  1.00000  0.82301
 0.75833  1.00000  0.82502
 0.88802  1.00000  0.82703
 1.00000  1.00000  0.82904
 0.00000  0.00000  0.92058
 0.07785  0.00000  0.92259
 0.20754  0.00000  0.92460
 0.33723  0.00000  0.92661
 0.46692  0.00000  0.92862
 0.59661  0.00000  0.93063
 0.72630  0.00000  0.93264
 0.85599  0.00000  0.93465
 0.98568  0.00000  0.93666
 0.00000  0.08299  0.92469
 0.08196  0.08500  0.92670
 0.21165  0.08701  0.92871
 0.34134  0.08902  0.93072
 0.47103  0.09103  0.93273
 0.60072  0.09304  0.93474
 0.73041  0.09505  0.93675
 0.86010  0.09706  0.93876
 0.98979  0.09907  0.94077
 0.00000  0.22010  0.92880
 0.08607  0.22211  0.93081
 0.21576  0.22412  0.93282
 0.34545  0.22613  0.93483
 0.47514  0.22814  0.93684
 0.60483  0.23015  0.93885
 0.73452  0.23216  0.94086
 0.86421  0.23417  0.94287
 0.99390  0.23618  0.94488
 0.00000  0.35721  0.93291
 0.09018  0.35922  0.93492
 0.21987  0.36123  0.93693
 0.34956  0.36324  0.93894
 0.47925  0.36525  0.94095
 0.60894  0.36726  0.94296
 0.73863  0.36927  0.94497
 0.86832  0.37128  0.94698
 0.99801  0.37329  0.94899
 0.00000  0.49432  0.93702
 0.09429  0.49633  0.93903
 0.22398  0.49834  0.94104
 0.35367  0.50035  0.94305
 0.48336  0.50236  0.94506
 0.61305  0.50437  0.94707
 0.74274  0.50638  0.94908
 0.87243  0.50839  0.95109
 1.00000  0.51039  0.95309
 0.00000  0.63143  0.94113
 0.09840  0.63344  0.94314
 0.22809  0.63545  0.94515
 0.35778  0.63746  0.94716
 0.48747  0.63947  0.94917
 0.61716  0.64148  0.95118
 0.74684  0.64348  0.95318
 0.87653  0.64549  0.95519
 1.00000  0.64750  0.95720
 0.00000  0.76854  0.94524
 0.10251  0.77055  0.94725
 0.23220  0.77256  0.94926
 0.36189  0.77457  0.95127
 0.49158  0.77658  0.95328
 0.62126  0.77858  0.95528
 0.75095  0.78059  0.95729
 0.88064  0.78260  0.95930
 1.00000  0.78461  0.96131
 0.00000  0.90565  0.94935
 0.10662  0.90766  0.95136
 0.23631  0.90967  0.95337
 0.36599  0.91167  0.95537
 0.49568  0.91368  0.95738
 0.62537  0.91569  0.95939
 0.75506  0.91770  0.96140
 0.88475  0.91971  0.96341
 1.00000  0.92172  0.96542
 0.00000  1.00000  0.95346
 0.11073  1.00000  0.95547
 0.24041  1.00000  0.95747
 0.37010  1.00000  0.95948
 0.49979  1.00000  0.96149
 0.62948  1.00000  0.96350
 0.75917  1.00000  0.96551
 0.88886  1.00000  0.96752
 1.00000  1.00000  0.96953
 0.00000  0.00000  1.00000
 0.07869  0.00000  1.00000
 0.20838  0.00000  1.00000
 0.33807  0.00000  1.00000
 0.46776  0.00000  1.00000
 0.59745  0.00000  1.00000
 0.72714  0.00000  1.00000
 0.85683  0.00000  1.00000
 0.98652  0.00000  1.00000
 0.00000  0.08383  1.00000
 0.08280  0.08584  1.00000
 0.21249  0.08785  1.00000
 0.34218  0.08986  1.00000
 0.47187  0.09187  1.00000
 0.60156  0.09388  1.00000
 0.73125  0.09589  1.00000
 0.86094  0.09790  1.00000
 0.99063  0.09991  1.00000
 0.00000  0.22094  1.00000
 0.08691  0.22295  1.00000
 0.21660  0.22496  1.00000
 0.34629  0.22697  1.00000
 0.47598  0.22898  1.00000
 0.60567  0.23099  1.00000
 0.73536  0.23300  1.00000
 0.86504  0.23500  1.00000
 0.99473  0.23701  1.00000
 0.00000  0.35805  1.00000
 0.09102  0.36006  1.00000
 0.22071  0.36207  1.00000
 0.35040  0.36408  1.00000
 0.48009  0.36609  1.00000
 0.60978  0.36810  1.00000
 0.73946  0.37010  1.00000
 0.86915  0.37211  1.00000
 0.99884  0.37412  1.00000
 0.00000  0.49516  1.00000
 0.09513  0.49717  1.00000
 0.22482  0.49918  1.00000
 0.35451  0.50119  1.00000
 0.48420  0.50320  1.00000
 0.61388  0.50520  1.00000
 0.74357  0.50721  1.00000
 0.87326  0.50922  1.00000
 1.00000  0.51123  1.00000
 0.00000  0.63227  1.00000
 0.09924  0.63428  1.00000
 0.22893  0.63629  1.00000
 0.35861  0.63829  1.00000
 0.48830  0.64030  1.00000
 0.61799  0.64231  1.00000
 0.74768  0.64432  1.00000
 0.87737  0.64633  1.00000
 1.00000  0.64834  1.00000
 0.00000  0.76938  1.00000
 0.10335  0.77139  1.00000
 0.23303  0.77339  1.00000
 0.36272  0.77540  1.00000
 0.49241  0.77741  1.00000
 0.62210  0.77942  1.00000
 0.75179  0.78143  1.00000
 0.88148  0.78344  1.00000
 1.00000  0.78545  1.00000
 0.00000  0.90648  1.00000
 0.10745  0.90849  1.00000
 0.23714  0.91050  1.00000
 0.36683  0.91251  1.00000
 0.49652  0.91452  1.00000
 0.62621  0.91653  1.00000
 0.75590  0.91854  1.00000
 0.88559  0.92055  1.00000
 1.00000  0.92256  1.00000
 0.00000  1.00000  1.00000
 0.11156  1.00000  1.00000
 0.24125  1.00000  1.00000
 0.37094  1.00000  1.00000
 0.50063  1.00000  1.00000
 0.63032  1.00000  1.00000
 0.76001  1.00000  1.00000
 0.88970  1.00000  1.00000
 1.00000  1.00000  1.00000
