src/assets/luts/cinematic-warm.cube
TITLE "暖调电影"
LUT_3D_SIZE 17
DOMAIN_MIN 0.0 0.0 0.0
DOMAIN_MAX 1.0 1.0 1.0
# LumEdit built-in LUT · 暖色温高对比电影感
 0.00000  0.00000  0.00000
 0.00795  0.00000  0.00000
 0.07819  0.00000  0.00000
 0.14844  0.00000  0.00000
 0.21869  0.00000  0.00000
 0.28894  0.00000  0.00000
 0.35919  0.00000  0.00000
 0.42944  0.00000  0.00000
 0.49968  0.00000  0.00000
 0.56993  0.00000  0.00000
 0.64018  0.00000  0.00000
 0.71043  0.00000  0.00000
 0.78068  0.00000  0.00000
 0.85093  0.00000  0.00000
 0.92117  0.00000  0.00000
 0.99142  0.00000  0.00000
 1.00000  0.00000  0.00000
 0.00000  0.00853  0.00000
 0.01000  0.00962  0.00000
 0.08025  0.01071  0.00000
 0.15050  0.01180  0.00000
 0.22075  0.01289  0.00000
 0.29099  0.01397  0.00000
 0.36124  0.01506  0.00000
 0.43149  0.01615  0.00000
 0.50174  0.01724  0.00000
 0.57199  0.01833  0.00000
 0.64224  0.01942  0.00000
 0.71248  0.02050  0.00000
 0.78273  0.02159  0.00000
 0.85298  0.02268  0.00000
 0.92323  0.02377  0.00000
 0.99348  0.02486  0.00000
 1.00000  0.02595  0.00000
 0.00000  0.07709  0.00000
 0.01206  0.07818  0.00000
 0.08230  0.07926  0.00000
 0.15255  0.08035  0.00000
 0.22280  0.08144  0.00000
 0.29305  0.08253  0.00000
 0.36330  0.08362  0.00000
 0.43355  0.08471  0.00000
 0.50379  0.08579  0.00000
 0.57404  0.08688  0.00000
 0.64429  0.08797  0.00000
 0.71454  0.08906  0.00000
 0.78479  0.09015  0.00000
 0.85504  0.09124  0.00000
 0.92528  0.09232  0.00000
 0.99553  0.09341  0.00000
 1.00000  0.09450  0.00000
 0.00000  0.14564  0.00000
 0.01411  0.14673  0.00000
 0.08436  0.14782  0.00000
 0.15461  0.14891  0.00000
 0.22485  0.14999  0.00000
 0.29510  0.15108  0.00000
 0.36535  0.15217  0.00000
 0.43560  0.15326  0.00000
 0.50585  0.15435  0.00000
 0.57610  0.15544  0.00000
 0.64634  0.15652  0.00000
 0.71659  0.15761  0.00000
 0.78684  0.15870  0.00000
 0.85709  0.15979  0.00000
 0.92734  0.16088  0.00000
 0.99759  0.16197  0.00000
 1.00000  0.16306  0.00000
 0.00000  0.21420  0.00000
 0.01616  0.21528  0.00000
 0.08641  0.21637  0.00000
 0.15666  0.21746  0.00000
 0.22691  0.21855  0.00000
 0.29716  0.21964  0.00000
 0.36741  0.22073  0.00000
 0.43765  0.22181  0.00000
 0.50790  0.22290  0.00000
 0.57815  0.22399  0.00000
 0.64840  0.22508  0.00000
 0.71865  0.22617  0.00000
 0.78890  0.22726  0.00000
 0.85914  0.22834  0.00000
 0.92939  0.22943  0.00000
 0.99964  0.23052  0.00000
 1.00000  0.23161  0.00000
 0.00000  0.28275  0.00000
 0.01822  0.28384  0.00000
 0.08847  0.28493  0.00000
 0.15872  0.28602  0.00000
 0.22896  0.28710  0.00000
 0.29921  0.28819  0.00000
 0.36946  0.28928  0.00000
 0.43971  0.29037  0.00000
 0.50996  0.29146  0.00000
 0.58021  0.29255  0.00000
 0.65045  0.29363  0.00000
 0.72070  0.29472  0.00000
 0.79095  0.29581  0.00000
 0.86120  0.29690  0.00000
 0.93145  0.29799  0.00000
 1.00000  0.29908  0.00000
 1.00000  0.30016  0.00000
 0.00000  0.35130  0.00000
 0.02027  0.35239  0.00000
 0.09052  0.35348  0.00000
 0.16077  0.35457  0.00000
 0.23102  0.35566  0.00000
 0.30127  0.35675  0.00000
 0.37151  0.35783  0.00000
 0.44176  0.35892  0.00000
 0.51201  0.36001  0.00000
 0.58226  0.36110  0.00000
 0.65251  0.36219  0.00000
 0.72276  0.36328  0.00000
 0.79301  0.36437  0.00000
 0.86325  0.36545  0.00000
 0.93350  0.36654  0.00000
 1.00000  0.36763  0.00000
 1.00000  0.36872  0.00000
 0.00000  0.41986  0.00000
 0.02233  0.42095  0.00000
 0.09258  0.42204  0.00000
 0.16282  0.42312  0.00000
 0.23307  0.42421  0.00000
 0.30332  0.42530  0.00000
 0.37357  0.42639  0.00000
 0.44382  0.42748  0.00000
 0.51407  0.42857  0.00000
 0.58431  0.42965  0.00000
 0.65456  0.43074  0.00000
 0.72481  0.43183  0.00000
 0.79506  0.43292  0.00000
 0.86531  0.43401  0.00000
 0.93556  0.43510  0.00000
 1.00000  0.43618  0.00000
 1.00000  0.43727  0.00000
 0.00000  0.48841  0.00000
 0.02438  0.48950  0.00000
 0.09463  0.49059  0.00000
 0.16488  0.49168  0.00000
 0.23513  0.49277  0.00000
 0.30538  0.49386  0.00000
 0.37562  0.49494  0.00000
 0.44587  0.49603  0.00000
 0.51612  0.49712  0.00000
 0.58637  0.49821  0.00000
 0.65662  0.49930  0.00000
 0.72687  0.50039  0.00000
 0.79711  0.50147  0.00000
 0.86736  0.50256  0.00000
 0.93761  0.50365  0.00000
 1.00000  0.50474  0.00000
 1.00000  0.50583  0.00000
 0.00000  0.55697  0.00000
 0.02644  0.55806  0.00000
 0.09669  0.55915  0.00000
 0.16693  0.56023  0.00000
 0.23718  0.56132  0.00000
 0.30743  0.56241  0.00000
 0.37768  0.56350  0.00000
 0.44793  0.56459  0.00000
 0.51818  0.56568  0.00000
 0.58842  0.56676  0.00000
 0.65867  0.56785  0.00000
 0.72892  0.56894  0.00000
 0.79917  0.57003  0.00000
 0.86942  0.57112  0.00000
 0.93967  0.57221  0.00000
 1.00000  0.57329  0.00000
 1.00000  0.57438  0.00000
 0.00000  0.62552  0.00000
 0.02849  0.62661  0.00000
 0.09874  0.62770  0.00000
 0.16899  0.62879  0.00000
 0.23924  0.62988  0.00000
 0.30948  0.63096  0.00000
 0.37973  0.63205  0.00000
 0.44998  0.63314  0.00000
 0.52023  0.63423  0.00000
 0.59048  0.63532  0.00000
 0.66073  0.63641  0.00000
 0.73097  0.63749  0.00000
 0.80122  0.63858  0.00000
 0.87147  0.63967  0.00000
 0.94172  0.64076  0.00000
 1.00000  0.64185  0.00000
 1.00000  0.64294  0.00000
 0.00000  0.69408  0.00000
 0.03055  0.69517  0.00000
 0.10079  0.69625  0.00000
 0.17104  0.69734  0.00000
 0.24129  0.69843  0.00000
 0.31154  0.69952  0.00000
 0.38179  0.70061  0.00000
 0.45204  0.70170  0.00000
 0.52228  0.70278  0.00000
 0.59253  0.70387  0.00000
 0.66278  0.70496  0.00000
 0.73303  0.70605  0.00000
 0.80328  0.70714  0.00000
 0.87353  0.70823  0.00000
 0.94377  0.70931  0.00000
 1.00000  0.71040  0.00000
 1.00000  0.71149  0.00000
 0.00000  0.76263  0.00000
 0.03260  0.76372  0.00000
 0.10285  0.76481  0.00000
 0.17310  0.76590  0.00000
 0.24335  0.76699  0.00000
 0.31359  0.76807  0.00000
 0.38384  0.76916  0.00000
 0.45409  0.77025  0.00000
 0.52434  0.77134  0.00000
 0.59459  0.77243  0.00000
 0.66484  0.77352  0.00000
 0.73508  0.77460  0.00000
 0.80533  0.77569  0.00000
 0.87558  0.77678  0.00000
 0.94583  0.77787  0.00000
 1.00000  0.77896  0.00000
 1.00000  0.78005  0.00000
 0.00000  0.83119  0.00000
 0.03465  0.83227  0.00000
 0.10490  0.83336  0.00000
 0.17515  0.83445  0.00000
 0.24540  0.83554  0.00000
 0.31565  0.83663  0.00000
 0.38590  0.83772  0.00000
 0.45614  0.83880  0.00000
 0.52639  0.83989  0.00000
 0.59664  0.84098  0.00000
 0.66689  0.84207  0.00000
 0.73714  0.84316  0.00000
 0.80739  0.84425  0.00000
 0.87763  0.84533  0.00000
 0.94788  0.84642  0.00000
 1.00000  0.84751  0.00000
 1.00000  0.84860  0.00000
 0.00000  0.89974  0.00000
 0.03671  0.90083  0.00000
 0.10696  0.90192  0.00000
 0.17721  0.90301  0.00000
 0.24745  0.90409  0.00000
 0.31770  0.90518  0.00000
 0.38795  0.90627  0.00000
 0.45820  0.90736  0.00000
 0.52845  0.90845  0.00000
 0.59870  0.90954  0.00000
 0.66894  0.91062  0.00000
 0.73919  0.91171  0.00000
 0.80944  0.91280  0.00000
 0.87969  0.91389  0.00000
 0.94994  0.91498  0.00000
 1.00000  0.91607  0.00000
 1.00000  0.91715  0.00000
 0.00000  0.96830  0.00000
 0.03876  0.96938  0.00000
 0.10901  0.97047  0.00000
 0.17926  0.97156  0.00000
 0.24951  0.97265  0.00000
 0.31976  0.97374  0.00000
 0.39001  0.97483  0.00000
 0.46025  0.97591  0.00000
 0.53050  0.97700  0.00000
 0.60075  0.97809  0.00000
 0.67100  0.97918  0.00000
 0.74125  0.98027  0.00000
 0.81150  0.98136  0.00000
 0.88174  0.98244  0.00000
 0.95199  0.98353  0.00000
 1.00000  0.98462  0.00000
 1.00000  0.98571  0.00000
 0.00000  1.00000  0.00000
 0.04082  1.00000  0.00000
 0.11107  1.00000  0.00000
 0.18131  1.00000  0.00000
 0.25156  1.00000  0.00000
 0.32181  1.00000  0.00000
 0.39206  1.00000  0.00000
 0.46231  1.00000  0.00000
 0.53256  1.00000  0.00000
 0.60281  1.00000  0.00000
 0.67305  1.00000  0.00000
 0.74330  1.00000  0.00000
 0.81355  1.00000  0.00000
 0.88380  1.00000  0.00000
 0.95405  1.00000  0.00000
 1.00000  1.00000  0.00000
 1.00000  1.00000  0.00000
 0.00000  0.00000  0.00648
 0.00833  0.00000  0.00757
 0.07858  0.00000  0.00866
 0.14883  0.00000  0.00975
 0.21907  0.00000  0.01083
 0.28932  0.00000  0.01192
 0.35957  0.00000  0.01301
 0.42982  0.00000  0.01410
 0.50007  0.00000  0.01519
 0.57032  0.00000  0.01628
 0.64056  0.00000  0.01736
 0.71081  0.00000  0.01845
 0.78106  0.00000  0.01954
 0.85131  0.00000  0.02063
 0.92156  0.00000  0.02172
 0.99181  0.00000  0.02281
 1.00000  0.00000  0.02389
 0.00000  0.00892  0.00854
 0.01038  0.01000  0.00962
 0.08063  0.01109  0.01071
 0.15088  0.01218  0.01180
 0.22113  0.01327  0.01289
 0.29138  0.01436  0.01398
 0.36163  0.01545  0.01507
 0.43187  0.01653  0.01615
 0.50212  0.01762  0.01724
 0.57237  0.01871  0.01833
 0.64262  0.01980  0.01942
 0.71287  0.02089  0.02051
 0.78312  0.02198  0.02160
 0.85336  0.02306  0.02268
 0.92361  0.02415  0.02377
 0.99386  0.02524  0.02486
 1.00000  0.02633  0.02595
 0.00000  0.07747  0.01059
 0.01244  0.07856  0.01168
 0.08269  0.07965  0.01277
 0.15293  0.08073  0.01385
 0.22318  0.08182  0.01494
 0.29343  0.08291  0.01603
 0.36368  0.08400  0.01712
 0.43393  0.08509  0.01821
 0.50418  0.08618  0.01930
 0.57443  0.08727  0.02039
 0.64467  0.08835  0.02147
 0.71492  0.08944  0.02256
 0.78517  0.09053  0.02365
 0.85542  0.09162  0.02474
 0.92567  0.09271  0.02583
 0.99592  0.09380  0.02692
 1.00000  0.09488  0.02800
 0.00000  0.14602  0.01264
 0.01449  0.14711  0.01373
 0.08474  0.14820  0.01482
 0.15499  0.14929  0.01591
 0.22524  0.15038  0.01700
 0.29549  0.15147  0.01809
 0.36573  0.15255  0.01917
 0.43598  0.15364  0.02026
 0.50623  0.15473  0.02135
 0.57648  0.15582  0.02244
 0.64673  0.15691  0.02353
 0.71698  0.15800  0.02462
 0.78722  0.15908  0.02570
 0.85747  0.16017  0.02679
 0.92772  0.16126  0.02788
 0.99797  0.16235  0.02897
 1.00000  0.16344  0.03006
 0.00000  0.21458  0.01470
 0.01655  0.21567  0.01579
 0.08680  0.21676  0.01688
 0.15704  0.21784  0.01796
 0.22729  0.21893  0.01905
 0.29754  0.22002  0.02014
 0.36779  0.22111  0.02123
 0.43804  0.22220  0.02232
 0.50829  0.22329  0.02341
 0.57853  0.22437  0.02449
 0.64878  0.22546  0.02558
 0.71903  0.22655  0.02667
 0.78928  0.22764  0.02776
 0.85953  0.22873  0.02885
 0.92978  0.22982  0.02994
 1.00000  0.23090  0.03102
 1.00000  0.23199  0.03211
 0.00000  0.28313  0.01675
 0.01860  0.28422  0.01784
 0.08885  0.28531  0.01893
 0.15910  0.28640  0.02002
 0.22935  0.28749  0.02111
 0.29960  0.28858  0.02220
 0.36984  0.28966  0.02328
 0.44009  0.29075  0.02437
 0.51034  0.29184  0.02546
 0.58059  0.29293  0.02655
 0.65084  0.29402  0.02764
 0.72109  0.29511  0.02873
 0.79133  0.29619  0.02981
 0.86158  0.29728  0.03090
 0.93183  0.29837  0.03199
 1.00000  0.29946  0.03308
 1.00000  0.30055  0.03417
 0.00000  0.35169  0.01881
 0.02066  0.35278  0.01990
 0.09090  0.35386  0.02098
 0.16115  0.35495  0.02207
 0.23140  0.35604  0.02316
 0.30165  0.35713  0.02425
 0.37190  0.35822  0.02534
 0.44215  0.35931  0.02643
 0.51239  0.36039  0.02751
 0.58264  0.36148  0.02860
 0.65289  0.36257  0.02969
 0.72314  0.36366  0.03078
 0.79339  0.36475  0.03187
 0.86364  0.36584  0.03296
 0.93388  0.36692  0.03404
 1.00000  0.36801  0.03513
 1.00000  0.36910  0.03622
 0.00000  0.42024  0.02086
 0.02271  0.42133  0.02195
 0.09296  0.42242  0.02304
 0.16321  0.42351  0.02413
 0.23346  0.42460  0.02522
 0.30370  0.42568  0.02630
 0.37395  0.42677  0.02739
 0.44420  0.42786  0.02848
 0.51445  0.42895  0.02957
 0.58470  0.43004  0.03066
 0.65495  0.43113  0.03175
 0.72519  0.43221  0.03283
 0.79544  0.43330  0.03392
 0.86569  0.43439  0.03501
 0.93594  0.43548  0.03610
 1.00000  0.43657  0.03719
 1.00000  0.43766  0.03828
 0.00000  0.48880  0.02292
 0.02477  0.48989  0.02401
 0.09501  0.49097  0.02509
 0.16526  0.49206  0.02618
 0.23551  0.49315  0.02727
 0.30576  0.49424  0.02836
 0.37601  0.49533  0.02945
 0.44626  0.49642  0.03054
 0.51650  0.49750  0.03162
 0.58675  0.49859  0.03271
 0.65700  0.49968  0.03380
 0.72725  0.50077  0.03489
 0.79750  0.50186  0.03598
 0.86775  0.50295  0.03707
 0.93799  0.50403  0.03815
 1.00000  0.50512  0.03924
 1.00000  0.50621  0.04033
 0.00000  0.55735  0.02497
 0.02682  0.55844  0.02606
 0.09707  0.55953  0.02715
 0.16732  0.56062  0.02824
 0.23756  0.56170  0.02932
 0.30781  0.56279  0.03041
 0.37806  0.56388  0.03150
 0.44831  0.56497  0.03259
 0.51856  0.56606  0.03368
 0.58881  0.56715  0.03477
 0.65905  0.56823  0.03585
 0.72930  0.56932  0.03694
 0.79955  0.57041  0.03803
 0.86980  0.57150  0.03912
 0.94005  0.57259  0.04021
 1.00000  0.57368  0.04130
 1.00000  0.57477  0.04239
 0.00000  0.62591  0.02703
 0.02887  0.62699  0.02811
 0.09912  0.62808  0.02920
 0.16937  0.62917  0.03029
 0.23962  0.63026  0.03138
 0.30987  0.63135  0.03247
 0.38012  0.63244  0.03356
 0.45036  0.63352  0.03464
 0.52061  0.63461  0.03573
 0.59086  0.63570  0.03682
 0.66111  0.63679  0.03791
 0.73136  0.63788  0.03900
 0.80161  0.63897  0.04009
 0.87185  0.64005  0.04117
 0.94210  0.64114  0.04226
 1.00000  0.64223  0.04335
 1.00000  0.64332  0.04444
 0.00000  0.69446  0.02908
 0.03093  0.69555  0.03017
 0.10118  0.69664  0.03126
 0.17143  0.69773  0.03235
 0.24167  0.69881  0.03343
 0.31192  0.69990  0.03452
 0.38217  0.70099  0.03561
 0.45242  0.70208  0.03670
 0.52267  0.70317  0.03779
 0.59292  0.70426  0.03888
 0.66316  0.70534  0.03996
 0.73341  0.70643  0.04105
 0.80366  0.70752  0.04214
 0.87391  0.70861  0.04323
 0.94416  0.70970  0.04432
 1.00000  0.71079  0.04541
 1.00000  0.71187  0.04649
 0.00000  0.76301  0.03113
 0.03298  0.76410  0.03222
 0.10323  0.76519  0.03331
 0.17348  0.76628  0.03440
 0.24373  0.76737  0.03549
 0.31398  0.76846  0.03658
 0.38423  0.76955  0.03766
 0.45447  0.77063  0.03875
 0.52472  0.77172  0.03984
 0.59497  0.77281  0.04093
 0.66522  0.77390  0.04202
 0.73547  0.77499  0.04311
 0.80572  0.77608  0.04420
 0.87596  0.77716  0.04528
 0.94621  0.77825  0.04637
 1.00000  0.77934  0.04746
 1.00000  0.78043  0.04855
 0.00000  0.83157  0.03319
 0.03504  0.83266  0.03428
 0.10529  0.83375  0.03537
 0.17553  0.83483  0.03645
 0.24578  0.83592  0.03754
 0.31603  0.83701  0.03863
 0.38628  0.83810  0.03972
 0.45653  0.83919  0.04081
 0.52678  0.84028  0.04190
 0.59702  0.84136  0.04298
 0.66727  0.84245  0.04407
 0.73752  0.84354  0.04516
 0.80777  0.84463  0.04625
 0.87802  0.84572  0.04734
 0.94827  0.84681  0.04843
 1.00000  0.84789  0.04951
 1.00000  0.84898  0.05060
 0.00000  0.90012  0.03524
 0.03709  0.90121  0.03633
 0.10734  0.90230  0.03742
 0.17759  0.90339  0.03851
 0.24784  0.90448  0.03960
 0.31809  0.90557  0.04069
 0.38833  0.90665  0.04177
 0.45858  0.90774  0.04286
 0.52883  0.90883  0.04395
 0.59908  0.90992  0.04504
 0.66933  0.91101  0.04613
 0.73958  0.91210  0.04722
 0.80982  0.91318  0.04830
 0.88007  0.91427  0.04939
 0.95032  0.91536  0.05048
 1.00000  0.91645  0.05157
 1.00000  0.91754  0.05266
 0.00000  0.96868  0.03730
 0.03915  0.96977  0.03839
 0.10940  0.97086  0.03948
 0.17964  0.97194  0.04056
 0.24989  0.97303  0.04165
 0.32014  0.97412  0.04274
 0.39039  0.97521  0.04383
 0.46064  0.97630  0.04492
 0.53089  0.97739  0.04601
 0.60113  0.97847  0.04709
 0.67138  0.97956  0.04818
 0.74163  0.98065  0.04927
 0.81188  0.98174  0.05036
 0.88213  0.98283  0.05145
 0.95238  0.98392  0.05254
 1.00000  0.98500  0.05362
 1.00000  0.98609  0.05471
 0.00000  1.00000  0.03935
 0.04120  1.00000  0.04044
 0.11145  1.00000  0.04153
 0.18170  1.00000  0.04262
 0.25195  1.00000  0.04371
 0.32219  1.00000  0.04479
 0.39244  1.00000  0.04588
 0.46269  1.00000  0.04697
 0.53294  1.00000  0.04806
 0.60319  1.00000  0.04915
 0.67344  1.00000  0.05024
 0.74368  1.00000  0.05132
 0.81393  1.00000  0.05241
 0.88418  1.00000  0.05350
 0.95443  1.00000  0.05459
 1.00000  1.00000  0.05568
 1.00000  1.00000  0.05677
 0.00000  0.00000  0.07070
 0.00871  0.00000  0.07179
 0.07896  0.00000  0.07288
 0.14921  0.00000  0.07397
 0.21946  0.00000  0.07506
 0.28971  0.00000  0.07615
 0.35995  0.00000  0.07723
 0.43020  0.00000  0.07832
 0.50045  0.00000  0.07941
 0.57070  0.00000  0.08050
 0.64095  0.00000  0.08159
 0.71120  0.00000  0.08268
 0.78144  0.00000  0.08376
 0.85169  0.00000  0.08485
 0.92194  0.00000  0.08594
 0.99219  0.00000  0.08703
 1.00000  0.00000  0.08812
 0.00000  0.00930  0.07276
 0.01077  0.01039  0.07385
 0.08102  0.01148  0.07494
 0.15126  0.01256  0.07602
 0.22151  0.01365  0.07711
 0.29176  0.01474  0.07820
 0.36201  0.01583  0.07929
 0.43226  0.01692  0.08038
 0.50251  0.01801  0.08147
 0.57275  0.01909  0.08255
 0.64300  0.02018  0.08364
 0.71325  0.02127  0.08473
 0.78350  0.02236  0.08582
 0.85375  0.02345  0.08691
 0.92400  0.02454  0.08800
 0.99424  0.02562  0.08908
 1.00000  0.02671  0.09017
 0.00000  0.07785  0.07481
 0.01282  0.07894  0.07590
 0.08307  0.08003  0.07699
 0.15332  0.08112  0.07808
 0.22357  0.08221  0.07917
 0.29381  0.08329  0.08025
 0.36406  0.08438  0.08134
 0.43431  0.08547  0.08243
 0.50456  0.08656  0.08352
 0.57481  0.08765  0.08461
 0.64506  0.08874  0.08570
 0.71530  0.08982  0.08678
 0.78555  0.09091  0.08787
 0.85580  0.09200  0.08896
 0.92605  0.09309  0.09005
 0.99630  0.09418  0.09114
 1.00000  0.09527  0.09223
 0.00000  0.14641  0.07687
 0.01488  0.14750  0.07796
 0.08512  0.14858  0.07904
 0.15537  0.14967  0.08013
 0.22562  0.15076  0.08122
 0.29587  0.15185  0.08231
 0.36612  0.15294  0.08340
 0.43637  0.15403  0.08449
 0.50661  0.15511  0.08557
 0.57686  0.15620  0.08666
 0.64711  0.15729  0.08775
 0.71736  0.15838  0.08884
 0.78761  0.15947  0.08993
 0.85786  0.16056  0.09102
 0.92810  0.16164  0.09210
 0.99835  0.16273  0.09319
 1.00000  0.16382  0.09428
 0.00000  0.21496  0.07892
 0.01693  0.21605  0.08001
 0.08718  0.21714  0.08110
 0.15743  0.21823  0.08219
 0.22768  0.21932  0.08328
 0.29792  0.22040  0.08436
 0.36817  0.22149  0.08545
 0.43842  0.22258  0.08654
 0.50867  0.22367  0.08763
 0.57892  0.22476  0.08872
 0.64917  0.22585  0.08981
 0.71941  0.22693  0.09089
 0.78966  0.22802  0.09198
 0.85991  0.22911  0.09307
 0.93016  0.23020  0.09416
 1.00000  0.23129  0.09525
 1.00000  0.23238  0.09634
 0.00000  0.28352  0.08098
 0.01898  0.28460  0.08206
 0.08923  0.28569  0.08315
 0.15948  0.28678  0.08424
 0.22973  0.28787  0.08533
 0.29998  0.28896  0.08642
 0.37023  0.29005  0.08751
 0.44047  0.29113  0.08859
 0.51072  0.29222  0.08968
 0.58097  0.29331  0.09077
 0.65122  0.29440  0.09186
 0.72147  0.29549  0.09295
 0.79172  0.29658  0.09404
 0.86197  0.29767  0.09513
 0.93221  0.29875  0.09621
 1.00000  0.29984  0.09730
 1.00000  0.30093  0.09839
 0.00000  0.35207  0.08303
 0.02104  0.35316  0.08412
 0.09129  0.35425  0.08521
 0.16154  0.35534  0.08630
 0.23178  0.35642  0.08738
 0.30203  0.35751  0.08847
 0.37228  0.35860  0.08956
 0.44253  0.35969  0.09065
 0.51278  0.36078  0.09174
 0.58303  0.36187  0.09283
 0.65327  0.36295  0.09391
 0.72352  0.36404  0.09500
 0.79377  0.36513  0.09609
 0.86402  0.36622  0.09718
 0.93427  0.36731  0.09827
 1.00000  0.36840  0.09936
 1.00000  0.36948  0.10044
 0.00000  0.42063  0.08509
 0.02309  0.42171  0.08617
 0.09334  0.42280  0.08726
 0.16359  0.42389  0.08835
 0.23384  0.42498  0.08944
 0.30409  0.42607  0.09053
 0.37434  0.42716  0.09162
 0.44458  0.42824  0.09270
 0.51483  0.42933  0.09379
 0.58508  0.43042  0.09488
 0.65533  0.43151  0.09597
 0.72558  0.43260  0.09706
 0.79583  0.43369  0.09815
 0.86607  0.43477  0.09923
 0.93632  0.43586  0.10032
 1.00000  0.43695  0.10141
 1.00000  0.43804  0.10250
 0.00000  0.48918  0.08714
 0.02515  0.49027  0.08823
 0.09540  0.49136  0.08932
 0.16564  0.49244  0.09040
 0.23589  0.49353  0.09149
 0.30614  0.49462  0.09258
 0.37639  0.49571  0.09367
 0.44664  0.49680  0.09476
 0.51689  0.49789  0.09585
 0.58714  0.49898  0.09694
 0.65738  0.50006  0.09802
 0.72763  0.50115  0.09911
 0.79788  0.50224  0.10020
 0.86813  0.50333  0.10129
 0.93838  0.50442  0.10238
 1.00000  0.50551  0.10347
 1.00000  0.50659  0.10455
 0.00000  0.55773  0.08919
 0.02720  0.55882  0.09028
 0.09745  0.55991  0.09137
 0.16770  0.56100  0.09246
 0.23795  0.56209  0.09355
 0.30820  0.56318  0.09464
 0.37844  0.56426  0.09572
 0.44869  0.56535  0.09681
 0.51894  0.56644  0.09790
 0.58919  0.56753  0.09899
 0.65944  0.56862  0.10008
 0.72969  0.56971  0.10117
 0.79993  0.57079  0.10225
 0.87018  0.57188  0.10334
 0.94043  0.57297  0.10443
 1.00000  0.57406  0.10552
 1.00000  0.57515  0.10661
 0.00000  0.62629  0.09125
 0.02926  0.62738  0.09234
 0.09951  0.62847  0.09343
 0.16975  0.62955  0.09451
 0.24000  0.63064  0.09560
 0.31025  0.63173  0.09669
 0.38050  0.63282  0.09778
 0.45075  0.63391  0.09887
 0.52100  0.63500  0.09996
 0.59124  0.63608  0.10104
 0.66149  0.63717  0.10213
 0.73174  0.63826  0.10322
 0.80199  0.63935  0.10431
 0.87224  0.64044  0.10540
 0.94249  0.64153  0.10649
 1.00000  0.64261  0.10757
 1.00000  0.64370  0.10866
 0.00000  0.69484  0.09330
 0.03131  0.69593  0.09439
 0.10156  0.69702  0.09548
 0.17181  0.69811  0.09657
 0.24206  0.69920  0.09766
 0.31231  0.70029  0.09875
 0.38255  0.70137  0.09983
 0.45280  0.70246  0.10092
 0.52305  0.70355  0.10201
 0.59330  0.70464  0.10310
 0.66355  0.70573  0.10419
 0.73380  0.70682  0.10528
 0.80404  0.70790  0.10636
 0.87429  0.70899  0.10745
 0.94454  0.71008  0.10854
 1.00000  0.71117  0.10963
 1.00000  0.71226  0.11072
 0.00000  0.76340  0.09536
 0.03337  0.76449  0.09645
 0.10361  0.76557  0.09753
 0.17386  0.76666  0.09862
 0.24411  0.76775  0.09971
 0.31436  0.76884  0.10080
 0.38461  0.76993  0.10189
 0.45486  0.77102  0.10298
 0.52510  0.77210  0.10406
 0.59535  0.77319  0.10515
 0.66560  0.77428  0.10624
 0.73585  0.77537  0.10733
 0.80610  0.77646  0.10842
 0.87635  0.77755  0.10951
 0.94659  0.77863  0.11059
 1.00000  0.77972  0.11168
 1.00000  0.78081  0.11277
 0.00000  0.83195  0.09741
 0.03542  0.83304  0.09850
 0.10567  0.83413  0.09959
 0.17592  0.83522  0.10068
 0.24617  0.83631  0.10177
 0.31641  0.83739  0.10285
 0.38666  0.83848  0.10394
 0.45691  0.83957  0.10503
 0.52716  0.84066  0.10612
 0.59741  0.84175  0.10721
 0.66766  0.84284  0.10830
 0.73790  0.84392  0.10938
 0.80815  0.84501  0.11047
 0.87840  0.84610  0.11156
 0.94865  0.84719  0.11265
 1.00000  0.84828  0.11374
 1.00000  0.84937  0.11483
 0.00000  0.90051  0.09947
 0.03748  0.90160  0.10056
 0.10772  0.90268  0.10164
 0.17797  0.90377  0.10273
 0.24822  0.90486  0.10382
 0.31847  0.90595  0.10491
 0.38872  0.90704  0.10600
 0.45897  0.90813  0.10709
 0.52921  0.90921  0.10817
 0.59946  0.91030  0.10926
 0.66971  0.91139  0.11035
 0.73996  0.91248  0.11144
 0.81021  0.91357  0.11253
 0.88046  0.91466  0.11362
 0.95070  0.91574  0.11470
 1.00000  0.91683  0.11579
 1.00000  0.91792  0.11688
 0.00000  0.96906  0.10152
 0.03953  0.97015  0.10261
 0.10978  0.97124  0.10370
 0.18003  0.97233  0.10479
 0.25027  0.97341  0.10587
 0.32052  0.97450  0.10696
 0.39077  0.97559  0.10805
 0.46102  0.97668  0.10914
 0.53127  0.97777  0.11023
 0.60152  0.97886  0.11132
 0.67176  0.97994  0.11240
 0.74201  0.98103  0.11349
 0.81226  0.98212  0.11458
 0.88251  0.98321  0.11567
 0.95276  0.98430  0.11676
 1.00000  0.98539  0.11785
 1.00000  0.98648  0.11894
 0.00000  1.00000  0.10358
 0.04158  1.00000  0.10466
 0.11183  1.00000  0.10575
 0.18208  1.00000  0.10684
 0.25233  1.00000  0.10793
 0.32258  1.00000  0.10902
 0.39283  1.00000  0.11011
 0.46307  1.00000  0.11119
 0.53332  1.00000  0.11228
 0.60357  1.00000  0.11337
 0.67382  1.00000  0.11446
 0.74407  1.00000  0.11555
 0.81432  1.00000  0.11664
 0.88456  1.00000  0.11772
 0.95481  1.00000  0.11881
 1.00000  1.00000  0.11990
 1.00000  1.00000  0.12099
 0.00000  0.00000  0.13493
 0.00910  0.00000  0.13602
 0.07934  0.00000  0.13710
 0.14959  0.00000  0.13819
 0.21984  0.00000  0.13928
 0.29009  0.00000  0.14037
 0.36034  0.00000  0.14146
 0.43059  0.00000  0.14255
 0.50083  0.00000  0.14363
 0.57108  0.00000  0.14472
 0.64133  0.00000  0.14581
 0.71158  0.00000  0.14690
 0.78183  0.00000  0.14799
 0.85208  0.00000  0.14908
 0.92232  0.00000  0.15016
 0.99257  0.00000  0.15125
 1.00000  0.00000  0.15234
