src/assets/luts/cinematic-cool.cube
TITLE "冷调电影"
LUT_3D_SIZE 17
DOMAIN_MIN 0.0 0.0 0.0
DOMAIN_MAX 1.0 1.0 1.0
# LumEdit built-in LUT · 冷色温高对比电影感
 0.00000  0.00000  0.00000
 0.00714  0.00000  0.00000
 0.07199  0.00000  0.00000
 0.13683  0.00000  0.00000
 0.20168  0.00000  0.00000
 0.26652  0.00000  0.00000
 0.33137  0.00000  0.00000
 0.39621  0.00000  0.00000
 0.46106  0.00000  0.00000
 0.52590  0.00000  0.00000
 0.59075  0.00000  0.00000
 0.65559  0.00000  0.00000
 0.72043  0.00000  0.00000
 0.78528  0.00000  0.00000
 0.85012  0.00000  0.00000
 0.91497  0.00000  0.00000
 0.97981  0.00000  0.00000
 0.00000  0.00857  0.00000
 0.00920  0.00958  0.00000
 0.07404  0.01058  0.00000
 0.13889  0.01159  0.00000
 0.20373  0.01259  0.00000
 0.26858  0.01360  0.00000
 0.33342  0.01460  0.00000
 0.39827  0.01561  0.00000
 0.46311  0.01661  0.00000
 0.52796  0.01762  0.00000
 0.59280  0.01862  0.00000
 0.65764  0.01962  0.00000
 0.72249  0.02063  0.00000
 0.78733  0.02163  0.00000
 0.85218  0.02264  0.00000
 0.91702  0.02364  0.00000
 0.98187  0.02465  0.00000
 0.00000  0.07713  0.00000
 0.01125  0.07813  0.00000
 0.07610  0.07914  0.00000
 0.14094  0.08014  0.00000
 0.20579  0.08115  0.00000
 0.27063  0.08215  0.00000
 0.33548  0.08316  0.00000
 0.40032  0.08416  0.00000
 0.46516  0.08516  0.00000
 0.53001  0.08617  0.00000
 0.59485  0.08717  0.00000
 0.65970  0.08818  0.00000
 0.72454  0.08918  0.00000
 0.78939  0.09019  0.00000
 0.85423  0.09119  0.00000
 0.91908  0.09220  0.00000
 0.98392  0.09320  0.00000
 0.00000  0.14568  0.00000
 0.01331  0.14669  0.00000
 0.07815  0.14769  0.00000
 0.14300  0.14870  0.00000
 0.20784  0.14970  0.00000
 0.27269  0.15071  0.00000
 0.33753  0.15171  0.00000
 0.40237  0.15271  0.00000
 0.46722  0.15372  0.00000
 0.53206  0.15472  0.00000
 0.59691  0.15573  0.00000
 0.66175  0.15673  0.00000
 0.72660  0.15774  0.00000
 0.79144  0.15874  0.00000
 0.85629  0.15975  0.00000
 0.92113  0.16075  0.00000
 0.98598  0.16176  0.00000
 0.00000  0.21424  0.00000
 0.01536  0.21524  0.00000
 0.08021  0.21625  0.00000
 0.14505  0.21725  0.00000
 0.20990  0.21826  0.00000
 0.27474  0.21926  0.00000
 0.33958  0.22026  0.00000
 0.40443  0.22127  0.00000
 0.46927  0.22227  0.00000
 0.53412  0.22328  0.00000
 0.59896  0.22428  0.00000
 0.66381  0.22529  0.00000
 0.72865  0.22629  0.00000
 0.79350  0.22730  0.00000
 0.85834  0.22830  0.00000
 0.92319  0.22931  0.00000
 0.98803  0.23031  0.00000
 0.00000  0.28279  0.00000
 0.01742  0.28380  0.00000
 0.08226  0.28480  0.00000
 0.14711  0.28581  0.00000
 0.21195  0.28681  0.00000
 0.27679  0.28781  0.00000
 0.34164  0.28882  0.00000
 0.40648  0.28982  0.00000
 0.47133  0.29083  0.00000
 0.53617  0.29183  0.00000
 0.60102  0.29284  0.00000
 0.66586  0.29384  0.00000
 0.73071  0.29485  0.00000
 0.79555  0.29585  0.00000
 0.86040  0.29686  0.00000
 0.92524  0.29786  0.00000
 0.99009  0.29887  0.00000
 0.00000  0.35135  0.00000
 0.01947  0.35235  0.00000
 0.08432  0.35336  0.00000
 0.14916  0.35436  0.00000
 0.21400  0.35536  0.00000
 0.27885  0.35637  0.00000
 0.34369  0.35737  0.00000
 0.40854  0.35838  0.00000
 0.47338  0.35938  0.00000
 0.53823  0.36039  0.00000
 0.60307  0.36139  0.00000
 0.66792  0.36240  0.00000
 0.73276  0.36340  0.00000
 0.79761  0.36441  0.00000
 0.86245  0.36541  0.00000
 0.92730  0.36642  0.00000
 0.99214  0.36742  0.00000
 0.00000  0.41990  0.00000
 0.02152  0.42090  0.00000
 0.08637  0.42191  0.00000
 0.15121  0.42291  0.00000
 0.21606  0.42392  0.00000
 0.28090  0.42492  0.00000
 0.34575  0.42593  0.00000
 0.41059  0.42693  0.00000
 0.47544  0.42794  0.00000
 0.54028  0.42894  0.00000
 0.60513  0.42995  0.00000
 0.66997  0.43095  0.00000
 0.73482  0.43196  0.00000
 0.79966  0.43296  0.00000
 0.86451  0.43397  0.00000
 0.92935  0.43497  0.00000
 0.99419  0.43597  0.00000
 0.00000  0.48845  0.00000
 0.02358  0.48946  0.00000
 0.08842  0.49046  0.00000
 0.15327  0.49147  0.00000
 0.21811  0.49247  0.00000
 0.28296  0.49348  0.00000
 0.34780  0.49448  0.00000
 0.41265  0.49549  0.00000
 0.47749  0.49649  0.00000
 0.54234  0.49750  0.00000
 0.60718  0.49850  0.00000
 0.67203  0.49951  0.00000
 0.73687  0.50051  0.00000
 0.80172  0.50152  0.00000
 0.86656  0.50252  0.00000
 0.93140  0.50352  0.00000
 0.99625  0.50453  0.00000
 0.00000  0.55701  0.00000
 0.02563  0.55801  0.00000
 0.09048  0.55902  0.00000
 0.15532  0.56002  0.00000
 0.22017  0.56103  0.00000
 0.28501  0.56203  0.00000
 0.34986  0.56304  0.00000
 0.41470  0.56404  0.00000
 0.47955  0.56505  0.00000
 0.54439  0.56605  0.00000
 0.60924  0.56706  0.00000
 0.67408  0.56806  0.00000
 0.73892  0.56906  0.00000
 0.80377  0.57007  0.00000
 0.86861  0.57107  0.00000
 0.93346  0.57208  0.00000
 0.99830  0.57308  0.00000
 0.00000  0.62556  0.00000
 0.02769  0.62657  0.00000
 0.09253  0.62757  0.00000
 0.15738  0.62858  0.00000
 0.22222  0.62958  0.00000
 0.28707  0.63059  0.00000
 0.35191  0.63159  0.00000
 0.41676  0.63260  0.00000
 0.48160  0.63360  0.00000
 0.54645  0.63461  0.00000
 0.61129  0.63561  0.00000
 0.67613  0.63661  0.00000
 0.74098  0.63762  0.00000
 0.80582  0.63862  0.00000
 0.87067  0.63963  0.00000
 0.93551  0.64063  0.00000
 1.00000  0.64164  0.00000
 0.00000  0.69412  0.00000
 0.02974  0.69512  0.00000
 0.09459  0.69613  0.00000
 0.15943  0.69713  0.00000
 0.22428  0.69814  0.00000
 0.28912  0.69914  0.00000
 0.35397  0.70015  0.00000
 0.41881  0.70115  0.00000
 0.48366  0.70216  0.00000
 0.54850  0.70316  0.00000
 0.61334  0.70416  0.00000
 0.67819  0.70517  0.00000
 0.74303  0.70617  0.00000
 0.80788  0.70718  0.00000
 0.87272  0.70818  0.00000
 0.93757  0.70919  0.00000
 1.00000  0.71019  0.00000
 0.00000  0.76267  0.00000
 0.03180  0.76368  0.00000
 0.09664  0.76468  0.00000
 0.16149  0.76569  0.00000
 0.22633  0.76669  0.00000
 0.29118  0.76770  0.00000
 0.35602  0.76870  0.00000
 0.42087  0.76971  0.00000
 0.48571  0.77071  0.00000
 0.55055  0.77171  0.00000
 0.61540  0.77272  0.00000
 0.68024  0.77372  0.00000
 0.74509  0.77473  0.00000
 0.80993  0.77573  0.00000
 0.87478  0.77674  0.00000
 0.93962  0.77774  0.00000
 1.00000  0.77875  0.00000
 0.00000  0.83123  0.00000
 0.03385  0.83223  0.00000
 0.09870  0.83324  0.00000
 0.16354  0.83424  0.00000
 0.22839  0.83525  0.00000
 0.29323  0.83625  0.00000
 0.35808  0.83726  0.00000
 0.42292  0.83826  0.00000
 0.48776  0.83926  0.00000
 0.55261  0.84027  0.00000
 0.61745  0.84127  0.00000
 0.68230  0.84228  0.00000
 0.74714  0.84328  0.00000
 0.81199  0.84429  0.00000
 0.87683  0.84529  0.00000
 0.94168  0.84630  0.00000
 1.00000  0.84730  0.00000
 0.00000  0.89978  0.00000
 0.03591  0.90079  0.00000
 0.10075  0.90179  0.00000
 0.16560  0.90280  0.00000
 0.23044  0.90380  0.00000
 0.29528  0.90480  0.00000
 0.36013  0.90581  0.00000
 0.42497  0.90681  0.00000
 0.48982  0.90782  0.00000
 0.55466  0.90882  0.00000
 0.61951  0.90983  0.00000
 0.68435  0.91083  0.00000
 0.74920  0.91184  0.00000
 0.81404  0.91284  0.00000
 0.87889  0.91385  0.00000
 0.94373  0.91485  0.00000
 1.00000  0.91586  0.00000
 0.00000  0.96834  0.00000
 0.03796  0.96934  0.00000
 0.10281  0.97035  0.00000
 0.16765  0.97135  0.00000
 0.23249  0.97235  0.00000
 0.29734  0.97336  0.00000
 0.36218  0.97436  0.00000
 0.42703  0.97537  0.00000
 0.49187  0.97637  0.00000
 0.55672  0.97738  0.00000
 0.62156  0.97838  0.00000
 0.68641  0.97939  0.00000
 0.75125  0.98039  0.00000
 0.81610  0.98140  0.00000
 0.88094  0.98240  0.00000
 0.94579  0.98341  0.00000
 1.00000  0.98441  0.00000
 0.00000  1.00000  0.00000
 0.04002  1.00000  0.00000
 0.10486  1.00000  0.00000
 0.16970  1.00000  0.00000
 0.23455  1.00000  0.00000
 0.29939  1.00000  0.00000
 0.36424  1.00000  0.00000
 0.42908  1.00000  0.00000
 0.49393  1.00000  0.00000
 0.55877  1.00000  0.00000
 0.62362  1.00000  0.00000
 0.68846  1.00000  0.00000
 0.75331  1.00000  0.00000
 0.81815  1.00000  0.00000
 0.88300  1.00000  0.00000
 0.94784  1.00000  0.00000
 1.00000  1.00000  0.00000
 0.00000  0.00000  0.00741
 0.00756  0.00000  0.00842
 0.07241  0.00000  0.00942
 0.13725  0.00000  0.01043
 0.20210  0.00000  0.01143
 0.26694  0.00000  0.01244
 0.33179  0.00000  0.01344
 0.39663  0.00000  0.01445
 0.46147  0.00000  0.01545
 0.52632  0.00000  0.01645
 0.59116  0.00000  0.01746
 0.65601  0.00000  0.01846
 0.72085  0.00000  0.01947
 0.78570  0.00000  0.02047
 0.85054  0.00000  0.02148
 0.91539  0.00000  0.02248
 0.98023  0.00000  0.02349
 0.00000  0.00899  0.00947
 0.00962  0.01000  0.01047
 0.07446  0.01100  0.01148
 0.13931  0.01201  0.01248
 0.20415  0.01301  0.01349
 0.26900  0.01402  0.01449
 0.33384  0.01502  0.01550
 0.39868  0.01602  0.01650
 0.46353  0.01703  0.01750
 0.52837  0.01803  0.01851
 0.59322  0.01904  0.01951
 0.65806  0.02004  0.02052
 0.72291  0.02105  0.02152
 0.78775  0.02205  0.02253
 0.85260  0.02306  0.02353
 0.91744  0.02406  0.02454
 0.98229  0.02507  0.02554
 0.00000  0.07755  0.01152
 0.01167  0.07855  0.01253
 0.07652  0.07956  0.01353
 0.14136  0.08056  0.01454
 0.20621  0.08157  0.01554
 0.27105  0.08257  0.01654
 0.33589  0.08357  0.01755
 0.40074  0.08458  0.01855
 0.46558  0.08558  0.01956
 0.53043  0.08659  0.02056
 0.59527  0.08759  0.02157
 0.66012  0.08860  0.02257
 0.72496  0.08960  0.02358
 0.78981  0.09061  0.02458
 0.85465  0.09161  0.02559
 0.91950  0.09262  0.02659
 0.98434  0.09362  0.02760
 0.00000  0.14610  0.01358
 0.01373  0.14711  0.01458
 0.07857  0.14811  0.01559
 0.14342  0.14912  0.01659
 0.20826  0.15012  0.01759
 0.27310  0.15112  0.01860
 0.33795  0.15213  0.01960
 0.40279  0.15313  0.02061
 0.46764  0.15414  0.02161
 0.53248  0.15514  0.02262
 0.59733  0.15615  0.02362
 0.66217  0.15715  0.02463
 0.72702  0.15816  0.02563
 0.79186  0.15916  0.02664
 0.85671  0.16017  0.02764
 0.92155  0.16117  0.02865
 0.98640  0.16218  0.02965
 0.00000  0.21466  0.01563
 0.01578  0.21566  0.01664
 0.08063  0.21667  0.01764
 0.14547  0.21767  0.01864
 0.21031  0.21867  0.01965
 0.27516  0.21968  0.02065
 0.34000  0.22068  0.02166
 0.40485  0.22169  0.02266
 0.46969  0.22269  0.02367
 0.53454  0.22370  0.02467
 0.59938  0.22470  0.02568
 0.66423  0.22571  0.02668
 0.72907  0.22671  0.02769
 0.79392  0.22772  0.02869
 0.85876  0.22872  0.02970
 0.92361  0.22973  0.03070
 0.98845  0.23073  0.03170
 0.00000  0.28321  0.01769
 0.01783  0.28421  0.01869
 0.08268  0.28522  0.01969
 0.14752  0.28622  0.02070
 0.21237  0.28723  0.02170
 0.27721  0.28823  0.02271
 0.34206  0.28924  0.02371
 0.40690  0.29024  0.02472
 0.47175  0.29125  0.02572
 0.53659  0.29225  0.02673
 0.60144  0.29326  0.02773
 0.66628  0.29426  0.02874
 0.73113  0.29527  0.02974
 0.79597  0.29627  0.03075
 0.86082  0.29728  0.03175
 0.92566  0.29828  0.03275
 0.99050  0.29928  0.03376
 0.00000  0.35176  0.01974
 0.01989  0.35277  0.02074
 0.08473  0.35377  0.02175
 0.14958  0.35478  0.02275
 0.21442  0.35578  0.02376
 0.27927  0.35679  0.02476
 0.34411  0.35779  0.02577
 0.40896  0.35880  0.02677
 0.47380  0.35980  0.02778
 0.53865  0.36081  0.02878
 0.60349  0.36181  0.02979
 0.66834  0.36282  0.03079
 0.73318  0.36382  0.03180
 0.79803  0.36483  0.03280
 0.86287  0.36583  0.03380
 0.92771  0.36683  0.03481
 0.99256  0.36784  0.03581
 0.00000  0.42032  0.02179
 0.02194  0.42132  0.02280
 0.08679  0.42233  0.02380
 0.15163  0.42333  0.02481
 0.21648  0.42434  0.02581
 0.28132  0.42534  0.02682
 0.34617  0.42635  0.02782
 0.41101  0.42735  0.02883
 0.47586  0.42836  0.02983
 0.54070  0.42936  0.03084
 0.60555  0.43037  0.03184
 0.67039  0.43137  0.03285
 0.73523  0.43237  0.03385
 0.80008  0.43338  0.03485
 0.86492  0.43438  0.03586
 0.92977  0.43539  0.03686
 0.99461  0.43639  0.03787
 0.00000  0.48887  0.02385
 0.02400  0.48988  0.02485
 0.08884  0.49088  0.02586
 0.15369  0.49189  0.02686
 0.21853  0.49289  0.02787
 0.28338  0.49390  0.02887
 0.34822  0.49490  0.02988
 0.41307  0.49591  0.03088
 0.47791  0.49691  0.03189
 0.54276  0.49792  0.03289
 0.60760  0.49892  0.03390
 0.67244  0.49992  0.03490
 0.73729  0.50093  0.03590
 0.80213  0.50193  0.03691
 0.86698  0.50294  0.03791
 0.93182  0.50394  0.03892
 0.99667  0.50495  0.03992
 0.00000  0.55743  0.02590
 0.02605  0.55843  0.02691
 0.09090  0.55944  0.02791
 0.15574  0.56044  0.02892
 0.22059  0.56145  0.02992
 0.28543  0.56245  0.03093
 0.35028  0.56346  0.03193
 0.41512  0.56446  0.03294
 0.47997  0.56547  0.03394
 0.54481  0.56647  0.03494
 0.60965  0.56747  0.03595
 0.67450  0.56848  0.03695
 0.73934  0.56948  0.03796
 0.80419  0.57049  0.03896
 0.86903  0.57149  0.03997
 0.93388  0.57250  0.04097
 0.99872  0.57350  0.04198
 0.00000  0.62598  0.02796
 0.02811  0.62699  0.02896
 0.09295  0.62799  0.02997
 0.15780  0.62900  0.03097
 0.22264  0.63000  0.03198
 0.28749  0.63101  0.03298
 0.35233  0.63201  0.03399
 0.41718  0.63302  0.03499
 0.48202  0.63402  0.03599
 0.54686  0.63502  0.03700
 0.61171  0.63603  0.03800
 0.67655  0.63703  0.03901
 0.74140  0.63804  0.04001
 0.80624  0.63904  0.04102
 0.87109  0.64005  0.04202
 0.93593  0.64105  0.04303
 1.00000  0.64206  0.04403
 0.00000  0.69454  0.03001
 0.03016  0.69554  0.03102
 0.09501  0.69655  0.03202
 0.15985  0.69755  0.03303
 0.22470  0.69856  0.03403
 0.28954  0.69956  0.03504
 0.35439  0.70057  0.03604
 0.41923  0.70157  0.03704
 0.48407  0.70257  0.03805
 0.54892  0.70358  0.03905
 0.61376  0.70458  0.04006
 0.67861  0.70559  0.04106
 0.74345  0.70659  0.04207
 0.80830  0.70760  0.04307
 0.87314  0.70860  0.04408
 0.93799  0.70961  0.04508
 1.00000  0.71061  0.04609
 0.00000  0.76309  0.03207
 0.03222  0.76410  0.03307
 0.09706  0.76510  0.03408
 0.16191  0.76611  0.03508
 0.22675  0.76711  0.03609
 0.29159  0.76811  0.03709
 0.35644  0.76912  0.03809
 0.42128  0.77012  0.03910
 0.48613  0.77113  0.04010
 0.55097  0.77213  0.04111
 0.61582  0.77314  0.04211
 0.68066  0.77414  0.04312
 0.74551  0.77515  0.04412
 0.81035  0.77615  0.04513
 0.87520  0.77716  0.04613
 0.94004  0.77816  0.04714
 1.00000  0.77917  0.04814
 0.00000  0.83165  0.03412
 0.03427  0.83265  0.03513
 0.09912  0.83366  0.03613
 0.16396  0.83466  0.03714
 0.22880  0.83566  0.03814
 0.29365  0.83667  0.03914
 0.35849  0.83767  0.04015
 0.42334  0.83868  0.04115
 0.48818  0.83968  0.04216
 0.55303  0.84069  0.04316
 0.61787  0.84169  0.04417
 0.68272  0.84270  0.04517
 0.74756  0.84370  0.04618
 0.81241  0.84471  0.04718
 0.87725  0.84571  0.04819
 0.94210  0.84672  0.04919
 1.00000  0.84772  0.05020
 0.00000  0.90020  0.03618
 0.03633  0.90121  0.03718
 0.10117  0.90221  0.03819
 0.16601  0.90321  0.03919
 0.23086  0.90422  0.04019
 0.29570  0.90522  0.04120
 0.36055  0.90623  0.04220
 0.42539  0.90723  0.04321
 0.49024  0.90824  0.04421
 0.55508  0.90924  0.04522
 0.61993  0.91025  0.04622
 0.68477  0.91125  0.04723
 0.74962  0.91226  0.04823
 0.81446  0.91326  0.04924
 0.87931  0.91427  0.05024
 0.94415  0.91527  0.05125
 1.00000  0.91627  0.05225
 0.00000  0.96876  0.03823
 0.03838  0.96976  0.03923
 0.10322  0.97076  0.04024
 0.16807  0.97177  0.04124
 0.23291  0.97277  0.04225
 0.29776  0.97378  0.04325
 0.36260  0.97478  0.04426
 0.42745  0.97579  0.04526
 0.49229  0.97679  0.04627
 0.55714  0.97780  0.04727
 0.62198  0.97880  0.04828
 0.68683  0.97981  0.04928
 0.75167  0.98081  0.05029
 0.81652  0.98182  0.05129
 0.88136  0.98282  0.05230
 0.94620  0.98382  0.05330
 1.00000  0.98483  0.05430
 0.00000  1.00000  0.04028
 0.04043  1.00000  0.04129
 0.10528  1.00000  0.04229
 0.17012  1.00000  0.04330
 0.23497  1.00000  0.04430
 0.29981  1.00000  0.04531
 0.36466  1.00000  0.04631
 0.42950  1.00000  0.04732
 0.49435  1.00000  0.04832
 0.55919  1.00000  0.04933
 0.62404  1.00000  0.05033
 0.68888  1.00000  0.05134
 0.75373  1.00000  0.05234
 0.81857  1.00000  0.05335
 0.88341  1.00000  0.05435
 0.94826  1.00000  0.05535
 1.00000  1.00000  0.05636
 0.00000  0.00000  0.07766
 0.00798  0.00000  0.07866
 0.07283  0.00000  0.07967
 0.13767  0.00000  0.08067
 0.20252  0.00000  0.08168
 0.26736  0.00000  0.08268
 0.33220  0.00000  0.08368
 0.39705  0.00000  0.08469
 0.46189  0.00000  0.08569
 0.52674  0.00000  0.08670
 0.59158  0.00000  0.08770
 0.65643  0.00000  0.08871
 0.72127  0.00000  0.08971
 0.78612  0.00000  0.09072
 0.85096  0.00000  0.09172
 0.91581  0.00000  0.09273
 0.98065  0.00000  0.09373
 0.00000  0.00941  0.07971
 0.01004  0.01042  0.08072
 0.07488  0.01142  0.08172
 0.13973  0.01243  0.08273
 0.20457  0.01343  0.08373
 0.26941  0.01443  0.08473
 0.33426  0.01544  0.08574
 0.39910  0.01644  0.08674
 0.46395  0.01745  0.08775
 0.52879  0.01845  0.08875
 0.59364  0.01946  0.08976
 0.65848  0.02046  0.09076
 0.72333  0.02147  0.09177
 0.78817  0.02247  0.09277
 0.85302  0.02348  0.09378
 0.91786  0.02448  0.09478
 0.98271  0.02549  0.09579
 0.00000  0.07797  0.08177
 0.01209  0.07897  0.08277
 0.07693  0.07997  0.08377
 0.14178  0.08098  0.08478
 0.20662  0.08198  0.08578
 0.27147  0.08299  0.08679
 0.33631  0.08399  0.08779
 0.40116  0.08500  0.08880
 0.46600  0.08600  0.08980
 0.53085  0.08701  0.09081
 0.59569  0.08801  0.09181
 0.66054  0.08902  0.09282
 0.72538  0.09002  0.09382
 0.79023  0.09103  0.09483
 0.85507  0.09203  0.09583
 0.91992  0.09304  0.09684
 0.98476  0.09404  0.09784
 0.00000  0.14652  0.08382
 0.01414  0.14752  0.08482
 0.07899  0.14853  0.08583
 0.14383  0.14953  0.08683
 0.20868  0.15054  0.08784
 0.27352  0.15154  0.08884
 0.33837  0.15255  0.08985
 0.40321  0.15355  0.09085
 0.46806  0.15456  0.09186
 0.53290  0.15556  0.09286
 0.59775  0.15657  0.09387
 0.66259  0.15757  0.09487
 0.72744  0.15858  0.09588
 0.79228  0.15958  0.09688
 0.85713  0.16059  0.09789
 0.92197  0.16159  0.09889
 0.98681  0.16259  0.09989
 0.00000  0.21507  0.08587
 0.01620  0.21608  0.08688
 0.08104  0.21708  0.08788
 0.14589  0.21809  0.08889
 0.21073  0.21909  0.08989
 0.27558  0.22010  0.09090
 0.34042  0.22110  0.09190
 0.40527  0.22211  0.09291
 0.47011  0.22311  0.09391
 0.53496  0.22412  0.09492
 0.59980  0.22512  0.09592
 0.66465  0.22613  0.09693
 0.72949  0.22713  0.09793
 0.79434  0.22813  0.09893
 0.85918  0.22914  0.09994
 0.92402  0.23014  0.10094
 0.98887  0.23115  0.10195
 0.00000  0.28363  0.08793
 0.01825  0.28463  0.08893
 0.08310  0.28564  0.08994
 0.14794  0.28664  0.09094
 0.21279  0.28765  0.09195
 0.27763  0.28865  0.09295
 0.34248  0.28966  0.09396
 0.40732  0.29066  0.09496
 0.47217  0.29167  0.09597
 0.53701  0.29267  0.09697
 0.60186  0.29368  0.09798
 0.66670  0.29468  0.09898
 0.73154  0.29568  0.09998
 0.79639  0.29669  0.10099
 0.86123  0.29769  0.10199
 0.92608  0.29870  0.10300
 0.99092  0.29970  0.10400
 0.00000  0.35218  0.08998
 0.02031  0.35319  0.09099
 0.08515  0.35419  0.09199
 0.15000  0.35520  0.09300
 0.21484  0.35620  0.09400
 0.27969  0.35721  0.09501
 0.34453  0.35821  0.09601
 0.40938  0.35922  0.09702
 0.47422  0.36022  0.09802
 0.53907  0.36123  0.09903
 0.60391  0.36223  0.10003
 0.66875  0.36323  0.10103
 0.73360  0.36424  0.10204
 0.79844  0.36524  0.10304
 0.86329  0.36625  0.10405
 0.92813  0.36725  0.10505
 0.99298  0.36826  0.10606
 0.00000  0.42074  0.09204
 0.02236  0.42174  0.09304
 0.08721  0.42275  0.09405
 0.15205  0.42375  0.09505
 0.21690  0.42476  0.09606
 0.28174  0.42576  0.09706
 0.34659  0.42677  0.09807
 0.41143  0.42777  0.09907
 0.47628  0.42878  0.10008
 0.54112  0.42978  0.10108
 0.60596  0.43078  0.10208
 0.67081  0.43179  0.10309
 0.73565  0.43279  0.10409
 0.80050  0.43380  0.10510
 0.86534  0.43480  0.10610
 0.93019  0.43581  0.10711
 0.99503  0.43681  0.10811
 0.00000  0.48929  0.09409
 0.02442  0.49030  0.09510
 0.08926  0.49130  0.09610
 0.15411  0.49231  0.09711
 0.21895  0.49331  0.09811
 0.28380  0.49432  0.09912
 0.34864  0.49532  0.10012
 0.41349  0.49633  0.10113
 0.47833  0.49733  0.10213
 0.54317  0.49833  0.10313
 0.60802  0.49934  0.10414
 0.67286  0.50034  0.10514
 0.73771  0.50135  0.10615
 0.80255  0.50235  0.10715
 0.86740  0.50336  0.10816
 0.93224  0.50436  0.10916
 0.99709  0.50537  0.11017
 0.00000  0.55785  0.09615
 0.02647  0.55885  0.09715
 0.09132  0.55986  0.09816
 0.15616  0.56086  0.09916
 0.22101  0.56187  0.10017
 0.28585  0.56287  0.10117
 0.35070  0.56388  0.10218
 0.41554  0.56488  0.10318
 0.48038  0.56588  0.10418
 0.54523  0.56689  0.10519
 0.61007  0.56789  0.10619
 0.67492  0.56890  0.10720
 0.73976  0.56990  0.10820
 0.80461  0.57091  0.10921
 0.86945  0.57191  0.11021
 0.93430  0.57292  0.11122
 0.99914  0.57392  0.11222
 0.00000  0.62640  0.09820
 0.02853  0.62741  0.09921
 0.09337  0.62841  0.10021
 0.15822  0.62942  0.10122
 0.22306  0.63042  0.10222
 0.28790  0.63142  0.10322
 0.35275  0.63243  0.10423
 0.41759  0.63343  0.10523
 0.48244  0.63444  0.10624
 0.54728  0.63544  0.10724
 0.61213  0.63645  0.10825
 0.67697  0.63745  0.10925
 0.74182  0.63846  0.11026
 0.80666  0.63946  0.11126
 0.87151  0.64047  0.11227
 0.93635  0.64147  0.11327
 1.00000  0.64248  0.11428
 0.00000  0.69496  0.10026
 0.03058  0.69596  0.10126
 0.09543  0.69697  0.10227
 0.16027  0.69797  0.10327
 0.22511  0.69897  0.10427
 0.28996  0.69998  0.10528
 0.35480  0.70098  0.10628
 0.41965  0.70199  0.10729
 0.48449  0.70299  0.10829
 0.54934  0.70400  0.10930
 0.61418  0.70500  0.11030
 0.67903  0.70601  0.11131
 0.74387  0.70701  0.11231
 0.80872  0.70802  0.11332
 0.87356  0.70902  0.11432
 0.93841  0.71003  0.11533
 1.00000  0.71103  0.11633
 0.00000  0.76351  0.10231
 0.03264  0.76452  0.10332
 0.09748  0.76552  0.10432
 0.16232  0.76652  0.10532
 0.22717  0.76753  0.10633
 0.29201  0.76853  0.10733
 0.35686  0.76954  0.10834
 0.42170  0.77054  0.10934
 0.48655  0.77155  0.11035
 0.55139  0.77255  0.11135
 0.61624  0.77356  0.11236
 0.68108  0.77456  0.11336
 0.74593  0.77557  0.11437
 0.81077  0.77657  0.11537
 0.87562  0.77758  0.11638
 0.94046  0.77858  0.11738
 1.00000  0.77958  0.11838
 0.00000  0.83207  0.10437
 0.03469  0.83307  0.10537
 0.09953  0.83407  0.10637
 0.16438  0.83508  0.10738
 0.22922  0.83608  0.10838
 0.29407  0.83709  0.10939
 0.35891  0.83809  0.11039
 0.42376  0.83910  0.11140
 0.48860  0.84010  0.11240
 0.55345  0.84111  0.11341
 0.61829  0.84211  0.11441
 0.68314  0.84312  0.11542
 0.74798  0.84412  0.11642
 0.81283  0.84513  0.11743
 0.87767  0.84613  0.11843
 0.94251  0.84713  0.11943
 1.00000  0.84814  0.12044
 0.00000  0.90062  0.10642
 0.03674  0.90162  0.10742
 0.10159  0.90263  0.10843
 0.16643  0.90363  0.10943
 0.23128  0.90464  0.11044
 0.29612  0.90564  0.11144
 0.36097  0.90665  0.11245
 0.42581  0.90765  0.11345
 0.49066  0.90866  0.11446
 0.55550  0.90966  0.11546
 0.62035  0.91067  0.11647
 0.68519  0.91167  0.11747
 0.75004  0.91268  0.11848
 0.81488  0.91368  0.11948
 0.87972  0.91468  0.12048
 0.94457  0.91569  0.12149
 1.00000  0.91669  0.12249
 0.00000  0.96917  0.10847
 0.03880  0.97018  0.10948
 0.10364  0.97118  0.11048
 0.16849  0.97219  0.11149
 0.23333  0.97319  0.11249
 0.29818  0.97420  0.11350
 0.36302  0.97520  0.11450
 0.42787  0.97621  0.11551
 0.49271  0.97721  0.11651
 0.55756  0.97822  0.11752
 0.62240  0.97922  0.11852
 0.68725  0.98023  0.11953
 0.75209  0.98123  0.12053
 0.81693  0.98223  0.12153
 0.88178  0.98324  0.12254
 0.94662  0.98424  0.12354
 1.00000  0.98525  0.12455
 0.00000  1.00000  0.11053
 0.04085  1.00000  0.11153
 0.10570  1.00000  0.11254
 0.17054  1.00000  0.11354
 0.23539  1.00000  0.11455
 0.30023  1.00000  0.11555
 0.36508  1.00000  0.11656
 0.42992  1.00000  0.11756
 0.49477  1.00000  0.11857
 0.55961  1.00000  0.11957
 0.62446  1.00000  0.12058
 0.68930  1.00000  0.12158
 0.75414  1.00000  0.12258
 0.81899  1.00000  0.12359
 0.88383  1.00000  0.12459
 0.94868  1.00000  0.12560
 1.00000  1.00000  0.12660
 0.00000  0.00000  0.14790
 0.00840  0.00000  0.14891
 0.07324  0.00000  0.14991
 0.13809  0.00000  0.15091
 0.20293  0.00000  0.15192
 0.26778  0.00000  0.15292
 0.33262  0.00000  0.15393
 0.39747  0.00000  0.15493
 0.46231  0.00000  0.15594
 0.52716  0.00000  0.15694
 0.59200  0.00000  0.15795
 0.65685  0.00000  0.15895
 0.72169  0.00000  0.15996
 0.78654  0.00000  0.16096
 0.85138  0.00000  0.16197
 0.91623  0.00000  0.16297
 0.98107  0.00000  0.16397
