src/assets/luts/cinematic-warm.cube
TITLE "暖调电影"
LUT_3D_SIZE 5
DOMAIN_MIN 0.0 0.0 0.0
DOMAIN_MAX 1.0 1.0 1.0
# LumEdit built-in LUT · 暖色温高对比电影感
 0.00000  0.00000  0.00000
 0.21869  0.00000  0.00000
 0.49968  0.00000  0.00000
 0.78068  0.00000  0.00000
 1.00000  0.00000  0.00000
 0.00000  0.21420  0.00000
 0.22691  0.21855  0.00000
 0.50790  0.22290  0.00000
 0.78890  0.22726  0.00000
 1.00000  0.23161  0.00000
 0.00000  0.48841  0.00000
 0.23513  0.49277  0.00000
 0.51612  0.49712  0.00000
 0.79711  0.50147  0.00000
 1.00000  0.50583  0.00000
 0.00000  0.76263  0.00000
 0.24335  0.76699  0.00000
 0.52434  0.77134  0.00000
 0.80533  0.77569  0.00000
 1.00000  0.78005  0.00000
 0.00000  1.00000  0.00000
 0.25156  1.00000  0.00000
 0.53256  1.00000  0.00000
 0.81355  1.00000  0.00000
 1.00000  1.00000  0.00000
 0.00000  0.00000  0.19915
 0.22022  0.00000  0.20350
 0.50122  0.00000  0.20786
 0.78221  0.00000  0.21221
 1.00000  0.00000  0.21656
 0.00000  0.21573  0.20737
 0.22844  0.22008  0.21172
 0.50943  0.22443  0.21607
 0.79043  0.22879  0.22043
 1.00000  0.23314  0.22478
 0.00000  0.48995  0.21559
 0.23666  0.49430  0.21994
 0.51765  0.49865  0.22429
 0.79865  0.50301  0.22865
 1.00000  0.50736  0.23300
 0.00000  0.76416  0.22380
 0.24488  0.76852  0.22816
 0.52587  0.77287  0.23251
 0.80686  0.77722  0.23686
 1.00000  0.78158  0.24122
 0.00000  1.00000  0.23202
 0.25310  1.00000  0.23638
 0.53409  1.00000  0.24073
 0.81508  1.00000  0.24508
 1.00000  1.00000  0.24944
 0.00000  0.00000  0.45604
 0.22176  0.00000  0.46040
 0.50275  0.00000  0.46475
 0.78374  0.00000  0.46910
 1.00000  0.00000  0.47346
 0.00000  0.21726  0.46426
 0.22997  0.22161  0.46861
 0.51097  0.22597  0.47297
 0.79196  0.23032  0.47732
 1.00000  0.23467  0.48167
 0.00000  0.49148  0.47248
 0.23819  0.49583  0.47683
 0.51919  0.50018  0.48118
 0.80018  0.50454  0.48554
 1.00000  0.50889  0.48989
 0.00000  0.76570  0.48070
 0.24641  0.77005  0.48505
 0.52740  0.77440  0.48940
 0.80840  0.77876  0.49376
 1.00000  0.78311  0.49811
 0.00000  1.00000  0.48891
 0.25463  1.00000  0.49327
 0.53562  1.00000  0.49762
 0.81661  1.00000  0.50197
 1.00000  1.00000  0.50633
 0.00000  0.00000  0.71293
 0.22329  0.00000  0.71729
 0.50428  0.00000  0.72164
 0.78527  0.00000  0.72599
 1.00000  0.00000  0.73035
 0.00000  0.21879  0.72115
 0.23151  0.22315  0.72551
 0.51250  0.22750  0.72986
 0.79349  0.23185  0.73421
 1.00000  0.23621  0.73857
 0.00000  0.49301  0.72937
 0.23972  0.49736  0.73372
 0.52072  0.50172  0.73808
 0.80171  0.50607  0.74243
 1.00000  0.51042  0.74678
 0.00000  0.76723  0.73759
 0.24794  0.77158  0.74194
 0.52894  0.77594  0.74630
 0.80993  0.78029  0.75065
 1.00000  0.78464  0.75500
 0.00000  1.00000  0.74581
 0.25616  1.00000  0.75016
 0.53715  1.00000  0.75451
 0.81815  1.00000  0.75887
 1.00000  1.00000  0.76322
 0.00000  0.00000  0.96983
 0.22482  0.00000  0.97418
 0.50581  0.00000  0.97853
 0.78681  0.00000  0.98289
 1.00000  0.00000  0.98724
 0.00000  0.22032  0.97804
 0.23304  0.22468  0.98240
 0.51403  0.22903  0.98675
 0.79502  0.23338  0.99110
 1.00000  0.23774  0.99546
 0.00000  0.49454  0.98626
 0.24126  0.49890  0.99062
 0.52225  0.50325  0.99497
 0.80324  0.50760  0.99932
 1.00000  0.51196  1.00000
 0.00000  0.76876  0.99448
 0.24947  0.77311  0.99883
 0.53047  0.77747  1.00000
 0.81146  0.78182  1.00000
 1.00000  0.78617  1.00000
 0.00000  1.00000  1.00000
 0.25769  1.00000  1.00000
 0.53869  1.00000  1.00000
 0.81968  1.00000  1.00000
 1.00000  1.00000  1.00000
