src/assets/luts/classic-neg.cube
TITLE "经典负片"
LUT_3D_SIZE 5
DOMAIN_MIN 0.0 0.0 0.0
DOMAIN_MAX 1.0 1.0 1.0
# LumEdit built-in LUT · 柔和负片质感，暗青暖亮
 0.03016  0.03000  0.04176
 0.26232  0.03359  0.04449
 0.49448  0.03718  0.04721
 0.72665  0.04076  0.04994
 0.95881  0.04435  0.05267
 0.03833  0.26504  0.04711
 0.27049  0.26863  0.04984
 0.50266  0.27222  0.05257
 0.73482  0.27581  0.05529
 0.96698  0.27940  0.05802
 0.04650  0.50009  0.05247
 0.27866  0.50368  0.05519
 0.51083  0.50726  0.05792
 0.74299  0.51085  0.06065
 0.97515  0.51444  0.06337
 0.05467  0.73513  0.05782
 0.28684  0.73872  0.06055
 0.51900  0.74231  0.06327
 0.75116  0.74590  0.06600
 0.98332  0.74948  0.06873
 0.06284  0.97018  0.06317
 0.29501  0.97376  0.06590
 0.52717  0.97735  0.06863
 0.75933  0.98094  0.07135
 0.99149  0.98453  0.07408
 0.03175  0.03137  0.27080
 0.26391  0.03496  0.27353
 0.49607  0.03854  0.27625
 0.72823  0.04213  0.27898
 0.96040  0.04572  0.28171
 0.03992  0.26641  0.27615
 0.27208  0.27000  0.27888
 0.50424  0.27359  0.28161
 0.73640  0.27718  0.28433
 0.96857  0.28076  0.28706
 0.04809  0.50146  0.28151
 0.28025  0.50504  0.28423
 0.51241  0.50863  0.28696
 0.74458  0.51222  0.28969
 0.97674  0.51581  0.29241
 0.05626  0.73650  0.28686
 0.28842  0.74009  0.28959
 0.52058  0.74368  0.29231
 0.75275  0.74726  0.29504
 0.98491  0.75085  0.29777
 0.06443  0.97154  0.29221
 0.29659  0.97513  0.29494
 0.52876  0.97872  0.29767
 0.76092  0.98231  0.30039
 0.99308  0.98590  0.30312
 0.03333  0.03274  0.49984
 0.26550  0.03632  0.50257
 0.49766  0.03991  0.50529
 0.72982  0.04350  0.50802
 0.96198  0.04709  0.51075
 0.04150  0.26778  0.50519
 0.27367  0.27137  0.50792
 0.50583  0.27496  0.51065
 0.73799  0.27854  0.51337
 0.97015  0.28213  0.51610
 0.04968  0.50282  0.51055
 0.28184  0.50641  0.51327
 0.51400  0.51000  0.51600
 0.74616  0.51359  0.51873
 0.97832  0.51718  0.52145
 0.05785  0.73787  0.51590
 0.29001  0.74146  0.51863
 0.52217  0.74504  0.52135
 0.75433  0.74863  0.52408
 0.98650  0.75222  0.52681
 0.06602  0.97291  0.52125
 0.29818  0.97650  0.52398
 0.53034  0.98009  0.52671
 0.76250  0.98368  0.52943
 0.99467  0.98726  0.53216
 0.03492  0.03410  0.72888
 0.26708  0.03769  0.73161
 0.49924  0.04128  0.73433
 0.73141  0.04487  0.73706
 0.96357  0.04846  0.73979
 0.04309  0.26915  0.73423
 0.27525  0.27274  0.73696
 0.50742  0.27632  0.73969
 0.73958  0.27991  0.74241
 0.97174  0.28350  0.74514
 0.05126  0.50419  0.73959
 0.28342  0.50778  0.74231
 0.51559  0.51137  0.74504
 0.74775  0.51496  0.74777
 0.97991  0.51854  0.75049
 0.05943  0.73924  0.74494
 0.29160  0.74282  0.74767
 0.52376  0.74641  0.75039
 0.75592  0.75000  0.75312
 0.98808  0.75359  0.75585
 0.06760  0.97428  0.75029
 0.29977  0.97787  0.75302
 0.53193  0.98146  0.75575
 0.76409  0.98504  0.75847
 0.99625  0.98863  0.76120
 0.03651  0.03547  0.95792
 0.26867  0.03906  0.96065
 0.50083  0.04265  0.96337
 0.73299  0.04624  0.96610
 0.96516  0.04982  0.96883
 0.04468  0.27052  0.96327
 0.27684  0.27410  0.96600
 0.50900  0.27769  0.96873
 0.74116  0.28128  0.97145
 0.97333  0.28487  0.97418
 0.05285  0.50556  0.96863
 0.28501  0.50915  0.97135
 0.51717  0.51274  0.97408
 0.74934  0.51632  0.97681
 0.98150  0.51991  0.97953
 0.06102  0.74060  0.97398
 0.29318  0.74419  0.97671
 0.52534  0.74778  0.97943
 0.75751  0.75137  0.98216
 0.98967  0.75496  0.98489
 0.06919  0.97565  0.97933
 0.30135  0.97924  0.98206
 0.53352  0.98282  0.98479
 0.76568  0.98641  0.98751
 0.99784  0.99000  0.99024
