src/assets/luts/classic-neg.cube
TITLE "经典负片"
LUT_3D_SIZE 17
DOMAIN_MIN 0.0 0.0 0.0
DOMAIN_MAX 1.0 1.0 1.0
# LumEdit built-in LUT · 柔和负片质感，暗青暖亮
 0.03016  0.03000  0.04176
 0.08820  0.03090  0.04244
 0.14624  0.03179  0.04312
 0.20428  0.03269  0.04381
 0.26232  0.03359  0.04449
 0.32036  0.03449  0.04517
 0.37840  0.03538  0.04585
 0.43644  0.03628  0.04653
 0.49448  0.03718  0.04721
 0.55252  0.03807  0.04790
 0.61057  0.03897  0.04858
 0.66861  0.03987  0.04926
 0.72665  0.04076  0.04994
 0.78469  0.04166  0.05062
 0.84273  0.04256  0.05130
 0.90077  0.04346  0.05199
 0.95881  0.04435  0.05267
 0.03220  0.08876  0.04310
 0.09024  0.08966  0.04378
 0.14828  0.09055  0.04446
 0.20632  0.09145  0.04514
 0.26436  0.09235  0.04583
 0.32241  0.09325  0.04651
 0.38045  0.09414  0.04719
 0.43849  0.09504  0.04787
 0.49653  0.09594  0.04855
 0.55457  0.09683  0.04923
 0.61261  0.09773  0.04992
 0.67065  0.09863  0.05060
 0.72869  0.09952  0.05128
 0.78673  0.10042  0.05196
 0.84477  0.10132  0.05264
 0.90281  0.10222  0.05332
 0.96085  0.10311  0.05401
 0.03425  0.14752  0.04444
 0.09229  0.14842  0.04512
 0.15033  0.14932  0.04580
 0.20837  0.15021  0.04648
 0.26641  0.15111  0.04716
 0.32445  0.15201  0.04785
 0.38249  0.15290  0.04853
 0.44053  0.15380  0.04921
 0.49857  0.15470  0.04989
 0.55661  0.15560  0.05057
 0.61465  0.15649  0.05125
 0.67269  0.15739  0.05194
 0.73073  0.15829  0.05262
 0.78877  0.15918  0.05330
 0.84681  0.16008  0.05398
 0.90485  0.16098  0.05466
 0.96289  0.16187  0.05534
 0.03629  0.20628  0.04578
 0.09433  0.20718  0.04646
 0.15237  0.20808  0.04714
 0.21041  0.20897  0.04782
 0.26845  0.20987  0.04850
 0.32649  0.21077  0.04918
 0.38453  0.21167  0.04987
 0.44257  0.21256  0.05055
 0.50061  0.21346  0.05123
 0.55865  0.21436  0.05191
 0.61669  0.21525  0.05259
 0.67473  0.21615  0.05327
 0.73277  0.21705  0.05396
 0.79082  0.21794  0.05464
 0.84886  0.21884  0.05532
 0.90690  0.21974  0.05600
 0.96494  0.22064  0.05668
 0.03833  0.26504  0.04711
 0.09637  0.26594  0.04780
 0.15441  0.26684  0.04848
 0.21245  0.26774  0.04916
 0.27049  0.26863  0.04984
 0.32853  0.26953  0.05052
 0.38657  0.27043  0.05120
 0.44461  0.27132  0.05189
 0.50266  0.27222  0.05257
 0.56070  0.27312  0.05325
 0.61874  0.27401  0.05393
 0.67678  0.27491  0.05461
 0.73482  0.27581  0.05529
 0.79286  0.27671  0.05598
 0.85090  0.27760  0.05666
 0.90894  0.27850  0.05734
 0.96698  0.27940  0.05802
 0.04037  0.32381  0.04845
 0.09841  0.32470  0.04913
 0.15645  0.32560  0.04982
 0.21450  0.32650  0.05050
 0.27254  0.32739  0.05118
 0.33058  0.32829  0.05186
 0.38862  0.32919  0.05254
 0.44666  0.33008  0.05322
 0.50470  0.33098  0.05391
 0.56274  0.33188  0.05459
 0.62078  0.33277  0.05527
 0.67882  0.33367  0.05595
 0.73686  0.33457  0.05663
 0.79490  0.33547  0.05731
 0.85294  0.33636  0.05800
 0.91098  0.33726  0.05868
 0.96902  0.33816  0.05936
 0.04242  0.38257  0.04979
 0.10046  0.38346  0.05047
 0.15850  0.38436  0.05115
 0.21654  0.38526  0.05184
 0.27458  0.38615  0.05252
 0.33262  0.38705  0.05320
 0.39066  0.38795  0.05388
 0.44870  0.38885  0.05456
 0.50674  0.38974  0.05524
 0.56478  0.39064  0.05593
 0.62282  0.39154  0.05661
 0.68086  0.39243  0.05729
 0.73890  0.39333  0.05797
 0.79694  0.39423  0.05865
 0.85498  0.39512  0.05933
 0.91302  0.39602  0.06002
 0.97106  0.39692  0.06070
 0.04446  0.44133  0.05113
 0.10250  0.44222  0.05181
 0.16054  0.44312  0.05249
 0.21858  0.44402  0.05317
 0.27662  0.44492  0.05386
 0.33466  0.44581  0.05454
 0.39270  0.44671  0.05522
 0.45074  0.44761  0.05590
 0.50878  0.44850  0.05658
 0.56682  0.44940  0.05726
 0.62486  0.45030  0.05795
 0.68291  0.45119  0.05863
 0.74095  0.45209  0.05931
 0.79899  0.45299  0.05999
 0.85703  0.45389  0.06067
 0.91507  0.45478  0.06135
 0.97311  0.45568  0.06204
 0.04650  0.50009  0.05247
 0.10454  0.50099  0.05315
 0.16258  0.50188  0.05383
 0.22062  0.50278  0.05451
 0.27866  0.50368  0.05519
 0.33670  0.50457  0.05588
 0.39475  0.50547  0.05656
 0.45279  0.50637  0.05724
 0.51083  0.50726  0.05792
 0.56887  0.50816  0.05860
 0.62691  0.50906  0.05928
 0.68495  0.50995  0.05997
 0.74299  0.51085  0.06065
 0.80103  0.51175  0.06133
 0.85907  0.51265  0.06201
 0.91711  0.51354  0.06269
 0.97515  0.51444  0.06337
 0.04854  0.55885  0.05381
 0.10659  0.55975  0.05449
 0.16463  0.56064  0.05517
 0.22267  0.56154  0.05585
 0.28071  0.56244  0.05653
 0.33875  0.56333  0.05721
 0.39679  0.56423  0.05790
 0.45483  0.56513  0.05858
 0.51287  0.56603  0.05926
 0.57091  0.56692  0.05994
 0.62895  0.56782  0.06062
 0.68699  0.56872  0.06130
 0.74503  0.56961  0.06199
 0.80307  0.57051  0.06267
 0.86111  0.57141  0.06335
 0.91915  0.57230  0.06403
 0.97719  0.57320  0.06471
 0.05059  0.61761  0.05514
 0.10863  0.61851  0.05583
 0.16667  0.61940  0.05651
 0.22471  0.62030  0.05719
 0.28275  0.62120  0.05787
 0.34079  0.62209  0.05855
 0.39883  0.62299  0.05923
 0.45687  0.62389  0.05992
 0.51491  0.62479  0.06060
 0.57295  0.62568  0.06128
 0.63099  0.62658  0.06196
 0.68903  0.62748  0.06264
 0.74707  0.62837  0.06332
 0.80511  0.62927  0.06401
 0.86315  0.63017  0.06469
 0.92120  0.63106  0.06537
 0.97924  0.63196  0.06605
 0.05263  0.67637  0.05648
 0.11067  0.67727  0.05716
 0.16871  0.67817  0.05785
 0.22675  0.67906  0.05853
 0.28479  0.67996  0.05921
 0.34283  0.68086  0.05989
 0.40087  0.68175  0.06057
 0.45891  0.68265  0.06125
 0.51695  0.68355  0.06194
 0.57500  0.68444  0.06262
 0.63304  0.68534  0.06330
 0.69108  0.68624  0.06398
 0.74912  0.68713  0.06466
 0.80716  0.68803  0.06534
 0.86520  0.68893  0.06603
 0.92324  0.68983  0.06671
 0.98128  0.69072  0.06739
 0.05467  0.73513  0.05782
 0.11271  0.73603  0.05850
 0.17075  0.73693  0.05918
 0.22879  0.73782  0.05987
 0.28684  0.73872  0.06055
 0.34488  0.73962  0.06123
 0.40292  0.74051  0.06191
 0.46096  0.74141  0.06259
 0.51900  0.74231  0.06327
 0.57704  0.74320  0.06396
 0.63508  0.74410  0.06464
 0.69312  0.74500  0.06532
 0.75116  0.74590  0.06600
 0.80920  0.74679  0.06668
 0.86724  0.74769  0.06736
 0.92528  0.74859  0.06805
 0.98332  0.74948  0.06873
 0.05672  0.79389  0.05916
 0.11476  0.79479  0.05984
 0.17280  0.79569  0.06052
 0.23084  0.79658  0.06120
 0.28888  0.79748  0.06189
 0.34692  0.79838  0.06257
 0.40496  0.79927  0.06325
 0.46300  0.80017  0.06393
 0.52104  0.80107  0.06461
 0.57908  0.80197  0.06529
 0.63712  0.80286  0.06598
 0.69516  0.80376  0.06666
 0.75320  0.80466  0.06734
 0.81124  0.80555  0.06802
 0.86928  0.80645  0.06870
 0.92732  0.80735  0.06938
 0.98536  0.80825  0.07007
 0.05876  0.85265  0.06050
 0.11680  0.85355  0.06118
 0.17484  0.85445  0.06186
 0.23288  0.85534  0.06254
 0.29092  0.85624  0.06322
 0.34896  0.85714  0.06391
 0.40700  0.85804  0.06459
 0.46504  0.85893  0.06527
 0.52308  0.85983  0.06595
 0.58112  0.86073  0.06663
 0.63916  0.86162  0.06731
 0.69720  0.86252  0.06800
 0.75524  0.86342  0.06868
 0.81329  0.86432  0.06936
 0.87133  0.86521  0.07004
 0.92937  0.86611  0.07072
 0.98741  0.86701  0.07140
 0.06080  0.91141  0.06184
 0.11884  0.91231  0.06252
 0.17688  0.91321  0.06320
 0.23492  0.91411  0.06388
 0.29296  0.91500  0.06456
 0.35100  0.91590  0.06524
 0.40904  0.91680  0.06593
 0.46709  0.91769  0.06661
 0.52513  0.91859  0.06729
 0.58317  0.91949  0.06797
 0.64121  0.92039  0.06865
 0.69925  0.92128  0.06933
 0.75729  0.92218  0.07002
 0.81533  0.92308  0.07070
 0.87337  0.92397  0.07138
 0.93141  0.92487  0.07206
 0.98945  0.92577  0.07274
 0.06284  0.97018  0.06317
 0.12088  0.97107  0.06386
 0.17893  0.97197  0.06454
 0.23697  0.97287  0.06522
 0.29501  0.97376  0.06590
 0.35305  0.97466  0.06658
 0.41109  0.97556  0.06726
 0.46913  0.97645  0.06795
 0.52717  0.97735  0.06863
 0.58521  0.97825  0.06931
 0.64325  0.97915  0.06999
 0.70129  0.98004  0.07067
 0.75933  0.98094  0.07135
 0.81737  0.98184  0.07204
 0.87541  0.98273  0.07272
 0.93345  0.98363  0.07340
 0.99149  0.98453  0.07408
 0.03056  0.03034  0.09902
 0.08860  0.03124  0.09970
 0.14664  0.03214  0.10038
 0.20468  0.03303  0.10107
 0.26272  0.03393  0.10175
 0.32076  0.03483  0.10243
 0.37880  0.03572  0.10311
 0.43684  0.03662  0.10379
 0.49488  0.03752  0.10447
 0.55292  0.03842  0.10516
 0.61096  0.03931  0.10584
 0.66900  0.04021  0.10652
 0.72704  0.04111  0.10720
 0.78508  0.04200  0.10788
 0.84312  0.04290  0.10856
 0.90116  0.04380  0.10925
 0.95921  0.04469  0.10993
 0.03260  0.08910  0.10036
 0.09064  0.09000  0.10104
 0.14868  0.09090  0.10172
 0.20672  0.09179  0.10240
 0.26476  0.09269  0.10309
 0.32280  0.09359  0.10377
 0.38084  0.09449  0.10445
 0.43888  0.09538  0.10513
 0.49692  0.09628  0.10581
 0.55496  0.09718  0.10649
 0.61300  0.09807  0.10718
 0.67105  0.09897  0.10786
 0.72909  0.09987  0.10854
 0.78713  0.10076  0.10922
 0.84517  0.10166  0.10990
 0.90321  0.10256  0.11058
 0.96125  0.10346  0.11127
 0.03464  0.14786  0.10170
 0.09268  0.14876  0.10238
 0.15072  0.14966  0.10306
 0.20876  0.15055  0.10374
 0.26680  0.15145  0.10442
 0.32484  0.15235  0.10511
 0.38289  0.15325  0.10579
 0.44093  0.15414  0.10647
 0.49897  0.15504  0.10715
 0.55701  0.15594  0.10783
 0.61505  0.15683  0.10851
 0.67309  0.15773  0.10920
 0.73113  0.15863  0.10988
 0.78917  0.15952  0.11056
 0.84721  0.16042  0.11124
 0.90525  0.16132  0.11192
 0.96329  0.16222  0.11260
 0.03669  0.20663  0.10304
 0.09473  0.20752  0.10372
 0.15277  0.20842  0.10440
 0.21081  0.20932  0.10508
 0.26885  0.21021  0.10576
 0.32689  0.21111  0.10644
 0.38493  0.21201  0.10713
 0.44297  0.21290  0.10781
 0.50101  0.21380  0.10849
 0.55905  0.21470  0.10917
 0.61709  0.21560  0.10985
 0.67513  0.21649  0.11053
 0.73317  0.21739  0.11122
 0.79121  0.21829  0.11190
 0.84925  0.21918  0.11258
 0.90729  0.22008  0.11326
 0.96533  0.22098  0.11394
 0.03873  0.26539  0.10437
 0.09677  0.26628  0.10506
 0.15481  0.26718  0.10574
 0.21285  0.26808  0.10642
 0.27089  0.26897  0.10710
 0.32893  0.26987  0.10778
 0.38697  0.27077  0.10846
 0.44501  0.27167  0.10915
 0.50305  0.27256  0.10983
 0.56109  0.27346  0.11051
 0.61913  0.27436  0.11119
 0.67717  0.27525  0.11187
 0.73521  0.27615  0.11255
 0.79325  0.27705  0.11324
 0.85130  0.27794  0.11392
 0.90934  0.27884  0.11460
 0.96738  0.27974  0.11528
 0.04077  0.32415  0.10571
 0.09881  0.32504  0.10639
 0.15685  0.32594  0.10708
 0.21489  0.32684  0.10776
 0.27293  0.32773  0.10844
 0.33097  0.32863  0.10912
 0.38901  0.32953  0.10980
 0.44705  0.33043  0.11048
 0.50509  0.33132  0.11117
 0.56314  0.33222  0.11185
 0.62118  0.33312  0.11253
 0.67922  0.33401  0.11321
 0.73726  0.33491  0.11389
 0.79530  0.33581  0.11457
 0.85334  0.33671  0.11526
 0.91138  0.33760  0.11594
 0.96942  0.33850  0.11662
 0.04281  0.38291  0.10705
 0.10085  0.38381  0.10773
 0.15889  0.38470  0.10841
 0.21693  0.38560  0.10910
 0.27498  0.38650  0.10978
 0.33302  0.38739  0.11046
 0.39106  0.38829  0.11114
 0.44910  0.38919  0.11182
 0.50714  0.39008  0.11250
 0.56518  0.39098  0.11319
 0.62322  0.39188  0.11387
 0.68126  0.39277  0.11455
 0.73930  0.39367  0.11523
 0.79734  0.39457  0.11591
 0.85538  0.39547  0.11659
 0.91342  0.39636  0.11728
 0.97146  0.39726  0.11796
 0.04486  0.44167  0.10839
 0.10290  0.44257  0.10907
 0.16094  0.44346  0.10975
 0.21898  0.44436  0.11043
 0.27702  0.44526  0.11112
 0.33506  0.44615  0.11180
 0.39310  0.44705  0.11248
 0.45114  0.44795  0.11316
 0.50918  0.44884  0.11384
 0.56722  0.44974  0.11452
 0.62526  0.45064  0.11521
 0.68330  0.45154  0.11589
 0.74134  0.45243  0.11657
 0.79938  0.45333  0.11725
 0.85742  0.45423  0.11793
 0.91546  0.45512  0.11861
 0.97350  0.45602  0.11930
 0.04690  0.50043  0.10973
 0.10494  0.50133  0.11041
 0.16298  0.50222  0.11109
 0.22102  0.50312  0.11177
 0.27906  0.50402  0.11245
 0.33710  0.50492  0.11314
 0.39514  0.50581  0.11382
 0.45318  0.50671  0.11450
 0.51122  0.50761  0.11518
 0.56926  0.50850  0.11586
 0.62730  0.50940  0.11654
 0.68534  0.51030  0.11723
 0.74339  0.51119  0.11791
 0.80143  0.51209  0.11859
 0.85947  0.51299  0.11927
 0.91751  0.51389  0.11995
 0.97555  0.51478  0.12063
 0.04894  0.55919  0.11107
 0.10698  0.56009  0.11175
 0.16502  0.56099  0.11243
 0.22306  0.56188  0.11311
 0.28110  0.56278  0.11379
 0.33914  0.56368  0.11447
 0.39718  0.56457  0.11516
 0.45523  0.56547  0.11584
 0.51327  0.56637  0.11652
 0.57131  0.56726  0.11720
 0.62935  0.56816  0.11788
 0.68739  0.56906  0.11856
 0.74543  0.56995  0.11925
 0.80347  0.57085  0.11993
 0.86151  0.57175  0.12061
 0.91955  0.57265  0.12129
 0.97759  0.57354  0.12197
 0.05098  0.61795  0.11240
 0.10902  0.61885  0.11309
 0.16707  0.61975  0.11377
 0.22511  0.62064  0.11445
 0.28315  0.62154  0.11513
 0.34119  0.62244  0.11581
 0.39923  0.62333  0.11649
 0.45727  0.62423  0.11718
 0.51531  0.62513  0.11786
 0.57335  0.62603  0.11854
 0.63139  0.62692  0.11922
 0.68943  0.62782  0.11990
 0.74747  0.62872  0.12058
 0.80551  0.62961  0.12127
 0.86355  0.63051  0.12195
 0.92159  0.63141  0.12263
 0.97963  0.63230  0.12331
 0.05303  0.67671  0.11374
 0.11107  0.67761  0.11442
 0.16911  0.67851  0.11511
 0.22715  0.67940  0.11579
 0.28519  0.68030  0.11647
 0.34323  0.68120  0.11715
 0.40127  0.68210  0.11783
 0.45931  0.68299  0.11851
 0.51735  0.68389  0.11920
 0.57539  0.68479  0.11988
 0.63343  0.68568  0.12056
 0.69147  0.68658  0.12124
 0.74951  0.68748  0.12192
 0.80755  0.68837  0.12260
 0.86559  0.68927  0.12329
 0.92363  0.69017  0.12397
 0.98168  0.69107  0.12465
 0.05507  0.73547  0.11508
 0.11311  0.73637  0.11576
 0.17115  0.73727  0.11644
 0.22919  0.73816  0.11713
 0.28723  0.73906  0.11781
 0.34527  0.73996  0.11849
 0.40331  0.74086  0.11917
 0.46135  0.74175  0.11985
 0.51939  0.74265  0.12053
 0.57743  0.74355  0.12122
 0.63548  0.74444  0.12190
 0.69352  0.74534  0.12258
 0.75156  0.74624  0.12326
 0.80960  0.74713  0.12394
 0.86764  0.74803  0.12462
 0.92568  0.74893  0.12531
 0.98372  0.74983  0.12599
 0.05711  0.79424  0.11642
 0.11515  0.79513  0.11710
 0.17319  0.79603  0.11778
 0.23123  0.79693  0.11846
 0.28927  0.79782  0.11915
 0.34732  0.79872  0.11983
 0.40536  0.79962  0.12051
 0.46340  0.80051  0.12119
 0.52144  0.80141  0.12187
 0.57948  0.80231  0.12255
 0.63752  0.80320  0.12324
 0.69556  0.80410  0.12392
 0.75360  0.80500  0.12460
 0.81164  0.80590  0.12528
 0.86968  0.80679  0.12596
 0.92772  0.80769  0.12664
 0.98576  0.80859  0.12733
 0.05916  0.85300  0.11776
 0.11720  0.85389  0.11844
 0.17524  0.85479  0.11912
 0.23328  0.85569  0.11980
 0.29132  0.85658  0.12048
 0.34936  0.85748  0.12117
 0.40740  0.85838  0.12185
 0.46544  0.85928  0.12253
 0.52348  0.86017  0.12321
 0.58152  0.86107  0.12389
 0.63956  0.86197  0.12457
 0.69760  0.86286  0.12526
 0.75564  0.86376  0.12594
 0.81368  0.86466  0.12662
 0.87172  0.86555  0.12730
 0.92976  0.86645  0.12798
 0.98780  0.86735  0.12866
 0.06120  0.91176  0.11910
 0.11924  0.91265  0.11978
 0.17728  0.91355  0.12046
 0.23532  0.91445  0.12114
 0.29336  0.91534  0.12182
 0.35140  0.91624  0.12250
 0.40944  0.91714  0.12319
 0.46748  0.91804  0.12387
 0.52552  0.91893  0.12455
 0.58356  0.91983  0.12523
 0.64160  0.92073  0.12591
 0.69964  0.92162  0.12659
 0.75768  0.92252  0.12728
 0.81572  0.92342  0.12796
 0.87377  0.92431  0.12864
 0.93181  0.92521  0.12932
 0.98985  0.92611  0.13000
 0.06324  0.97052  0.12043
 0.12128  0.97141  0.12112
 0.17932  0.97231  0.12180
 0.23736  0.97321  0.12248
 0.29540  0.97411  0.12316
 0.35344  0.97500  0.12384
 0.41148  0.97590  0.12452
 0.46952  0.97680  0.12521
 0.52757  0.97769  0.12589
 0.58561  0.97859  0.12657
 0.64365  0.97949  0.12725
 0.70169  0.98039  0.12793
 0.75973  0.98128  0.12861
 0.81777  0.98218  0.12930
 0.87581  0.98308  0.12998
 0.93385  0.98397  0.13066
 0.99189  0.98487  0.13134
 0.03095  0.03068  0.15628
 0.08899  0.03158  0.15696
 0.14703  0.03248  0.15764
 0.20508  0.03338  0.15833
 0.26312  0.03427  0.15901
 0.32116  0.03517  0.15969
 0.37920  0.03607  0.16037
 0.43724  0.03696  0.16105
 0.49528  0.03786  0.16173
 0.55332  0.03876  0.16242
 0.61136  0.03965  0.16310
 0.66940  0.04055  0.16378
 0.72744  0.04145  0.16446
 0.78548  0.04235  0.16514
 0.84352  0.04324  0.16582
 0.90156  0.04414  0.16651
 0.95960  0.04504  0.16719
 0.03300  0.08945  0.15762
 0.09104  0.09034  0.15830
 0.14908  0.09124  0.15898
 0.20712  0.09214  0.15966
 0.26516  0.09303  0.16035
 0.32320  0.09393  0.16103
 0.38124  0.09483  0.16171
 0.43928  0.09572  0.16239
 0.49732  0.09662  0.16307
 0.55536  0.09752  0.16375
 0.61340  0.09842  0.16444
 0.67144  0.09931  0.16512
 0.72948  0.10021  0.16580
 0.78752  0.10111  0.16648
 0.84556  0.10200  0.16716
 0.90360  0.10290  0.16784
 0.96164  0.10380  0.16853
 0.03504  0.14821  0.15896
 0.09308  0.14910  0.15964
 0.15112  0.15000  0.16032
 0.20916  0.15090  0.16100
 0.26720  0.15179  0.16168
 0.32524  0.15269  0.16237
 0.38328  0.15359  0.16305
 0.44132  0.15449  0.16373
 0.49936  0.15538  0.16441
 0.55740  0.15628  0.16509
 0.61544  0.15718  0.16577
 0.67348  0.15807  0.16646
 0.73153  0.15897  0.16714
 0.78957  0.15987  0.16782
 0.84761  0.16076  0.16850
 0.90565  0.16166  0.16918
 0.96369  0.16256  0.16986
 0.03708  0.20697  0.16029
 0.09512  0.20786  0.16098
 0.15316  0.20876  0.16166
 0.21120  0.20966  0.16234
 0.26924  0.21055  0.16302
 0.32728  0.21145  0.16370
 0.38532  0.21235  0.16439
 0.44337  0.21325  0.16507
 0.50141  0.21414  0.16575
 0.55945  0.21504  0.16643
 0.61749  0.21594  0.16711
 0.67553  0.21683  0.16779
 0.73357  0.21773  0.16848
 0.79161  0.21863  0.16916
 0.84965  0.21952  0.16984
 0.90769  0.22042  0.17052
 0.96573  0.22132  0.17120
 0.03912  0.26573  0.16163
 0.09717  0.26663  0.16232
 0.15521  0.26752  0.16300
 0.21325  0.26842  0.16368
 0.27129  0.26932  0.16436
 0.32933  0.27021  0.16504
 0.38737  0.27111  0.16572
 0.44541  0.27201  0.16641
 0.50345  0.27290  0.16709
 0.56149  0.27380  0.16777
 0.61953  0.27470  0.16845
 0.67757  0.27560  0.16913
 0.73561  0.27649  0.16981
 0.79365  0.27739  0.17050
 0.85169  0.27829  0.17118
 0.90973  0.27918  0.17186
 0.96777  0.28008  0.17254
 0.04117  0.32449  0.16297
 0.09921  0.32539  0.16365
 0.15725  0.32628  0.16434
 0.21529  0.32718  0.16502
 0.27333  0.32808  0.16570
 0.33137  0.32897  0.16638
 0.38941  0.32987  0.16706
 0.44745  0.33077  0.16774
 0.50549  0.33166  0.16843
 0.56353  0.33256  0.16911
 0.62157  0.33346  0.16979
 0.67961  0.33436  0.17047
 0.73765  0.33525  0.17115
 0.79569  0.33615  0.17183
 0.85373  0.33705  0.17252
 0.91178  0.33794  0.17320
 0.96982  0.33884  0.17388
 0.04321  0.38325  0.16431
 0.10125  0.38415  0.16499
 0.15929  0.38504  0.16567
 0.21733  0.38594  0.16636
 0.27537  0.38684  0.16704
 0.33341  0.38773  0.16772
 0.39145  0.38863  0.16840
 0.44949  0.38953  0.16908
 0.50753  0.39043  0.16976
 0.56557  0.39132  0.17045
 0.62362  0.39222  0.17113
 0.68166  0.39312  0.17181
 0.73970  0.39401  0.17249
 0.79774  0.39491  0.17317
 0.85578  0.39581  0.17385
 0.91382  0.39671  0.17454
 0.97186  0.39760  0.17522
 0.04525  0.44201  0.16565
 0.10329  0.44291  0.16633
 0.16133  0.44381  0.16701
 0.21937  0.44470  0.16769
 0.27741  0.44560  0.16838
 0.33546  0.44650  0.16906
 0.39350  0.44739  0.16974
 0.45154  0.44829  0.17042
 0.50958  0.44919  0.17110
 0.56762  0.45008  0.17178
 0.62566  0.45098  0.17247
 0.68370  0.45188  0.17315
 0.74174  0.45277  0.17383
 0.79978  0.45367  0.17451
 0.85782  0.45457  0.17519
 0.91586  0.45547  0.17587
 0.97390  0.45636  0.17656
 0.04730  0.50077  0.16699
 0.10534  0.50167  0.16767
 0.16338  0.50257  0.16835
 0.22142  0.50346  0.16903
 0.27946  0.50436  0.16971
 0.33750  0.50526  0.17040
 0.39554  0.50615  0.17108
 0.45358  0.50705  0.17176
 0.51162  0.50795  0.17244
 0.56966  0.50884  0.17312
 0.62770  0.50974  0.17380
 0.68574  0.51064  0.17449
 0.74378  0.51154  0.17517
 0.80182  0.51243  0.17585
 0.85986  0.51333  0.17653
 0.91790  0.51423  0.17721
 0.97594  0.51512  0.17789
 0.04934  0.55953  0.16833
 0.10738  0.56043  0.16901
 0.16542  0.56133  0.16969
 0.22346  0.56222  0.17037
 0.28150  0.56312  0.17105
 0.33954  0.56402  0.17173
 0.39758  0.56492  0.17242
 0.45562  0.56581  0.17310
 0.51366  0.56671  0.17378
 0.57170  0.56761  0.17446
 0.62974  0.56850  0.17514
 0.68778  0.56940  0.17582
 0.74582  0.57030  0.17651
 0.80387  0.57119  0.17719
 0.86191  0.57209  0.17787
 0.91995  0.57299  0.17855
 0.97799  0.57388  0.17923
 0.05138  0.61829  0.16966
 0.10942  0.61919  0.17035
 0.16746  0.62009  0.17103
 0.22550  0.62099  0.17171
 0.28354  0.62188  0.17239
 0.34158  0.62278  0.17307
 0.39962  0.62368  0.17375
 0.45766  0.62457  0.17444
 0.51571  0.62547  0.17512
 0.57375  0.62637  0.17580
 0.63179  0.62726  0.17648
 0.68983  0.62816  0.17716
 0.74787  0.62906  0.17784
 0.80591  0.62996  0.17853
 0.86395  0.63085  0.17921
 0.92199  0.63175  0.17989
 0.98003  0.63265  0.18057
 0.05342  0.67705  0.17100
 0.11146  0.67795  0.17168
 0.16950  0.67885  0.17237
 0.22755  0.67975  0.17305
 0.28559  0.68064  0.17373
 0.34363  0.68154  0.17441
 0.40167  0.68244  0.17509
 0.45971  0.68333  0.17577
 0.51775  0.68423  0.17646
 0.57579  0.68513  0.17714
 0.63383  0.68602  0.17782
 0.69187  0.68692  0.17850
 0.74991  0.68782  0.17918
 0.80795  0.68872  0.17986
 0.86599  0.68961  0.18055
 0.92403  0.69051  0.18123
 0.98207  0.69141  0.18191
 0.05547  0.73582  0.17234
 0.11351  0.73671  0.17302
 0.17155  0.73761  0.17370
 0.22959  0.73851  0.17439
 0.28763  0.73940  0.17507
 0.34567  0.74030  0.17575
 0.40371  0.74120  0.17643
 0.46175  0.74209  0.17711
 0.51979  0.74299  0.17779
 0.57783  0.74389  0.17848
 0.63587  0.74479  0.17916
 0.69391  0.74568  0.17984
 0.75195  0.74658  0.18052
 0.80999  0.74748  0.18120
 0.86803  0.74837  0.18188
 0.92607  0.74927  0.18257
 0.98411  0.75017  0.18325
 0.05751  0.79458  0.17368
 0.11555  0.79547  0.17436
 0.17359  0.79637  0.17504
 0.23163  0.79727  0.17572
 0.28967  0.79817  0.17641
 0.34771  0.79906  0.17709
 0.40575  0.79996  0.17777
 0.46379  0.80086  0.17845
 0.52183  0.80175  0.17913
 0.57987  0.80265  0.17981
 0.63791  0.80355  0.18050
 0.69596  0.80444  0.18118
 0.75400  0.80534  0.18186
 0.81204  0.80624  0.18254
 0.87008  0.80713  0.18322
 0.92812  0.80803  0.18390
 0.98616  0.80893  0.18459
 0.05955  0.85334  0.17502
 0.11759  0.85423  0.17570
 0.17563  0.85513  0.17638
 0.23367  0.85603  0.17706
 0.29171  0.85693  0.17774
 0.34975  0.85782  0.17843
 0.40780  0.85872  0.17911
 0.46584  0.85962  0.17979
 0.52388  0.86051  0.18047
 0.58192  0.86141  0.18115
 0.63996  0.86231  0.18183
 0.69800  0.86321  0.18252
 0.75604  0.86410  0.18320
 0.81408  0.86500  0.18388
 0.87212  0.86590  0.18456
 0.93016  0.86679  0.18524
 0.98820  0.86769  0.18592
 0.06159  0.91210  0.17636
 0.11964  0.91300  0.17704
 0.17768  0.91389  0.17772
 0.23572  0.91479  0.17840
 0.29376  0.91569  0.17908
 0.35180  0.91658  0.17976
 0.40984  0.91748  0.18045
 0.46788  0.91838  0.18113
 0.52592  0.91927  0.18181
 0.58396  0.92017  0.18249
 0.64200  0.92107  0.18317
 0.70004  0.92197  0.18385
 0.75808  0.92286  0.18454
 0.81612  0.92376  0.18522
 0.87416  0.92466  0.18590
 0.93220  0.92555  0.18658
 0.99024  0.92645  0.18726
 0.06364  0.97086  0.17769
 0.12168  0.97176  0.17838
 0.17972  0.97265  0.17906
 0.23776  0.97355  0.17974
 0.29580  0.97445  0.18042
 0.35384  0.97534  0.18110
 0.41188  0.97624  0.18178
 0.46992  0.97714  0.18247
 0.52796  0.97804  0.18315
 0.58600  0.97893  0.18383
 0.64404  0.97983  0.18451
 0.70208  0.98073  0.18519
 0.76012  0.98162  0.18587
 0.81816  0.98252  0.18656
 0.87620  0.98342  0.18724
 0.93425  0.98432  0.18792
 0.99229  0.98521  0.18860
 0.03135  0.03103  0.21354
 0.08939  0.03192  0.21422
 0.14743  0.03282  0.21490
 0.20547  0.03372  0.21558
 0.26351  0.03461  0.21627
 0.32155  0.03551  0.21695
 0.37959  0.03641  0.21763
 0.43763  0.03731  0.21831
 0.49567  0.03820  0.21899
 0.55371  0.03910  0.21968
 0.61176  0.04000  0.22036
 0.66980  0.04089  0.22104
 0.72784  0.04179  0.22172
 0.78588  0.04269  0.22240
 0.84392  0.04358  0.22308
 0.90196  0.04448  0.22377
 0.96000  0.04538  0.22445
