src/assets/luts/classic-neg.cube
TITLE "经典负片"
LUT_3D_SIZE 9
DOMAIN_MIN 0.0 0.0 0.0
DOMAIN_MAX 1.0 1.0 1.0
# LumEdit built-in LUT · 柔和负片质感，暗青暖亮
 0.03016  0.03000  0.04176
 0.14624  0.03179  0.04312
 0.26232  0.03359  0.04449
 0.37840  0.03538  0.04585
 0.49448  0.03718  0.04721
 0.61057  0.03897  0.04858
 0.72665  0.04076  0.04994
 0.84273  0.04256  0.05130
 0.95881  0.04435  0.05267
 0.03425  0.14752  0.04444
 0.15033  0.14932  0.04580
 0.26641  0.15111  0.04716
 0.38249  0.15290  0.04853
 0.49857  0.15470  0.04989
 0.61465  0.15649  0.05125
 0.73073  0.15829  0.05262
 0.84681  0.16008  0.05398
 0.96289  0.16187  0.05534
 0.03833  0.26504  0.04711
 0.15441  0.26684  0.04848
 0.27049  0.26863  0.04984
 0.38657  0.27043  0.05120
 0.50266  0.27222  0.05257
 0.61874  0.27401  0.05393
 0.73482  0.27581  0.05529
 0.85090  0.27760  0.05666
 0.96698  0.27940  0.05802
 0.04242  0.38257  0.04979
 0.15850  0.38436  0.05115
 0.27458  0.38615  0.05252
 0.39066  0.38795  0.05388
 0.50674  0.38974  0.05524
 0.62282  0.39154  0.05661
 0.73890  0.39333  0.05797
 0.85498  0.39512  0.05933
 0.97106  0.39692  0.06070
 0.04650  0.50009  0.05247
 0.16258  0.50188  0.05383
 0.27866  0.50368  0.05519
 0.39475  0.50547  0.05656
 0.51083  0.50726  0.05792
 0.62691  0.50906  0.05928
 0.74299  0.51085  0.06065
 0.85907  0.51265  0.06201
 0.97515  0.51444  0.06337
 0.05059  0.61761  0.05514
 0.16667  0.61940  0.05651
 0.28275  0.62120  0.05787
 0.39883  0.62299  0.05923
 0.51491  0.62479  0.06060
 0.63099  0.62658  0.06196
 0.74707  0.62837  0.06332
 0.86315  0.63017  0.06469
 0.97924  0.63196  0.06605
 0.05467  0.73513  0.05782
 0.17075  0.73693  0.05918
 0.28684  0.73872  0.06055
 0.40292  0.74051  0.06191
 0.51900  0.74231  0.06327
 0.63508  0.74410  0.06464
 0.75116  0.74590  0.06600
 0.86724  0.74769  0.06736
 0.98332  0.74948  0.06873
 0.05876  0.85265  0.06050
 0.17484  0.85445  0.06186
 0.29092  0.85624  0.06322
 0.40700  0.85804  0.06459
 0.52308  0.85983  0.06595
 0.63916  0.86162  0.06731
 0.75524  0.86342  0.06868
 0.87133  0.86521  0.07004
 0.98741  0.86701  0.07140
 0.06284  0.97018  0.06317
 0.17893  0.97197  0.06454
 0.29501  0.97376  0.06590
 0.41109  0.97556  0.06726
 0.52717  0.97735  0.06863
 0.64325  0.97915  0.06999
 0.75933  0.98094  0.07135
 0.87541  0.98273  0.07272
 0.99149  0.98453  0.07408
 0.03095  0.03068  0.15628
 0.14703  0.03248  0.15764
 0.26312  0.03427  0.15901
 0.37920  0.03607  0.16037
 0.49528  0.03786  0.16173
 0.61136  0.03965  0.16310
 0.72744  0.04145  0.16446
 0.84352  0.04324  0.16582
 0.95960  0.04504  0.16719
 0.03504  0.14821  0.15896
 0.15112  0.15000  0.16032
 0.26720  0.15179  0.16168
 0.38328  0.15359  0.16305
 0.49936  0.15538  0.16441
 0.61544  0.15718  0.16577
 0.73153  0.15897  0.16714
 0.84761  0.16076  0.16850
 0.96369  0.16256  0.16986
 0.03912  0.26573  0.16163
 0.15521  0.26752  0.16300
 0.27129  0.26932  0.16436
 0.38737  0.27111  0.16572
 0.50345  0.27290  0.16709
 0.61953  0.27470  0.16845
 0.73561  0.27649  0.16981
 0.85169  0.27829  0.17118
 0.96777  0.28008  0.17254
 0.04321  0.38325  0.16431
 0.15929  0.38504  0.16567
 0.27537  0.38684  0.16704
 0.39145  0.38863  0.16840
 0.50753  0.39043  0.16976
 0.62362  0.39222  0.17113
 0.73970  0.39401  0.17249
 0.85578  0.39581  0.17385
 0.97186  0.39760  0.17522
 0.04730  0.50077  0.16699
 0.16338  0.50257  0.16835
 0.27946  0.50436  0.16971
 0.39554  0.50615  0.17108
 0.51162  0.50795  0.17244
 0.62770  0.50974  0.17380
 0.74378  0.51154  0.17517
 0.85986  0.51333  0.17653
 0.97594  0.51512  0.17789
 0.05138  0.61829  0.16966
 0.16746  0.62009  0.17103
 0.28354  0.62188  0.17239
 0.39962  0.62368  0.17375
 0.51571  0.62547  0.17512
 0.63179  0.62726  0.17648
 0.74787  0.62906  0.17784
 0.86395  0.63085  0.17921
 0.98003  0.63265  0.18057
 0.05547  0.73582  0.17234
 0.17155  0.73761  0.17370
 0.28763  0.73940  0.17507
 0.40371  0.74120  0.17643
 0.51979  0.74299  0.17779
 0.63587  0.74479  0.17916
 0.75195  0.74658  0.18052
 0.86803  0.74837  0.18188
 0.98411  0.75017  0.18325
 0.05955  0.85334  0.17502
 0.17563  0.85513  0.17638
 0.29171  0.85693  0.17774
 0.40780  0.85872  0.17911
 0.52388  0.86051  0.18047
 0.63996  0.86231  0.18183
 0.75604  0.86410  0.18320
 0.87212  0.86590  0.18456
 0.98820  0.86769  0.18592
 0.06364  0.97086  0.17769
 0.17972  0.97265  0.17906
 0.29580  0.97445  0.18042
 0.41188  0.97624  0.18178
 0.52796  0.97804  0.18315
 0.64404  0.97983  0.18451
 0.76012  0.98162  0.18587
 0.87620  0.98342  0.18724
 0.99229  0.98521  0.18860
 0.03175  0.03137  0.27080
 0.14783  0.03316  0.27216
 0.26391  0.03496  0.27353
 0.37999  0.03675  0.27489
 0.49607  0.03854  0.27625
 0.61215  0.04034  0.27762
 0.72823  0.04213  0.27898
 0.84431  0.04393  0.28034
 0.96040  0.04572  0.28171
 0.03583  0.14889  0.27348
 0.15191  0.15068  0.27484
 0.26799  0.15248  0.27620
 0.38408  0.15427  0.27757
 0.50016  0.15607  0.27893
 0.61624  0.15786  0.28029
 0.73232  0.15965  0.28166
 0.84840  0.16145  0.28302
 0.96448  0.16324  0.28438
 0.03992  0.26641  0.27615
 0.15600  0.26821  0.27752
 0.27208  0.27000  0.27888
 0.38816  0.27179  0.28024
 0.50424  0.27359  0.28161
 0.62032  0.27538  0.28297
 0.73640  0.27718  0.28433
 0.85249  0.27897  0.28570
 0.96857  0.28076  0.28706
 0.04400  0.38393  0.27883
 0.16008  0.38573  0.28019
 0.27617  0.38752  0.28156
 0.39225  0.38932  0.28292
 0.50833  0.39111  0.28428
 0.62441  0.39290  0.28565
 0.74049  0.39470  0.28701
 0.85657  0.39649  0.28837
 0.97265  0.39829  0.28974
 0.04809  0.50146  0.28151
 0.16417  0.50325  0.28287
 0.28025  0.50504  0.28423
 0.39633  0.50684  0.28560
 0.51241  0.50863  0.28696
 0.62849  0.51043  0.28832
 0.74458  0.51222  0.28969
 0.86066  0.51401  0.29105
 0.97674  0.51581  0.29241
 0.05217  0.61898  0.28418
 0.16826  0.62077  0.28555
 0.28434  0.62257  0.28691
 0.40042  0.62436  0.28827
 0.51650  0.62615  0.28964
 0.63258  0.62795  0.29100
 0.74866  0.62974  0.29236
 0.86474  0.63154  0.29373
 0.98082  0.63333  0.29509
 0.05626  0.73650  0.28686
 0.17234  0.73829  0.28822
 0.28842  0.74009  0.28959
 0.40450  0.74188  0.29095
 0.52058  0.74368  0.29231
 0.63667  0.74547  0.29368
 0.75275  0.74726  0.29504
 0.86883  0.74906  0.29640
 0.98491  0.75085  0.29777
 0.06035  0.85402  0.28954
 0.17643  0.85582  0.29090
 0.29251  0.85761  0.29226
 0.40859  0.85940  0.29363
 0.52467  0.86120  0.29499
 0.64075  0.86299  0.29635
 0.75683  0.86479  0.29772
 0.87291  0.86658  0.29908
 0.98899  0.86837  0.30044
 0.06443  0.97154  0.29221
 0.18051  0.97334  0.29358
 0.29659  0.97513  0.29494
 0.41267  0.97693  0.29630
 0.52876  0.97872  0.29767
 0.64484  0.98051  0.29903
 0.76092  0.98231  0.30039
 0.87700  0.98410  0.30176
 0.99308  0.98590  0.30312
 0.03254  0.03205  0.38532
 0.14862  0.03385  0.38668
 0.26470  0.03564  0.38805
 0.38078  0.03743  0.38941
 0.49686  0.03923  0.39077
 0.61295  0.04102  0.39214
 0.72903  0.04282  0.39350
 0.84511  0.04461  0.39486
 0.96119  0.04640  0.39623
 0.03663  0.14957  0.38800
 0.15271  0.15137  0.38936
 0.26879  0.15316  0.39072
 0.38487  0.15496  0.39209
 0.50095  0.15675  0.39345
 0.61703  0.15854  0.39481
 0.73311  0.16034  0.39618
 0.84919  0.16213  0.39754
 0.96527  0.16393  0.39890
 0.04071  0.26710  0.39067
 0.15679  0.26889  0.39204
 0.27287  0.27068  0.39340
 0.38895  0.27248  0.39476
 0.50504  0.27427  0.39613
 0.62112  0.27607  0.39749
 0.73720  0.27786  0.39885
 0.85328  0.27965  0.40022
 0.96936  0.28145  0.40158
 0.04480  0.38462  0.39335
 0.16088  0.38641  0.39471
 0.27696  0.38821  0.39608
 0.39304  0.39000  0.39744
 0.50912  0.39179  0.39880
 0.62520  0.39359  0.40017
 0.74128  0.39538  0.40153
 0.85736  0.39718  0.40289
 0.97345  0.39897  0.40426
 0.04888  0.50214  0.39603
 0.16496  0.50393  0.39739
 0.28104  0.50573  0.39875
 0.39713  0.50752  0.40012
 0.51321  0.50932  0.40148
 0.62929  0.51111  0.40284
 0.74537  0.51290  0.40421
 0.86145  0.51470  0.40557
 0.97753  0.51649  0.40693
 0.05297  0.61966  0.39870
 0.16905  0.62146  0.40007
 0.28513  0.62325  0.40143
 0.40121  0.62504  0.40279
 0.51729  0.62684  0.40416
 0.63337  0.62863  0.40552
 0.74945  0.63043  0.40688
 0.86554  0.63222  0.40825
 0.98162  0.63401  0.40961
 0.05705  0.73718  0.40138
 0.17313  0.73898  0.40274
 0.28922  0.74077  0.40411
 0.40530  0.74257  0.40547
 0.52138  0.74436  0.40683
 0.63746  0.74615  0.40820
 0.75354  0.74795  0.40956
 0.86962  0.74974  0.41092
 0.98570  0.75154  0.41229
 0.06114  0.85471  0.40406
 0.17722  0.85650  0.40542
 0.29330  0.85829  0.40678
 0.40938  0.86009  0.40815
 0.52546  0.86188  0.40951
 0.64154  0.86368  0.41087
 0.75763  0.86547  0.41224
 0.87371  0.86726  0.41360
 0.98979  0.86906  0.41496
 0.06522  0.97223  0.40673
 0.18131  0.97402  0.40810
 0.29739  0.97582  0.40946
 0.41347  0.97761  0.41082
 0.52955  0.97940  0.41219
 0.64563  0.98120  0.41355
 0.76171  0.98299  0.41491
 0.87779  0.98479  0.41628
 0.99387  0.98658  0.41764
 0.03333  0.03274  0.49984
 0.14941  0.03453  0.50120
 0.26550  0.03632  0.50257
 0.38158  0.03812  0.50393
 0.49766  0.03991  0.50529
 0.61374  0.04171  0.50666
 0.72982  0.04350  0.50802
 0.84590  0.04529  0.50938
 0.96198  0.04709  0.51075
 0.03742  0.15026  0.50252
 0.15350  0.15205  0.50388
 0.26958  0.15385  0.50524
 0.38566  0.15564  0.50661
 0.50174  0.15743  0.50797
 0.61782  0.15923  0.50933
 0.73391  0.16102  0.51070
 0.84999  0.16282  0.51206
 0.96607  0.16461  0.51342
 0.04150  0.26778  0.50519
 0.15759  0.26957  0.50656
 0.27367  0.27137  0.50792
 0.38975  0.27316  0.50928
 0.50583  0.27496  0.51065
 0.62191  0.27675  0.51201
 0.73799  0.27854  0.51337
 0.85407  0.28034  0.51474
 0.97015  0.28213  0.51610
 0.04559  0.38530  0.50787
 0.16167  0.38710  0.50923
 0.27775  0.38889  0.51060
 0.39383  0.39068  0.51196
 0.50991  0.39248  0.51332
 0.62600  0.39427  0.51469
 0.74208  0.39607  0.51605
 0.85816  0.39786  0.51741
 0.97424  0.39965  0.51878
 0.04968  0.50282  0.51055
 0.16576  0.50462  0.51191
 0.28184  0.50641  0.51327
 0.39792  0.50821  0.51464
 0.51400  0.51000  0.51600
 0.63008  0.51179  0.51736
 0.74616  0.51359  0.51873
 0.86224  0.51538  0.52009
 0.97832  0.51718  0.52145
 0.05376  0.62035  0.51322
 0.16984  0.62214  0.51459
 0.28592  0.62393  0.51595
 0.40200  0.62573  0.51731
 0.51809  0.62752  0.51868
 0.63417  0.62932  0.52004
 0.75025  0.63111  0.52140
 0.86633  0.63290  0.52277
 0.98241  0.63470  0.52413
 0.05785  0.73787  0.51590
 0.17393  0.73966  0.51726
 0.29001  0.74146  0.51863
 0.40609  0.74325  0.51999
 0.52217  0.74504  0.52135
 0.63825  0.74684  0.52272
 0.75433  0.74863  0.52408
 0.87041  0.75043  0.52544
 0.98650  0.75222  0.52681
 0.06193  0.85539  0.51858
 0.17801  0.85718  0.51994
 0.29409  0.85898  0.52130
 0.41018  0.86077  0.52267
 0.52626  0.86257  0.52403
 0.64234  0.86436  0.52539
 0.75842  0.86615  0.52676
 0.87450  0.86795  0.52812
 0.99058  0.86974  0.52948
 0.06602  0.97291  0.52125
 0.18210  0.97471  0.52262
 0.29818  0.97650  0.52398
 0.41426  0.97829  0.52534
 0.53034  0.98009  0.52671
 0.64642  0.98188  0.52807
 0.76250  0.98368  0.52943
 0.87859  0.98547  0.53080
 0.99467  0.98726  0.53216
 0.03413  0.03342  0.61436
 0.15021  0.03521  0.61572
 0.26629  0.03701  0.61709
 0.38237  0.03880  0.61845
 0.49845  0.04060  0.61981
 0.61453  0.04239  0.62118
 0.73061  0.04418  0.62254
 0.84669  0.04598  0.62390
 0.96278  0.04777  0.62527
 0.03821  0.15094  0.61704
 0.15429  0.15274  0.61840
 0.27037  0.15453  0.61976
 0.38646  0.15632  0.62113
 0.50254  0.15812  0.62249
 0.61862  0.15991  0.62385
 0.73470  0.16171  0.62522
 0.85078  0.16350  0.62658
 0.96686  0.16529  0.62794
 0.04230  0.26846  0.61971
 0.15838  0.27026  0.62108
 0.27446  0.27205  0.62244
 0.39054  0.27385  0.62380
 0.50662  0.27564  0.62517
 0.62270  0.27743  0.62653
 0.73878  0.27923  0.62789
 0.85487  0.28102  0.62926
 0.97095  0.28282  0.63062
 0.04638  0.38599  0.62239
 0.16246  0.38778  0.62375
 0.27855  0.38957  0.62512
 0.39463  0.39137  0.62648
 0.51071  0.39316  0.62784
 0.62679  0.39496  0.62921
 0.74287  0.39675  0.63057
 0.85895  0.39854  0.63193
 0.97503  0.40034  0.63330
 0.05047  0.50351  0.62507
 0.16655  0.50530  0.62643
 0.28263  0.50710  0.62779
 0.39871  0.50889  0.62916
 0.51479  0.51068  0.63052
 0.63087  0.51248  0.63188
 0.74696  0.51427  0.63325
 0.86304  0.51607  0.63461
 0.97912  0.51786  0.63597
 0.05455  0.62103  0.62774
 0.17064  0.62282  0.62911
 0.28672  0.62462  0.63047
 0.40280  0.62641  0.63183
 0.51888  0.62821  0.63320
 0.63496  0.63000  0.63456
 0.75104  0.63179  0.63592
 0.86712  0.63359  0.63729
 0.98320  0.63538  0.63865
 0.05864  0.73855  0.63042
 0.17472  0.74035  0.63178
 0.29080  0.74214  0.63315
 0.40688  0.74393  0.63451
 0.52296  0.74573  0.63587
 0.63905  0.74752  0.63724
 0.75513  0.74932  0.63860
 0.87121  0.75111  0.63996
 0.98729  0.75290  0.64133
 0.06273  0.85607  0.63310
 0.17881  0.85787  0.63446
 0.29489  0.85966  0.63582
 0.41097  0.86146  0.63719
 0.52705  0.86325  0.63855
 0.64313  0.86504  0.63991
 0.75921  0.86684  0.64128
 0.87529  0.86863  0.64264
 0.99137  0.87043  0.64400
 0.06681  0.97360  0.63577
 0.18289  0.97539  0.63714
 0.29897  0.97718  0.63850
 0.41505  0.97898  0.63986
 0.53114  0.98077  0.64123
 0.64722  0.98257  0.64259
 0.76330  0.98436  0.64395
 0.87938  0.98615  0.64532
 0.99546  0.98795  0.64668
 0.03492  0.03410  0.72888
 0.15100  0.03590  0.73024
 0.26708  0.03769  0.73161
 0.38316  0.03949  0.73297
 0.49924  0.04128  0.73433
 0.61533  0.04307  0.73570
 0.73141  0.04487  0.73706
 0.84749  0.04666  0.73842
 0.96357  0.04846  0.73979
 0.03901  0.15163  0.73156
 0.15509  0.15342  0.73292
 0.27117  0.15521  0.73428
 0.38725  0.15701  0.73565
 0.50333  0.15880  0.73701
 0.61941  0.16060  0.73837
 0.73549  0.16239  0.73974
 0.85157  0.16418  0.74110
 0.96765  0.16598  0.74246
 0.04309  0.26915  0.73423
 0.15917  0.27094  0.73560
 0.27525  0.27274  0.73696
 0.39133  0.27453  0.73832
 0.50742  0.27632  0.73969
 0.62350  0.27812  0.74105
 0.73958  0.27991  0.74241
 0.85566  0.28171  0.74378
 0.97174  0.28350  0.74514
 0.04718  0.38667  0.73691
 0.16326  0.38846  0.73827
 0.27934  0.39026  0.73964
 0.39542  0.39205  0.74100
 0.51150  0.39385  0.74236
 0.62758  0.39564  0.74373
 0.74366  0.39743  0.74509
 0.85974  0.39923  0.74645
 0.97583  0.40102  0.74782
 0.05126  0.50419  0.73959
 0.16734  0.50599  0.74095
 0.28342  0.50778  0.74231
 0.39951  0.50957  0.74368
 0.51559  0.51137  0.74504
 0.63167  0.51316  0.74640
 0.74775  0.51496  0.74777
 0.86383  0.51675  0.74913
 0.97991  0.51854  0.75049
 0.05535  0.62171  0.74226
 0.17143  0.62351  0.74363
 0.28751  0.62530  0.74499
 0.40359  0.62710  0.74635
 0.51967  0.62889  0.74772
 0.63575  0.63068  0.74908
 0.75183  0.63248  0.75044
 0.86792  0.63427  0.75181
 0.98400  0.63607  0.75317
 0.05943  0.73924  0.74494
 0.17551  0.74103  0.74630
 0.29160  0.74282  0.74767
 0.40768  0.74462  0.74903
 0.52376  0.74641  0.75039
 0.63984  0.74821  0.75176
 0.75592  0.75000  0.75312
 0.87200  0.75179  0.75448
 0.98808  0.75359  0.75585
 0.06352  0.85676  0.74762
 0.17960  0.85855  0.74898
 0.29568  0.86035  0.75034
 0.41176  0.86214  0.75171
 0.52784  0.86393  0.75307
 0.64392  0.86573  0.75443
 0.76001  0.86752  0.75580
 0.87609  0.86932  0.75716
 0.99217  0.87111  0.75852
 0.06760  0.97428  0.75029
 0.18369  0.97607  0.75166
 0.29977  0.97787  0.75302
 0.41585  0.97966  0.75438
 0.53193  0.98146  0.75575
 0.64801  0.98325  0.75711
 0.76409  0.98504  0.75847
 0.88017  0.98684  0.75984
 0.99625  0.98863  0.76120
 0.03571  0.03479  0.84340
 0.15180  0.03658  0.84476
 0.26788  0.03838  0.84613
 0.38396  0.04017  0.84749
 0.50004  0.04196  0.84885
 0.61612  0.04376  0.85022
 0.73220  0.04555  0.85158
 0.84828  0.04735  0.85294
 0.96436  0.04914  0.85431
 0.03980  0.15231  0.84608
 0.15588  0.15410  0.84744
 0.27196  0.15590  0.84880
 0.38804  0.15769  0.85017
 0.50412  0.15949  0.85153
 0.62020  0.16128  0.85289
 0.73629  0.16307  0.85426
 0.85237  0.16487  0.85562
 0.96845  0.16666  0.85698
 0.04389  0.26983  0.84875
 0.15997  0.27163  0.85012
 0.27605  0.27342  0.85148
 0.39213  0.27521  0.85284
 0.50821  0.27701  0.85421
 0.62429  0.27880  0.85557
 0.74037  0.28060  0.85693
 0.85645  0.28239  0.85830
 0.97253  0.28418  0.85966
 0.04797  0.38735  0.85143
 0.16405  0.38915  0.85279
 0.28013  0.39094  0.85416
 0.39621  0.39274  0.85552
 0.51229  0.39453  0.85688
 0.62838  0.39632  0.85825
 0.74446  0.39812  0.85961
 0.86054  0.39991  0.86097
 0.97662  0.40171  0.86234
 0.05206  0.50488  0.85411
 0.16814  0.50667  0.85547
 0.28422  0.50846  0.85683
 0.40030  0.51026  0.85820
 0.51638  0.51205  0.85956
 0.63246  0.51385  0.86092
 0.74854  0.51564  0.86229
 0.86462  0.51743  0.86365
 0.98070  0.51923  0.86501
 0.05614  0.62240  0.85678
 0.17222  0.62419  0.85815
 0.28830  0.62599  0.85951
 0.40438  0.62778  0.86087
 0.52047  0.62957  0.86224
 0.63655  0.63137  0.86360
 0.75263  0.63316  0.86496
 0.86871  0.63496  0.86633
 0.98479  0.63675  0.86769
 0.06023  0.73992  0.85946
 0.17631  0.74171  0.86082
 0.29239  0.74351  0.86219
 0.40847  0.74530  0.86355
 0.52455  0.74710  0.86491
 0.64063  0.74889  0.86628
 0.75671  0.75068  0.86764
 0.87279  0.75248  0.86900
 0.98888  0.75427  0.87037
 0.06431  0.85744  0.86214
 0.18039  0.85924  0.86350
 0.29647  0.86103  0.86486
 0.41256  0.86282  0.86623
 0.52864  0.86462  0.86759
 0.64472  0.86641  0.86895
 0.76080  0.86821  0.87032
 0.87688  0.87000  0.87168
 0.99296  0.87179  0.87304
 0.06840  0.97496  0.86481
 0.18448  0.97676  0.86618
 0.30056  0.97855  0.86754
 0.41664  0.98035  0.86890
 0.53272  0.98214  0.87027
 0.64880  0.98393  0.87163
 0.76488  0.98573  0.87299
 0.88097  0.98752  0.87436
 0.99705  0.98932  0.87572
 0.03651  0.03547  0.95792
 0.15259  0.03727  0.95928
 0.26867  0.03906  0.96065
 0.38475  0.04085  0.96201
 0.50083  0.04265  0.96337
 0.61691  0.04444  0.96474
 0.73299  0.04624  0.96610
 0.84907  0.04803  0.96746
 0.96516  0.04982  0.96883
 0.04059  0.15299  0.96060
 0.15667  0.15479  0.96196
 0.27276  0.15658  0.96332
 0.38884  0.15838  0.96469
 0.50492  0.16017  0.96605
 0.62100  0.16196  0.96741
 0.73708  0.16376  0.96878
 0.85316  0.16555  0.97014
 0.96924  0.16735  0.97150
 0.04468  0.27052  0.96327
 0.16076  0.27231  0.96464
 0.27684  0.27410  0.96600
 0.39292  0.27590  0.96736
 0.50900  0.27769  0.96873
 0.62508  0.27949  0.97009
 0.74116  0.28128  0.97145
 0.85725  0.28307  0.97282
 0.97333  0.28487  0.97418
 0.04876  0.38804  0.96595
 0.16485  0.38983  0.96731
 0.28093  0.39163  0.96868
 0.39701  0.39342  0.97004
 0.51309  0.39521  0.97140
 0.62917  0.39701  0.97277
 0.74525  0.39880  0.97413
 0.86133  0.40060  0.97549
 0.97741  0.40239  0.97686
 0.05285  0.50556  0.96863
 0.16893  0.50735  0.96999
 0.28501  0.50915  0.97135
 0.40109  0.51094  0.97272
 0.51717  0.51274  0.97408
 0.63325  0.51453  0.97544
 0.74934  0.51632  0.97681
 0.86542  0.51812  0.97817
 0.98150  0.51991  0.97953
 0.05694  0.62308  0.97130
 0.17302  0.62488  0.97267
 0.28910  0.62667  0.97403
 0.40518  0.62846  0.97539
 0.52126  0.63026  0.97676
 0.63734  0.63205  0.97812
 0.75342  0.63385  0.97948
 0.86950  0.63564  0.98085
 0.98558  0.63743  0.98221
 0.06102  0.74060  0.97398
 0.17710  0.74240  0.97534
 0.29318  0.74419  0.97671
 0.40926  0.74599  0.97807
 0.52534  0.74778  0.97943
 0.64143  0.74957  0.98080
 0.75751  0.75137  0.98216
 0.87359  0.75316  0.98352
 0.98967  0.75496  0.98489
 0.06511  0.85813  0.97666
 0.18119  0.85992  0.97802
 0.29727  0.86171  0.97938
 0.41335  0.86351  0.98075
 0.52943  0.86530  0.98211
 0.64551  0.86710  0.98347
 0.76159  0.86889  0.98484
 0.87767  0.87068  0.98620
 0.99375  0.87248  0.98756
 0.06919  0.97565  0.97933
 0.18527  0.97744  0.98070
 0.30135  0.97924  0.98206
 0.41743  0.98103  0.98342
 0.53352  0.98282  0.98479
 0.64960  0.98462  0.98615
 0.76568  0.98641  0.98751
 0.88176  0.98821  0.98888
 0.99784  0.99000  0.99024
