src/assets/luts/crisp-fresh.cube
TITLE "清新通透"
LUT_3D_SIZE 17
DOMAIN_MIN 0.0 0.0 0.0
DOMAIN_MAX 1.0 1.0 1.0
# LumEdit built-in LUT · 天蓝草绿，清新明亮
 0.00000  0.00524  0.01074
 0.06447  0.00328  0.00878
 0.13469  0.00132  0.00682
 0.20492  0.00000  0.00486
 0.27514  0.00000  0.00289
 0.34537  0.00000  0.00093
 0.41559  0.00000  0.00000
 0.48582  0.00000  0.00000
 0.55604  0.00000  0.00000
 0.62627  0.00000  0.00000
 0.69650  0.00000  0.00000
 0.76672  0.00000  0.00000
 0.83695  0.00000  0.00000
 0.90717  0.00000  0.00000
 0.97740  0.00000  0.00000
 1.00000  0.00000  0.00000
 1.00000  0.00000  0.00000
 0.00000  0.07358  0.00689
 0.06062  0.07162  0.00493
 0.13084  0.06965  0.00297
 0.20107  0.06769  0.00100
 0.27129  0.06573  0.00000
 0.34152  0.06377  0.00000
 0.41174  0.06180  0.00000
 0.48197  0.05984  0.00000
 0.55219  0.05788  0.00000
 0.62242  0.05592  0.00000
 0.69264  0.05396  0.00000
 0.76287  0.05199  0.00000
 0.83309  0.05003  0.00000
 0.90332  0.04807  0.00000
 0.97354  0.04611  0.00000
 1.00000  0.04414  0.00000
 1.00000  0.04218  0.00000
 0.00000  0.14191  0.00304
 0.05676  0.13995  0.00108
 0.12699  0.13799  0.00000
 0.19721  0.13603  0.00000
 0.26744  0.13406  0.00000
 0.33766  0.13210  0.00000
 0.40789  0.13014  0.00000
 0.47811  0.12818  0.00000
 0.54834  0.12622  0.00000
 0.61857  0.12425  0.00000
 0.68879  0.12229  0.00000
 0.75902  0.12033  0.00000
 0.82924  0.11837  0.00000
 0.89947  0.11640  0.00000
 0.96969  0.11444  0.00000
 1.00000  0.11248  0.00000
 1.00000  0.11052  0.00000
 0.00000  0.21025  0.00000
 0.05291  0.20829  0.00000
 0.12314  0.20632  0.00000
 0.19336  0.20436  0.00000
 0.26359  0.20240  0.00000
 0.33381  0.20044  0.00000
 0.40404  0.19847  0.00000
 0.47426  0.19651  0.00000
 0.54449  0.19455  0.00000
 0.61471  0.19259  0.00000
 0.68494  0.19063  0.00000
 0.75516  0.18866  0.00000
 0.82539  0.18670  0.00000
 0.89561  0.18474  0.00000
 0.96584  0.18278  0.00000
 1.00000  0.18082  0.00000
 1.00000  0.17885  0.00000
 0.00000  0.27858  0.00000
 0.04906  0.27662  0.00000
 0.11928  0.27466  0.00000
 0.18951  0.27270  0.00000
 0.25973  0.27073  0.00000
 0.32996  0.26877  0.00000
 0.40019  0.26681  0.00000
 0.47041  0.26485  0.00000
 0.54064  0.26289  0.00000
 0.61086  0.26092  0.00000
 0.68109  0.25896  0.00000
 0.75131  0.25700  0.00000
 0.82154  0.25504  0.00000
 0.89176  0.25307  0.00000
 0.96199  0.25111  0.00000
 1.00000  0.24915  0.00000
 1.00000  0.24719  0.00000
 0.00000  0.34692  0.00000
 0.04521  0.34496  0.00000
 0.11543  0.34299  0.00000
 0.18566  0.34103  0.00000
 0.25588  0.33907  0.00000
 0.32611  0.33711  0.00000
 0.39633  0.33515  0.00000
 0.46656  0.33318  0.00000
 0.53678  0.33122  0.00000
 0.60701  0.32926  0.00000
 0.67723  0.32730  0.00000
 0.74746  0.32533  0.00000
 0.81768  0.32337  0.00000
 0.88791  0.32141  0.00000
 0.95814  0.31945  0.00000
 1.00000  0.31749  0.00000
 1.00000  0.31552  0.00000
 0.00000  0.41525  0.00000
 0.04135  0.41329  0.00000
 0.11158  0.41133  0.00000
 0.18180  0.40937  0.00000
 0.25203  0.40741  0.00000
 0.32226  0.40544  0.00000
 0.39248  0.40348  0.00000
 0.46271  0.40152  0.00000
 0.53293  0.39956  0.00000
 0.60316  0.39759  0.00000
 0.67338  0.39563  0.00000
 0.74361  0.39367  0.00000
 0.81383  0.39171  0.00000
 0.88406  0.38975  0.00000
 0.95428  0.38778  0.00000
 1.00000  0.38582  0.00000
 1.00000  0.38386  0.00000
 0.00000  0.48359  0.00000
 0.03750  0.48163  0.00000
 0.10773  0.47966  0.00000
 0.17795  0.47770  0.00000
 0.24818  0.47574  0.00000
 0.31840  0.47378  0.00000
 0.38863  0.47182  0.00000
 0.45885  0.46985  0.00000
 0.52908  0.46789  0.00000
 0.59930  0.46593  0.00000
 0.66953  0.46397  0.00000
 0.73976  0.46201  0.00000
 0.80998  0.46004  0.00000
 0.88021  0.45808  0.00000
 0.95043  0.45612  0.00000
 1.00000  0.45416  0.00000
 1.00000  0.45219  0.00000
 0.00000  0.55192  0.00000
 0.03365  0.54996  0.00000
 0.10388  0.54800  0.00000
 0.17410  0.54604  0.00000
 0.24433  0.54408  0.00000
 0.31455  0.54211  0.00000
 0.38478  0.54015  0.00000
 0.45500  0.53819  0.00000
 0.52523  0.53623  0.00000
 0.59545  0.53426  0.00000
 0.66568  0.53230  0.00000
 0.73590  0.53034  0.00000
 0.80613  0.52838  0.00000
 0.87635  0.52642  0.00000
 0.94658  0.52445  0.00000
 1.00000  0.52249  0.00000
 1.00000  0.52053  0.00000
 0.00000  0.62026  0.00000
 0.02980  0.61830  0.00000
 0.10002  0.61634  0.00000
 0.17025  0.61437  0.00000
 0.24047  0.61241  0.00000
 0.31070  0.61045  0.00000
 0.38092  0.60849  0.00000
 0.45115  0.60652  0.00000
 0.52137  0.60456  0.00000
 0.59160  0.60260  0.00000
 0.66183  0.60064  0.00000
 0.73205  0.59868  0.00000
 0.80228  0.59671  0.00000
 0.87250  0.59475  0.00000
 0.94273  0.59279  0.00000
 1.00000  0.59083  0.00000
 1.00000  0.58886  0.00000
 0.00000  0.68860  0.00000
 0.02595  0.68663  0.00000
 0.09617  0.68467  0.00000
 0.16640  0.68271  0.00000
 0.23662  0.68075  0.00000
 0.30685  0.67878  0.00000
 0.37707  0.67682  0.00000
 0.44730  0.67486  0.00000
 0.51752  0.67290  0.00000
 0.58775  0.67094  0.00000
 0.65797  0.66897  0.00000
 0.72820  0.66701  0.00000
 0.79842  0.66505  0.00000
 0.86865  0.66309  0.00000
 0.93887  0.66112  0.00000
 1.00000  0.65916  0.00000
 1.00000  0.65720  0.00000
 0.00000  0.75693  0.00000
 0.02209  0.75497  0.00000
 0.09232  0.75301  0.00000
 0.16254  0.75104  0.00000
 0.23277  0.74908  0.00000
 0.30299  0.74712  0.00000
 0.37322  0.74516  0.00000
 0.44345  0.74320  0.00000
 0.51367  0.74123  0.00000
 0.58390  0.73927  0.00000
 0.65412  0.73731  0.00000
 0.72435  0.73535  0.00000
 0.79457  0.73338  0.00000
 0.86480  0.73142  0.00000
 0.93502  0.72946  0.00000
 1.00000  0.72750  0.00000
 1.00000  0.72554  0.00000
 0.00000  0.82527  0.00000
 0.01824  0.82330  0.00000
 0.08847  0.82134  0.00000
 0.15869  0.81938  0.00000
 0.22892  0.81742  0.00000
 0.29914  0.81545  0.00000
 0.36937  0.81349  0.00000
 0.43959  0.81153  0.00000
 0.50982  0.80957  0.00000
 0.58004  0.80761  0.00000
 0.65027  0.80564  0.00000
 0.72049  0.80368  0.00000
 0.79072  0.80172  0.00000
 0.86094  0.79976  0.00000
 0.93117  0.79780  0.00000
 1.00000  0.79583  0.00000
 1.00000  0.79387  0.00000
 0.00000  0.89360  0.00000
 0.01439  0.89164  0.00000
 0.08461  0.88968  0.00000
 0.15484  0.88771  0.00000
 0.22506  0.88575  0.00000
 0.29529  0.88379  0.00000
 0.36552  0.88183  0.00000
 0.43574  0.87987  0.00000
 0.50597  0.87790  0.00000
 0.57619  0.87594  0.00000
 0.64642  0.87398  0.00000
 0.71664  0.87202  0.00000
 0.78687  0.87005  0.00000
 0.85709  0.86809  0.00000
 0.92732  0.86613  0.00000
 0.99754  0.86417  0.00000
 1.00000  0.86221  0.00000
 0.00000  0.96194  0.00000
 0.01054  0.95997  0.00000
 0.08076  0.95801  0.00000
 0.15099  0.95605  0.00000
 0.22121  0.95409  0.00000
 0.29144  0.95213  0.00000
 0.36166  0.95016  0.00000
 0.43189  0.94820  0.00000
 0.50211  0.94624  0.00000
 0.57234  0.94428  0.00000
 0.64256  0.94231  0.00000
 0.71279  0.94035  0.00000
 0.78302  0.93839  0.00000
 0.85324  0.93643  0.00000
 0.92347  0.93447  0.00000
 0.99369  0.93250  0.00000
 1.00000  0.93054  0.00000
 0.00000  1.00000  0.00000
 0.00668  1.00000  0.00000
 0.07691  1.00000  0.00000
 0.14714  1.00000  0.00000
 0.21736  1.00000  0.00000
 0.28759  1.00000  0.00000
 0.35781  1.00000  0.00000
 0.42804  1.00000  0.00000
 0.49826  1.00000  0.00000
 0.56849  1.00000  0.00000
 0.63871  1.00000  0.00000
 0.70894  1.00000  0.00000
 0.77916  1.00000  0.00000
 0.84939  1.00000  0.00000
 0.91961  1.00000  0.00000
 0.98984  1.00000  0.00000
 1.00000  0.99888  0.00000
 0.00000  1.00000  0.00000
 0.00283  1.00000  0.00000
 0.07306  1.00000  0.00000
 0.14328  1.00000  0.00000
 0.21351  1.00000  0.00000
 0.28373  1.00000  0.00000
 0.35396  1.00000  0.00000
 0.42418  1.00000  0.00000
 0.49441  1.00000  0.00000
 0.56463  1.00000  0.00000
 0.63486  1.00000  0.00000
 0.70509  1.00000  0.00000
 0.77531  1.00000  0.00000
 0.84554  1.00000  0.00000
 0.91576  1.00000  0.00000
 0.98599  1.00000  0.00000
 1.00000  1.00000  0.00000
 0.00000  0.00449  0.08218
 0.06372  0.00253  0.08022
 0.13394  0.00057  0.07826
 0.20417  0.00000  0.07629
 0.27440  0.00000  0.07433
 0.34462  0.00000  0.07237
 0.41485  0.00000  0.07041
 0.48507  0.00000  0.06845
 0.55530  0.00000  0.06648
 0.62552  0.00000  0.06452
 0.69575  0.00000  0.06256
 0.76597  0.00000  0.06060
 0.83620  0.00000  0.05864
 0.90642  0.00000  0.05667
 0.97665  0.00000  0.05471
 1.00000  0.00000  0.05275
 1.00000  0.00000  0.05079
 0.00000  0.07283  0.07833
 0.05987  0.07087  0.07637
 0.13009  0.06890  0.07440
 0.20032  0.06694  0.07244
 0.27054  0.06498  0.07048
 0.34077  0.06302  0.06852
 0.41099  0.06106  0.06656
 0.48122  0.05909  0.06459
 0.55144  0.05713  0.06263
 0.62167  0.05517  0.06067
 0.69189  0.05321  0.05871
 0.76212  0.05125  0.05675
 0.83235  0.04928  0.05478
 0.90257  0.04732  0.05282
 0.97280  0.04536  0.05086
 1.00000  0.04340  0.04890
 1.00000  0.04143  0.04693
 0.00000  0.14116  0.07448
 0.05601  0.13920  0.07251
 0.12624  0.13724  0.07055
 0.19647  0.13528  0.06859
 0.26669  0.13332  0.06663
 0.33692  0.13135  0.06467
 0.40714  0.12939  0.06270
 0.47737  0.12743  0.06074
 0.54759  0.12547  0.05878
 0.61782  0.12350  0.05682
 0.68804  0.12154  0.05486
 0.75827  0.11958  0.05289
 0.82849  0.11762  0.05093
 0.89872  0.11566  0.04897
 0.96894  0.11369  0.04701
 1.00000  0.11173  0.04504
 1.00000  0.10977  0.04308
 0.00000  0.20950  0.07062
 0.05216  0.20754  0.06866
 0.12239  0.20558  0.06670
 0.19261  0.20361  0.06474
 0.26284  0.20165  0.06278
 0.33306  0.19969  0.06081
 0.40329  0.19773  0.05885
 0.47351  0.19576  0.05689
 0.54374  0.19380  0.05493
 0.61397  0.19184  0.05297
 0.68419  0.18988  0.05100
 0.75442  0.18792  0.04904
 0.82464  0.18595  0.04708
 0.89487  0.18399  0.04512
 0.96509  0.18203  0.04315
 1.00000  0.18007  0.04119
 1.00000  0.17810  0.03923
 0.00000  0.27784  0.06677
 0.04831  0.27587  0.06481
 0.11854  0.27391  0.06285
 0.18876  0.27195  0.06089
 0.25899  0.26999  0.05892
 0.32921  0.26802  0.05696
 0.39944  0.26606  0.05500
 0.46966  0.26410  0.05304
 0.53989  0.26214  0.05108
 0.61011  0.26018  0.04911
 0.68034  0.25821  0.04715
 0.75056  0.25625  0.04519
 0.82079  0.25429  0.04323
 0.89101  0.25233  0.04126
 0.96124  0.25036  0.03930
 1.00000  0.24840  0.03734
 1.00000  0.24644  0.03538
 0.00000  0.34617  0.06292
 0.04446  0.34421  0.06096
 0.11468  0.34225  0.05900
 0.18491  0.34028  0.05703
 0.25513  0.33832  0.05507
 0.32536  0.33636  0.05311
 0.39558  0.33440  0.05115
 0.46581  0.33244  0.04919
 0.53604  0.33047  0.04722
 0.60626  0.32851  0.04526
 0.67649  0.32655  0.04330
 0.74671  0.32459  0.04134
 0.81694  0.32262  0.03937
 0.88716  0.32066  0.03741
 0.95739  0.31870  0.03545
 1.00000  0.31674  0.03349
 1.00000  0.31478  0.03153
 0.00000  0.41451  0.05907
 0.04061  0.41254  0.05711
 0.11083  0.41058  0.05514
 0.18106  0.40862  0.05318
 0.25128  0.40666  0.05122
 0.32151  0.40469  0.04926
 0.39173  0.40273  0.04730
 0.46196  0.40077  0.04533
 0.53218  0.39881  0.04337
 0.60241  0.39685  0.04141
 0.67263  0.39488  0.03945
 0.74286  0.39292  0.03748
 0.81308  0.39096  0.03552
 0.88331  0.38900  0.03356
 0.95354  0.38704  0.03160
 1.00000  0.38507  0.02964
 1.00000  0.38311  0.02767
 0.00000  0.48284  0.05522
 0.03675  0.48088  0.05325
 0.10698  0.47892  0.05129
 0.17720  0.47695  0.04933
 0.24743  0.47499  0.04737
 0.31766  0.47303  0.04541
 0.38788  0.47107  0.04344
 0.45811  0.46911  0.04148
 0.52833  0.46714  0.03952
 0.59856  0.46518  0.03756
 0.66878  0.46322  0.03559
 0.73901  0.46126  0.03363
 0.80923  0.45929  0.03167
 0.87946  0.45733  0.02971
 0.94968  0.45537  0.02775
 1.00000  0.45341  0.02578
 1.00000  0.45145  0.02382
 0.00000  0.55118  0.05136
 0.03290  0.54921  0.04940
 0.10313  0.54725  0.04744
 0.17335  0.54529  0.04548
 0.24358  0.54333  0.04352
 0.31380  0.54137  0.04155
 0.38403  0.53940  0.03959
 0.45425  0.53744  0.03763
 0.52448  0.53548  0.03567
 0.59470  0.53352  0.03370
 0.66493  0.53155  0.03174
 0.73515  0.52959  0.02978
 0.80538  0.52763  0.02782
 0.87561  0.52567  0.02586
 0.94583  0.52371  0.02389
 1.00000  0.52174  0.02193
 1.00000  0.51978  0.01997
 0.00000  0.61951  0.04751
 0.02905  0.61755  0.04555
 0.09927  0.61559  0.04359
 0.16950  0.61363  0.04163
 0.23973  0.61166  0.03966
 0.30995  0.60970  0.03770
 0.38018  0.60774  0.03574
 0.45040  0.60578  0.03378
 0.52063  0.60381  0.03181
 0.59085  0.60185  0.02985
 0.66108  0.59989  0.02789
 0.73130  0.59793  0.02593
 0.80153  0.59597  0.02397
 0.87175  0.59400  0.02200
 0.94198  0.59204  0.02004
 1.00000  0.59008  0.01808
 1.00000  0.58812  0.01612
 0.00000  0.68785  0.04366
 0.02520  0.68588  0.04170
 0.09542  0.68392  0.03974
 0.16565  0.68196  0.03777
 0.23587  0.68000  0.03581
 0.30610  0.67804  0.03385
 0.37632  0.67607  0.03189
 0.44655  0.67411  0.02992
 0.51677  0.67215  0.02796
 0.58700  0.67019  0.02600
 0.65723  0.66823  0.02404
 0.72745  0.66626  0.02208
 0.79768  0.66430  0.02011
 0.86790  0.66234  0.01815
 0.93813  0.66038  0.01619
 1.00000  0.65841  0.01423
 1.00000  0.65645  0.01226
 0.00000  0.75618  0.03981
 0.02135  0.75422  0.03785
 0.09157  0.75226  0.03588
 0.16180  0.75030  0.03392
 0.23202  0.74833  0.03196
 0.30225  0.74637  0.03000
 0.37247  0.74441  0.02803
 0.44270  0.74245  0.02607
 0.51292  0.74048  0.02411
 0.58315  0.73852  0.02215
 0.65337  0.73656  0.02019
 0.72360  0.73460  0.01822
 0.79382  0.73264  0.01626
 0.86405  0.73067  0.01430
 0.93427  0.72871  0.01234
 1.00000  0.72675  0.01037
 1.00000  0.72479  0.00841
 0.00000  0.82452  0.03596
 0.01749  0.82256  0.03399
 0.08772  0.82059  0.03203
 0.15794  0.81863  0.03007
 0.22817  0.81667  0.02811
 0.29839  0.81471  0.02614
 0.36862  0.81274  0.02418
 0.43884  0.81078  0.02222
 0.50907  0.80882  0.02026
 0.57930  0.80686  0.01830
 0.64952  0.80490  0.01633
 0.71975  0.80293  0.01437
 0.78997  0.80097  0.01241
 0.86020  0.79901  0.01045
 0.93042  0.79705  0.00848
 1.00000  0.79508  0.00652
 1.00000  0.79312  0.00456
 0.00000  0.89285  0.03210
 0.01364  0.89089  0.03014
 0.08387  0.88893  0.02818
 0.15409  0.88697  0.02622
 0.22432  0.88500  0.02425
 0.29454  0.88304  0.02229
 0.36477  0.88108  0.02033
 0.43499  0.87912  0.01837
 0.50522  0.87716  0.01641
 0.57544  0.87519  0.01444
 0.64567  0.87323  0.01248
 0.71589  0.87127  0.01052
 0.78612  0.86931  0.00856
 0.85634  0.86734  0.00659
 0.92657  0.86538  0.00463
 0.99680  0.86342  0.00267
 1.00000  0.86146  0.00071
 0.00000  0.96119  0.02825
 0.00979  0.95923  0.02629
 0.08001  0.95726  0.02433
 0.15024  0.95530  0.02236
 0.22046  0.95334  0.02040
 0.29069  0.95138  0.01844
 0.36092  0.94942  0.01648
 0.43114  0.94745  0.01452
 0.50137  0.94549  0.01255
 0.57159  0.94353  0.01059
 0.64182  0.94157  0.00863
 0.71204  0.93960  0.00667
 0.78227  0.93764  0.00470
 0.85249  0.93568  0.00274
 0.92272  0.93372  0.00078
 0.99294  0.93176  0.00000
 1.00000  0.92979  0.00000
 0.00000  1.00000  0.02440
 0.00594  1.00000  0.02244
 0.07616  1.00000  0.02047
 0.14639  1.00000  0.01851
 0.21661  1.00000  0.01655
 0.28684  1.00000  0.01459
 0.35706  1.00000  0.01263
 0.42729  1.00000  0.01066
 0.49751  1.00000  0.00870
 0.56774  1.00000  0.00674
 0.63796  1.00000  0.00478
 0.70819  1.00000  0.00281
 0.77841  1.00000  0.00085
 0.84864  1.00000  0.00000
 0.91887  1.00000  0.00000
 0.98909  1.00000  0.00000
 1.00000  0.99813  0.00000
 0.00000  1.00000  0.02055
 0.00208  1.00000  0.01858
 0.07231  1.00000  0.01662
 0.14253  1.00000  0.01466
 0.21276  1.00000  0.01270
 0.28299  1.00000  0.01074
 0.35321  1.00000  0.00877
 0.42344  1.00000  0.00681
 0.49366  1.00000  0.00485
 0.56389  1.00000  0.00289
 0.63411  1.00000  0.00092
 0.70434  1.00000  0.00000
 0.77456  1.00000  0.00000
 0.84479  1.00000  0.00000
 0.91501  1.00000  0.00000
 0.98524  1.00000  0.00000
 1.00000  1.00000  0.00000
 0.00000  0.00375  0.15362
 0.06297  0.00178  0.15166
 0.13320  0.00000  0.14970
 0.20342  0.00000  0.14773
 0.27365  0.00000  0.14577
 0.34387  0.00000  0.14381
 0.41410  0.00000  0.14185
 0.48432  0.00000  0.13989
 0.55455  0.00000  0.13792
 0.62477  0.00000  0.13596
 0.69500  0.00000  0.13400
 0.76522  0.00000  0.13204
 0.83545  0.00000  0.13007
 0.90567  0.00000  0.12811
 0.97590  0.00000  0.12615
 1.00000  0.00000  0.12419
 1.00000  0.00000  0.12223
 0.00000  0.07208  0.14977
 0.05912  0.07012  0.14781
 0.12934  0.06816  0.14584
 0.19957  0.06619  0.14388
 0.26979  0.06423  0.14192
 0.34002  0.06227  0.13996
 0.41025  0.06031  0.13800
 0.48047  0.05835  0.13603
 0.55070  0.05638  0.13407
 0.62092  0.05442  0.13211
 0.69115  0.05246  0.13015
 0.76137  0.05050  0.12818
 0.83160  0.04853  0.12622
 0.90182  0.04657  0.12426
 0.97205  0.04461  0.12230
 1.00000  0.04265  0.12034
 1.00000  0.04069  0.11837
 0.00000  0.14042  0.14592
 0.05527  0.13845  0.14395
 0.12549  0.13649  0.14199
 0.19572  0.13453  0.14003
 0.26594  0.13257  0.13807
 0.33617  0.13061  0.13611
 0.40639  0.12864  0.13414
 0.47662  0.12668  0.13218
 0.54684  0.12472  0.13022
 0.61707  0.12276  0.12826
 0.68729  0.12079  0.12629
 0.75752  0.11883  0.12433
 0.82775  0.11687  0.12237
 0.89797  0.11491  0.12041
 0.96820  0.11295  0.11845
 1.00000  0.11098  0.11648
 1.00000  0.10902  0.11452
 0.00000  0.20875  0.14206
 0.05141  0.20679  0.14010
 0.12164  0.20483  0.13814
 0.19187  0.20287  0.13618
 0.26209  0.20090  0.13422
 0.33232  0.19894  0.13225
 0.40254  0.19698  0.13029
 0.47277  0.19502  0.12833
 0.54299  0.19305  0.12637
 0.61322  0.19109  0.12440
 0.68344  0.18913  0.12244
 0.75367  0.18717  0.12048
 0.82389  0.18521  0.11852
 0.89412  0.18324  0.11656
 0.96434  0.18128  0.11459
 1.00000  0.17932  0.11263
 1.00000  0.17736  0.11067
 0.00000  0.27709  0.13821
 0.04756  0.27512  0.13625
 0.11779  0.27316  0.13429
 0.18801  0.27120  0.13233
 0.25824  0.26924  0.13036
 0.32846  0.26728  0.12840
 0.39869  0.26531  0.12644
 0.46891  0.26335  0.12448
 0.53914  0.26139  0.12251
 0.60936  0.25943  0.12055
 0.67959  0.25747  0.11859
 0.74982  0.25550  0.11663
 0.82004  0.25354  0.11467
 0.89027  0.25158  0.11270
 0.96049  0.24962  0.11074
 1.00000  0.24765  0.10878
 1.00000  0.24569  0.10682
 0.00000  0.34542  0.13436
 0.04371  0.34346  0.13240
 0.11394  0.34150  0.13044
 0.18416  0.33954  0.12847
 0.25439  0.33757  0.12651
 0.32461  0.33561  0.12455
 0.39484  0.33365  0.12259
 0.46506  0.33169  0.12062
 0.53529  0.32972  0.11866
 0.60551  0.32776  0.11670
 0.67574  0.32580  0.11474
 0.74596  0.32384  0.11278
 0.81619  0.32188  0.11081
 0.88641  0.31991  0.10885
 0.95664  0.31795  0.10689
 1.00000  0.31599  0.10493
 1.00000  0.31403  0.10296
 0.00000  0.41376  0.13051
 0.03986  0.41180  0.12855
 0.11008  0.40983  0.12658
 0.18031  0.40787  0.12462
 0.25053  0.40591  0.12266
 0.32076  0.40395  0.12070
 0.39098  0.40198  0.11873
 0.46121  0.40002  0.11677
 0.53144  0.39806  0.11481
 0.60166  0.39610  0.11285
 0.67189  0.39414  0.11089
 0.74211  0.39217  0.10892
 0.81234  0.39021  0.10696
 0.88256  0.38825  0.10500
 0.95279  0.38629  0.10304
 1.00000  0.38432  0.10107
 1.00000  0.38236  0.09911
 0.00000  0.48209  0.12666
 0.03601  0.48013  0.12469
 0.10623  0.47817  0.12273
 0.17646  0.47621  0.12077
 0.24668  0.47424  0.11881
 0.31691  0.47228  0.11684
 0.38713  0.47032  0.11488
 0.45736  0.46836  0.11292
 0.52758  0.46640  0.11096
 0.59781  0.46443  0.10900
 0.66803  0.46247  0.10703
 0.73826  0.46051  0.10507
 0.80848  0.45855  0.10311
 0.87871  0.45658  0.10115
 0.94893  0.45462  0.09918
 1.00000  0.45266  0.09722
 1.00000  0.45070  0.09526
 0.00000  0.55043  0.12280
 0.03215  0.54847  0.12084
 0.10238  0.54650  0.11888
 0.17260  0.54454  0.11692
 0.24283  0.54258  0.11495
 0.31305  0.54062  0.11299
 0.38328  0.53866  0.11103
 0.45351  0.53669  0.10907
 0.52373  0.53473  0.10711
 0.59396  0.53277  0.10514
 0.66418  0.53081  0.10318
 0.73441  0.52884  0.10122
 0.80463  0.52688  0.09926
 0.87486  0.52492  0.09729
 0.94508  0.52296  0.09533
 1.00000  0.52100  0.09337
 1.00000  0.51903  0.09141
 0.00000  0.61876  0.11895
 0.02830  0.61680  0.11699
 0.09853  0.61484  0.11503
 0.16875  0.61288  0.11306
 0.23898  0.61091  0.11110
 0.30920  0.60895  0.10914
 0.37943  0.60699  0.10718
 0.44965  0.60503  0.10522
 0.51988  0.60307  0.10325
 0.59010  0.60110  0.10129
 0.66033  0.59914  0.09933
 0.73055  0.59718  0.09737
 0.80078  0.59522  0.09540
 0.87101  0.59326  0.09344
 0.94123  0.59129  0.09148
 1.00000  0.58933  0.08952
 1.00000  0.58737  0.08756
 0.00000  0.68710  0.11510
 0.02445  0.68514  0.11314
 0.09467  0.68317  0.11117
 0.16490  0.68121  0.10921
 0.23513  0.67925  0.10725
 0.30535  0.67729  0.10529
 0.37558  0.67533  0.10333
 0.44580  0.67336  0.10136
 0.51603  0.67140  0.09940
 0.58625  0.66944  0.09744
 0.65648  0.66748  0.09548
 0.72670  0.66551  0.09351
 0.79693  0.66355  0.09155
 0.86715  0.66159  0.08959
 0.93738  0.65963  0.08763
 1.00000  0.65767  0.08567
 1.00000  0.65570  0.08370
 0.00000  0.75543  0.11125
 0.02060  0.75347  0.10928
 0.09082  0.75151  0.10732
 0.16105  0.74955  0.10536
 0.23127  0.74759  0.10340
 0.30150  0.74562  0.10144
 0.37172  0.74366  0.09947
 0.44195  0.74170  0.09751
 0.51217  0.73974  0.09555
 0.58240  0.73777  0.09359
 0.65262  0.73581  0.09162
 0.72285  0.73385  0.08966
 0.79308  0.73189  0.08770
 0.86330  0.72993  0.08574
 0.93353  0.72796  0.08378
 1.00000  0.72600  0.08181
 1.00000  0.72404  0.07985
 0.00000  0.82377  0.10739
 0.01674  0.82181  0.10543
 0.08697  0.81985  0.10347
 0.15720  0.81788  0.10151
 0.22742  0.81592  0.09955
 0.29765  0.81396  0.09758
 0.36787  0.81200  0.09562
 0.43810  0.81003  0.09366
 0.50832  0.80807  0.09170
 0.57855  0.80611  0.08973
 0.64877  0.80415  0.08777
 0.71900  0.80219  0.08581
 0.78922  0.80022  0.08385
 0.85945  0.79826  0.08189
 0.92967  0.79630  0.07992
 0.99990  0.79434  0.07796
 1.00000  0.79237  0.07600
 0.00000  0.89210  0.10354
 0.01289  0.89014  0.10158
 0.08312  0.88818  0.09962
 0.15334  0.88622  0.09766
 0.22357  0.88426  0.09569
 0.29379  0.88229  0.09373
 0.36402  0.88033  0.09177
 0.43424  0.87837  0.08981
 0.50447  0.87641  0.08784
 0.57470  0.87445  0.08588
 0.64492  0.87248  0.08392
 0.71515  0.87052  0.08196
 0.78537  0.86856  0.08000
 0.85560  0.86660  0.07803
 0.92582  0.86463  0.07607
 0.99605  0.86267  0.07411
 1.00000  0.86071  0.07215
 0.00000  0.96044  0.09969
 0.00904  0.95848  0.09773
 0.07927  0.95652  0.09577
 0.14949  0.95455  0.09380
 0.21972  0.95259  0.09184
 0.28994  0.95063  0.08988
 0.36017  0.94867  0.08792
 0.43039  0.94670  0.08595
 0.50062  0.94474  0.08399
 0.57084  0.94278  0.08203
 0.64107  0.94082  0.08007
 0.71129  0.93886  0.07811
 0.78152  0.93689  0.07614
 0.85174  0.93493  0.07418
 0.92197  0.93297  0.07222
 0.99219  0.93101  0.07026
 1.00000  0.92905  0.06830
 0.00000  1.00000  0.09584
 0.00519  1.00000  0.09388
 0.07541  1.00000  0.09191
 0.14564  1.00000  0.08995
 0.21586  1.00000  0.08799
 0.28609  1.00000  0.08603
 0.35631  1.00000  0.08406
 0.42654  1.00000  0.08210
 0.49677  1.00000  0.08014
 0.56699  1.00000  0.07818
 0.63722  1.00000  0.07622
 0.70744  1.00000  0.07425
 0.77767  1.00000  0.07229
 0.84789  1.00000  0.07033
 0.91812  1.00000  0.06837
 0.98834  0.99934  0.06641
 1.00000  0.99738  0.06444
 0.00000  1.00000  0.09199
 0.00134  1.00000  0.09002
 0.07156  1.00000  0.08806
 0.14179  1.00000  0.08610
 0.21201  1.00000  0.08414
 0.28224  1.00000  0.08217
 0.35246  1.00000  0.08021
 0.42269  1.00000  0.07825
 0.49291  1.00000  0.07629
 0.56314  1.00000  0.07433
 0.63336  1.00000  0.07236
 0.70359  1.00000  0.07040
 0.77381  1.00000  0.06844
 0.84404  1.00000  0.06648
 0.91427  1.00000  0.06452
 0.98449  1.00000  0.06255
 1.00000  1.00000  0.06059
 0.00000  0.00300  0.22506
 0.06222  0.00104  0.22310
 0.13245  0.00000  0.22114
 0.20267  0.00000  0.21917
 0.27290  0.00000  0.21721
 0.34312  0.00000  0.21525
 0.41335  0.00000  0.21329
 0.48357  0.00000  0.21132
 0.55380  0.00000  0.20936
 0.62403  0.00000  0.20740
 0.69425  0.00000  0.20544
 0.76448  0.00000  0.20348
 0.83470  0.00000  0.20151
 0.90493  0.00000  0.19955
 0.97515  0.00000  0.19759
 1.00000  0.00000  0.19563
 1.00000  0.00000  0.19367
