src/assets/luts/crisp-fresh.cube
TITLE "清新通透"
LUT_3D_SIZE 9
DOMAIN_MIN 0.0 0.0 0.0
DOMAIN_MAX 1.0 1.0 1.0
# LumEdit built-in LUT · 天蓝草绿，清新明亮
 0.00000  0.00524  0.01074
 0.13469  0.00132  0.00682
 0.27514  0.00000  0.00289
 0.41559  0.00000  0.00000
 0.55604  0.00000  0.00000
 0.69650  0.00000  0.00000
 0.83695  0.00000  0.00000
 0.97740  0.00000  0.00000
 1.00000  0.00000  0.00000
 0.00000  0.14191  0.00304
 0.12699  0.13799  0.00000
 0.26744  0.13406  0.00000
 0.40789  0.13014  0.00000
 0.54834  0.12622  0.00000
 0.68879  0.12229  0.00000
 0.82924  0.11837  0.00000
 0.96969  0.11444  0.00000
 1.00000  0.11052  0.00000
 0.00000  0.27858  0.00000
 0.11928  0.27466  0.00000
 0.25973  0.27073  0.00000
 0.40019  0.26681  0.00000
 0.54064  0.26289  0.00000
 0.68109  0.25896  0.00000
 0.82154  0.25504  0.00000
 0.96199  0.25111  0.00000
 1.00000  0.24719  0.00000
 0.00000  0.41525  0.00000
 0.11158  0.41133  0.00000
 0.25203  0.40741  0.00000
 0.39248  0.40348  0.00000
 0.53293  0.39956  0.00000
 0.67338  0.39563  0.00000
 0.81383  0.39171  0.00000
 0.95428  0.38778  0.00000
 1.00000  0.38386  0.00000
 0.00000  0.55192  0.00000
 0.10388  0.54800  0.00000
 0.24433  0.54408  0.00000
 0.38478  0.54015  0.00000
 0.52523  0.53623  0.00000
 0.66568  0.53230  0.00000
 0.80613  0.52838  0.00000
 0.94658  0.52445  0.00000
 1.00000  0.52053  0.00000
 0.00000  0.68860  0.00000
 0.09617  0.68467  0.00000
 0.23662  0.68075  0.00000
 0.37707  0.67682  0.00000
 0.51752  0.67290  0.00000
 0.65797  0.66897  0.00000
 0.79842  0.66505  0.00000
 0.93887  0.66112  0.00000
 1.00000  0.65720  0.00000
 0.00000  0.82527  0.00000
 0.08847  0.82134  0.00000
 0.22892  0.81742  0.00000
 0.36937  0.81349  0.00000
 0.50982  0.80957  0.00000
 0.65027  0.80564  0.00000
 0.79072  0.80172  0.00000
 0.93117  0.79780  0.00000
 1.00000  0.79387  0.00000
 0.00000  0.96194  0.00000
 0.08076  0.95801  0.00000
 0.22121  0.95409  0.00000
 0.36166  0.95016  0.00000
 0.50211  0.94624  0.00000
 0.64256  0.94231  0.00000
 0.78302  0.93839  0.00000
 0.92347  0.93447  0.00000
 1.00000  0.93054  0.00000
 0.00000  1.00000  0.00000
 0.07306  1.00000  0.00000
 0.21351  1.00000  0.00000
 0.35396  1.00000  0.00000
 0.49441  1.00000  0.00000
 0.63486  1.00000  0.00000
 0.77531  1.00000  0.00000
 0.91576  1.00000  0.00000
 1.00000  1.00000  0.00000
 0.00000  0.00375  0.15362
 0.13320  0.00000  0.14970
 0.27365  0.00000  0.14577
 0.41410  0.00000  0.14185
 0.55455  0.00000  0.13792
 0.69500  0.00000  0.13400
 0.83545  0.00000  0.13007
 0.97590  0.00000  0.12615
 1.00000  0.00000  0.12223
 0.00000  0.14042  0.14592
 0.12549  0.13649  0.14199
 0.26594  0.13257  0.13807
 0.40639  0.12864  0.13414
 0.54684  0.12472  0.13022
 0.68729  0.12079  0.12629
 0.82775  0.11687  0.12237
 0.96820  0.11295  0.11845
 1.00000  0.10902  0.11452
 0.00000  0.27709  0.13821
 0.11779  0.27316  0.13429
 0.25824  0.26924  0.13036
 0.39869  0.26531  0.12644
 0.53914  0.26139  0.12251
 0.67959  0.25747  0.11859
 0.82004  0.25354  0.11467
 0.96049  0.24962  0.11074
 1.00000  0.24569  0.10682
 0.00000  0.41376  0.13051
 0.11008  0.40983  0.12658
 0.25053  0.40591  0.12266
 0.39098  0.40198  0.11873
 0.53144  0.39806  0.11481
 0.67189  0.39414  0.11089
 0.81234  0.39021  0.10696
 0.95279  0.38629  0.10304
 1.00000  0.38236  0.09911
 0.00000  0.55043  0.12280
 0.10238  0.54650  0.11888
 0.24283  0.54258  0.11495
 0.38328  0.53866  0.11103
 0.52373  0.53473  0.10711
 0.66418  0.53081  0.10318
 0.80463  0.52688  0.09926
 0.94508  0.52296  0.09533
 1.00000  0.51903  0.09141
 0.00000  0.68710  0.11510
 0.09467  0.68317  0.11117
 0.23513  0.67925  0.10725
 0.37558  0.67533  0.10333
 0.51603  0.67140  0.09940
 0.65648  0.66748  0.09548
 0.79693  0.66355  0.09155
 0.93738  0.65963  0.08763
 1.00000  0.65570  0.08370
 0.00000  0.82377  0.10739
 0.08697  0.81985  0.10347
 0.22742  0.81592  0.09955
 0.36787  0.81200  0.09562
 0.50832  0.80807  0.09170
 0.64877  0.80415  0.08777
 0.78922  0.80022  0.08385
 0.92967  0.79630  0.07992
 1.00000  0.79237  0.07600
 0.00000  0.96044  0.09969
 0.07927  0.95652  0.09577
 0.21972  0.95259  0.09184
 0.36017  0.94867  0.08792
 0.50062  0.94474  0.08399
 0.64107  0.94082  0.08007
 0.78152  0.93689  0.07614
 0.92197  0.93297  0.07222
 1.00000  0.92905  0.06830
 0.00000  1.00000  0.09199
 0.07156  1.00000  0.08806
 0.21201  1.00000  0.08414
 0.35246  1.00000  0.08021
 0.49291  1.00000  0.07629
 0.63336  1.00000  0.07236
 0.77381  1.00000  0.06844
 0.91427  1.00000  0.06452
 1.00000  1.00000  0.06059
 0.00000  0.00225  0.29650
 0.13170  0.00000  0.29258
 0.27215  0.00000  0.28865
 0.41260  0.00000  0.28473
 0.55305  0.00000  0.28080
 0.69350  0.00000  0.27688
 0.83395  0.00000  0.27295
 0.97440  0.00000  0.26903
 1.00000  0.00000  0.26510
 0.00000  0.13892  0.28880
 0.12400  0.13500  0.28487
 0.26445  0.13107  0.28095
 0.40490  0.12715  0.27702
 0.54535  0.12322  0.27310
 0.68580  0.11930  0.26917
 0.82625  0.11537  0.26525
 0.96670  0.11145  0.26132
 1.00000  0.10753  0.25740
 0.00000  0.27559  0.28109
 0.11629  0.27167  0.27717
 0.25674  0.26774  0.27324
 0.39719  0.26382  0.26932
 0.53764  0.25989  0.26539
 0.67809  0.25597  0.26147
 0.81854  0.25204  0.25754
 0.95900  0.24812  0.25362
 1.00000  0.24420  0.24970
 0.00000  0.41226  0.27339
 0.10859  0.40834  0.26946
 0.24904  0.40441  0.26554
 0.38949  0.40049  0.26161
 0.52994  0.39656  0.25769
 0.67039  0.39264  0.25376
 0.81084  0.38872  0.24984
 0.95129  0.38479  0.24592
 1.00000  0.38087  0.24199
 0.00000  0.54893  0.26568
 0.10088  0.54501  0.26176
 0.24133  0.54108  0.25783
 0.38178  0.53716  0.25391
 0.52223  0.53323  0.24998
 0.66269  0.52931  0.24606
 0.80314  0.52539  0.24214
 0.94359  0.52146  0.23821
 1.00000  0.51754  0.23429
 0.00000  0.68560  0.25798
 0.09318  0.68168  0.25405
 0.23363  0.67775  0.25013
 0.37408  0.67383  0.24620
 0.51453  0.66991  0.24228
 0.65498  0.66598  0.23836
 0.79543  0.66206  0.23443
 0.93588  0.65813  0.23051
 1.00000  0.65421  0.22658
 0.00000  0.82227  0.25027
 0.08547  0.81835  0.24635
 0.22592  0.81442  0.24242
 0.36638  0.81050  0.23850
 0.50683  0.80658  0.23458
 0.64728  0.80265  0.23065
 0.78773  0.79873  0.22673
 0.92818  0.79480  0.22280
 1.00000  0.79088  0.21888
 0.00000  0.95894  0.24257
 0.07777  0.95502  0.23864
 0.21822  0.95110  0.23472
 0.35867  0.94717  0.23080
 0.49912  0.94325  0.22687
 0.63957  0.93932  0.22295
 0.78002  0.93540  0.21902
 0.92047  0.93147  0.21510
 1.00000  0.92755  0.21117
 0.00000  1.00000  0.23486
 0.07007  1.00000  0.23094
 0.21052  1.00000  0.22702
 0.35097  1.00000  0.22309
 0.49142  1.00000  0.21917
 0.63187  1.00000  0.21524
 0.77232  1.00000  0.21132
 0.91277  1.00000  0.20739
 1.00000  1.00000  0.20347
 0.00000  0.00075  0.43938
 0.13020  0.00000  0.43545
 0.27065  0.00000  0.43153
 0.41111  0.00000  0.42761
 0.55156  0.00000  0.42368
 0.69201  0.00000  0.41976
 0.83246  0.00000  0.41583
 0.97291  0.00000  0.41191
 1.00000  0.00000  0.40798
 0.00000  0.13742  0.43167
 0.12250  0.13350  0.42775
 0.26295  0.12958  0.42383
 0.40340  0.12565  0.41990
 0.54385  0.12173  0.41598
 0.68430  0.11780  0.41205
 0.82475  0.11388  0.40813
 0.96520  0.10995  0.40420
 1.00000  0.10603  0.40028
 0.00000  0.27409  0.42397
 0.11480  0.27017  0.42005
 0.25525  0.26625  0.41612
 0.39570  0.26232  0.41220
 0.53615  0.25840  0.40827
 0.67660  0.25447  0.40435
 0.81705  0.25055  0.40042
 0.95750  0.24662  0.39650
 1.00000  0.24270  0.39257
 0.00000  0.41077  0.41627
 0.10709  0.40684  0.41234
 0.24754  0.40292  0.40842
 0.38799  0.39899  0.40449
 0.52844  0.39507  0.40057
 0.66889  0.39114  0.39664
 0.80934  0.38722  0.39272
 0.94979  0.38329  0.38879
 1.00000  0.37937  0.38487
 0.00000  0.54744  0.40856
 0.09939  0.54351  0.40464
 0.23984  0.53959  0.40071
 0.38029  0.53566  0.39679
 0.52074  0.53174  0.39286
 0.66119  0.52781  0.38894
 0.80164  0.52389  0.38501
 0.94209  0.51997  0.38109
 1.00000  0.51604  0.37717
 0.00000  0.68411  0.40086
 0.09168  0.68018  0.39693
 0.23213  0.67626  0.39301
 0.37258  0.67233  0.38908
 0.51303  0.66841  0.38516
 0.65348  0.66448  0.38123
 0.79394  0.66056  0.37731
 0.93439  0.65664  0.37339
 1.00000  0.65271  0.36946
 0.00000  0.82078  0.39315
 0.08398  0.81685  0.38923
 0.22443  0.81293  0.38530
 0.36488  0.80900  0.38138
 0.50533  0.80508  0.37745
 0.64578  0.80116  0.37353
 0.78623  0.79723  0.36961
 0.92668  0.79331  0.36568
 1.00000  0.78938  0.36176
 0.00000  0.95745  0.38545
 0.07627  0.95352  0.38152
 0.21672  0.94960  0.37760
 0.35717  0.94567  0.37367
 0.49763  0.94175  0.36975
 0.63808  0.93783  0.36583
 0.77853  0.93390  0.36190
 0.91898  0.92998  0.35798
 1.00000  0.92605  0.35405
 0.00000  1.00000  0.37774
 0.06857  1.00000  0.37382
 0.20902  1.00000  0.36989
 0.34947  1.00000  0.36597
 0.48992  1.00000  0.36205
 0.63037  1.00000  0.35812
 0.77082  1.00000  0.35420
 0.91127  1.00000  0.35027
 1.00000  1.00000  0.34635
 0.00000  0.00000  0.58226
 0.12871  0.00000  0.57833
 0.26916  0.00000  0.57441
 0.40961  0.00000  0.57048
 0.55006  0.00000  0.56656
 0.69051  0.00000  0.56264
 0.83096  0.00000  0.55871
 0.97141  0.00000  0.55479
 1.00000  0.00000  0.55086
 0.00000  0.13593  0.57455
 0.12100  0.13200  0.57063
 0.26145  0.12808  0.56670
 0.40190  0.12415  0.56278
 0.54236  0.12023  0.55886
 0.68281  0.11631  0.55493
 0.82326  0.11238  0.55101
 0.96371  0.10846  0.54708
 1.00000  0.10453  0.54316
 0.00000  0.27260  0.56685
 0.11330  0.26867  0.56292
 0.25375  0.26475  0.55900
 0.39420  0.26083  0.55508
 0.53465  0.25690  0.55115
 0.67510  0.25298  0.54723
 0.81555  0.24905  0.54330
 0.95600  0.24513  0.53938
 1.00000  0.24120  0.53545
 0.00000  0.40927  0.55914
 0.10559  0.40534  0.55522
 0.24605  0.40142  0.55130
 0.38650  0.39750  0.54737
 0.52695  0.39357  0.54345
 0.66740  0.38965  0.53952
 0.80785  0.38572  0.53560
 0.94830  0.38180  0.53167
 1.00000  0.37787  0.52775
 0.00000  0.54594  0.55144
 0.09789  0.54202  0.54752
 0.23834  0.53809  0.54359
 0.37879  0.53417  0.53967
 0.51924  0.53024  0.53574
 0.65969  0.52632  0.53182
 0.80014  0.52239  0.52789
 0.94059  0.51847  0.52397
 1.00000  0.51454  0.52004
 0.00000  0.68261  0.54374
 0.09019  0.67869  0.53981
 0.23064  0.67476  0.53589
 0.37109  0.67084  0.53196
 0.51154  0.66691  0.52804
 0.65199  0.66299  0.52411
 0.79244  0.65906  0.52019
 0.93289  0.65514  0.51626
 1.00000  0.65122  0.51234
 0.00000  0.81928  0.53603
 0.08248  0.81536  0.53211
 0.22293  0.81143  0.52818
 0.36338  0.80751  0.52426
 0.50383  0.80358  0.52033
 0.64428  0.79966  0.51641
 0.78473  0.79573  0.51248
 0.92519  0.79181  0.50856
 1.00000  0.78789  0.50464
 0.00000  0.95595  0.52833
 0.07478  0.95203  0.52440
 0.21523  0.94810  0.52048
 0.35568  0.94418  0.51655
 0.49613  0.94025  0.51263
 0.63658  0.93633  0.50870
 0.77703  0.93241  0.50478
 0.91748  0.92848  0.50086
 1.00000  0.92456  0.49693
 0.00000  1.00000  0.52062
 0.06707  1.00000  0.51670
 0.20752  1.00000  0.51277
 0.34797  1.00000  0.50885
 0.48842  1.00000  0.50492
 0.62888  1.00000  0.50100
 0.76933  1.00000  0.49708
 0.90978  1.00000  0.49315
 1.00000  1.00000  0.48923
 0.00000  0.00000  0.72514
 0.12721  0.00000  0.72121
 0.26766  0.00000  0.71729
 0.40811  0.00000  0.71336
 0.54856  0.00000  0.70944
 0.68901  0.00000  0.70551
 0.82946  0.00000  0.70159
 0.96992  0.00000  0.69767
 1.00000  0.00000  0.69374
 0.00000  0.13443  0.71743
 0.11951  0.13051  0.71351
 0.25996  0.12658  0.70958
 0.40041  0.12266  0.70566
 0.54086  0.11873  0.70173
 0.68131  0.11481  0.69781
 0.82176  0.11089  0.69389
 0.96221  0.10696  0.68996
 1.00000  0.10304  0.68604
 0.00000  0.27110  0.70973
 0.11180  0.26718  0.70580
 0.25225  0.26325  0.70188
 0.39270  0.25933  0.69795
 0.53315  0.25540  0.69403
 0.67361  0.25148  0.69011
 0.81406  0.24756  0.68618
 0.95451  0.24363  0.68226
 1.00000  0.23971  0.67833
 0.00000  0.40777  0.70202
 0.10410  0.40385  0.69810
 0.24455  0.39992  0.69417
 0.38500  0.39600  0.69025
 0.52545  0.39208  0.68633
 0.66590  0.38815  0.68240
 0.80635  0.38423  0.67848
 0.94680  0.38030  0.67455
 1.00000  0.37638  0.67063
 0.00000  0.54444  0.69432
 0.09639  0.54052  0.69039
 0.23684  0.53659  0.68647
 0.37730  0.53267  0.68255
 0.51775  0.52875  0.67862
 0.65820  0.52482  0.67470
 0.79865  0.52090  0.67077
 0.93910  0.51697  0.66685
 1.00000  0.51305  0.66292
 0.00000  0.68111  0.68661
 0.08869  0.67719  0.68269
 0.22914  0.67327  0.67877
 0.36959  0.66934  0.67484
 0.51004  0.66542  0.67092
 0.65049  0.66149  0.66699
 0.79094  0.65757  0.66307
 0.93139  0.65364  0.65914
 1.00000  0.64972  0.65522
 0.00000  0.81778  0.67891
 0.08099  0.81386  0.67499
 0.22144  0.80994  0.67106
 0.36189  0.80601  0.66714
 0.50234  0.80209  0.66321
 0.64279  0.79816  0.65929
 0.78324  0.79424  0.65536
 0.92369  0.79031  0.65144
 1.00000  0.78639  0.64751
 0.00000  0.95446  0.67121
 0.07328  0.95053  0.66728
 0.21373  0.94661  0.66336
 0.35418  0.94268  0.65943
 0.49463  0.93876  0.65551
 0.63508  0.93483  0.65158
 0.77553  0.93091  0.64766
 0.91598  0.92698  0.64373
 1.00000  0.92306  0.63981
 0.00000  1.00000  0.66350
 0.06558  1.00000  0.65958
 0.20603  1.00000  0.65565
 0.34648  1.00000  0.65173
 0.48693  1.00000  0.64780
 0.62738  1.00000  0.64388
 0.76783  1.00000  0.63995
 0.90828  1.00000  0.63603
 1.00000  1.00000  0.63211
 0.00000  0.00000  0.86801
 0.12572  0.00000  0.86409
 0.26617  0.00000  0.86017
 0.40662  0.00000  0.85624
 0.54707  0.00000  0.85232
 0.68752  0.00000  0.84839
 0.82797  0.00000  0.84447
 0.96842  0.00000  0.84054
 1.00000  0.00000  0.83662
 0.00000  0.13294  0.86031
 0.11801  0.12901  0.85639
 0.25846  0.12509  0.85246
 0.39891  0.12116  0.84854
 0.53936  0.11724  0.84461
 0.67981  0.11331  0.84069
 0.82026  0.10939  0.83676
 0.96071  0.10546  0.83284
 1.00000  0.10154  0.82892
 0.00000  0.26961  0.85261
 0.11031  0.26568  0.84868
 0.25076  0.26176  0.84476
 0.39121  0.25783  0.84083
 0.53166  0.25391  0.83691
 0.67211  0.24998  0.83298
 0.81256  0.24606  0.82906
 0.95301  0.24214  0.82514
 1.00000  0.23821  0.82121
 0.00000  0.40628  0.84490
 0.10260  0.40235  0.84098
 0.24305  0.39843  0.83705
 0.38350  0.39450  0.83313
 0.52395  0.39058  0.82920
 0.66440  0.38665  0.82528
 0.80486  0.38273  0.82136
 0.94531  0.37881  0.81743
 1.00000  0.37488  0.81351
 0.00000  0.54295  0.83720
 0.09490  0.53902  0.83327
 0.23535  0.53510  0.82935
 0.37580  0.53117  0.82542
 0.51625  0.52725  0.82150
 0.65670  0.52333  0.81758
 0.79715  0.51940  0.81365
 0.93760  0.51548  0.80973
 1.00000  0.51155  0.80580
 0.00000  0.67962  0.82949
 0.08719  0.67569  0.82557
 0.22764  0.67177  0.82164
 0.36809  0.66784  0.81772
 0.50855  0.66392  0.81380
 0.64900  0.66000  0.80987
 0.78945  0.65607  0.80595
 0.92990  0.65215  0.80202
 1.00000  0.64822  0.79810
 0.00000  0.81629  0.82179
 0.07949  0.81236  0.81786
 0.21994  0.80844  0.81394
 0.36039  0.80452  0.81002
 0.50084  0.80059  0.80609
 0.64129  0.79667  0.80217
 0.78174  0.79274  0.79824
 0.92219  0.78882  0.79432
 1.00000  0.78489  0.79039
 0.00000  0.95296  0.81408
 0.07178  0.94903  0.81016
 0.21224  0.94511  0.80624
 0.35269  0.94119  0.80231
 0.49314  0.93726  0.79839
 0.63359  0.93334  0.79446
 0.77404  0.92941  0.79054
 0.91449  0.92549  0.78661
 1.00000  0.92156  0.78269
 0.00000  1.00000  0.80638
 0.06408  1.00000  0.80246
 0.20453  1.00000  0.79853
 0.34498  1.00000  0.79461
 0.48543  1.00000  0.79068
 0.62588  1.00000  0.78676
 0.76633  1.00000  0.78283
 0.90678  1.00000  0.77891
 1.00000  1.00000  0.77498
 0.00000  0.00000  1.00000
 0.12422  0.00000  1.00000
 0.26467  0.00000  1.00000
 0.40512  0.00000  0.99912
 0.54557  0.00000  0.99520
 0.68602  0.00000  0.99127
 0.82647  0.00000  0.98735
 0.96692  0.00000  0.98342
 1.00000  0.00000  0.97950
 0.00000  0.13144  1.00000
 0.11651  0.12751  0.99926
 0.25697  0.12359  0.99534
 0.39742  0.11967  0.99142
 0.53787  0.11574  0.98749
 0.67832  0.11182  0.98357
 0.81877  0.10789  0.97964
 0.95922  0.10397  0.97572
 1.00000  0.10004  0.97179
 0.00000  0.26811  0.99548
 0.10881  0.26419  0.99156
 0.24926  0.26026  0.98764
 0.38971  0.25634  0.98371
 0.53016  0.25241  0.97979
 0.67061  0.24849  0.97586
 0.81106  0.24456  0.97194
 0.95151  0.24064  0.96801
 1.00000  0.23671  0.96409
 0.00000  0.40478  0.98778
 0.10111  0.40086  0.98386
 0.24156  0.39693  0.97993
 0.38201  0.39301  0.97601
 0.52246  0.38908  0.97208
 0.66291  0.38516  0.96816
 0.80336  0.38123  0.96423
 0.94381  0.37731  0.96031
 1.00000  0.37339  0.95639
 0.00000  0.54145  0.98008
 0.09340  0.53753  0.97615
 0.23385  0.53360  0.97223
 0.37430  0.52968  0.96830
 0.51475  0.52575  0.96438
 0.65520  0.52183  0.96045
 0.79565  0.51790  0.95653
 0.93611  0.51398  0.95261
 1.00000  0.51006  0.94868
 0.00000  0.67812  0.97237
 0.08570  0.67420  0.96845
 0.22615  0.67027  0.96452
 0.36660  0.66635  0.96060
 0.50705  0.66242  0.95667
 0.64750  0.65850  0.95275
 0.78795  0.65458  0.94883
 0.92840  0.65065  0.94490
 1.00000  0.64673  0.94098
 0.00000  0.81479  0.96467
 0.07799  0.81087  0.96074
 0.21844  0.80694  0.95682
 0.35889  0.80302  0.95289
 0.49934  0.79909  0.94897
 0.63980  0.79517  0.94505
 0.78025  0.79125  0.94112
 0.92070  0.78732  0.93720
 1.00000  0.78340  0.93327
 0.00000  0.95146  0.95696
 0.07029  0.94754  0.95304
 0.21074  0.94361  0.94911
 0.35119  0.93969  0.94519
 0.49164  0.93577  0.94127
 0.63209  0.93184  0.93734
 0.77254  0.92792  0.93342
 0.91299  0.92399  0.92949
 1.00000  0.92007  0.92557
 0.00000  1.00000  0.94926
 0.06258  1.00000  0.94533
 0.20303  1.00000  0.94141
 0.34349  1.00000  0.93749
 0.48394  1.00000  0.93356
 0.62439  1.00000  0.92964
 0.76484  1.00000  0.92571
 0.90529  1.00000  0.92179
 1.00000  1.00000  0.91786
 0.00000  0.00000  1.00000
 0.12272  0.00000  1.00000
 0.26317  0.00000  1.00000
 0.40362  0.00000  1.00000
 0.54407  0.00000  1.00000
 0.68453  0.00000  1.00000
 0.82498  0.00000  1.00000
 0.96543  0.00000  1.00000
 1.00000  0.00000  1.00000
 0.00000  0.12994  1.00000
 0.11502  0.12602  1.00000
 0.25547  0.12209  1.00000
 0.39592  0.11817  1.00000
 0.53637  0.11425  1.00000
 0.67682  0.11032  1.00000
 0.81727  0.10640  1.00000
 0.95772  0.10247  1.00000
 1.00000  0.09855  1.00000
 0.00000  0.26661  1.00000
 0.10731  0.26269  1.00000
 0.24776  0.25876  1.00000
 0.38822  0.25484  1.00000
 0.52867  0.25092  1.00000
 0.66912  0.24699  1.00000
 0.80957  0.24307  1.00000
 0.95002  0.23914  1.00000
 1.00000  0.23522  1.00000
 0.00000  0.40328  1.00000
 0.09961  0.39936  1.00000
 0.24006  0.39544  1.00000
 0.38051  0.39151  1.00000
 0.52096  0.38759  1.00000
 0.66141  0.38366  1.00000
 0.80186  0.37974  1.00000
 0.94231  0.37581  1.00000
 1.00000  0.37189  1.00000
 0.00000  0.53995  1.00000
 0.09191  0.53603  1.00000
 0.23236  0.53211  1.00000
 0.37281  0.52818  1.00000
 0.51326  0.52426  1.00000
 0.65371  0.52033  1.00000
 0.79416  0.51641  1.00000
 0.93461  0.51248  1.00000
 1.00000  0.50856  1.00000
 0.00000  0.67663  1.00000
 0.08420  0.67270  1.00000
 0.22465  0.66878  1.00000
 0.36510  0.66485  1.00000
 0.50555  0.66093  1.00000
 0.64600  0.65700  1.00000
 0.78645  0.65308  1.00000
 0.92690  0.64915  1.00000
 1.00000  0.64523  1.00000
 0.00000  0.81330  1.00000
 0.07650  0.80937  1.00000
 0.21695  0.80545  1.00000
 0.35740  0.80152  1.00000
 0.49785  0.79760  1.00000
 0.63830  0.79367  1.00000
 0.77875  0.78975  1.00000
 0.91920  0.78583  1.00000
 1.00000  0.78190  1.00000
 0.00000  0.94997  1.00000
 0.06879  0.94604  1.00000
 0.20924  0.94212  1.00000
 0.34969  0.93819  1.00000
 0.49014  0.93427  1.00000
 0.63059  0.93034  1.00000
 0.77105  0.92642  1.00000
 0.91150  0.92250  1.00000
 1.00000  0.91857  1.00000
 0.00000  1.00000  1.00000
 0.06109  1.00000  1.00000
 0.20154  1.00000  1.00000
 0.34199  1.00000  1.00000
 0.48244  1.00000  1.00000
 0.62289  1.00000  1.00000
 0.76334  1.00000  1.00000
 0.90379  1.00000  1.00000
 1.00000  1.00000  1.00000
