src/assets/luts/crisp-fresh.cube
TITLE "清新通透"
LUT_3D_SIZE 5
DOMAIN_MIN 0.0 0.0 0.0
DOMAIN_MAX 1.0 1.0 1.0
# LumEdit built-in LUT · 天蓝草绿，清新明亮
 0.00000  0.00524  0.01074
 0.27514  0.00000  0.00289
 0.55604  0.00000  0.00000
 0.83695  0.00000  0.00000
 1.00000  0.00000  0.00000
 0.00000  0.27858  0.00000
 0.25973  0.27073  0.00000
 0.54064  0.26289  0.00000
 0.82154  0.25504  0.00000
 1.00000  0.24719  0.00000
 0.00000  0.55192  0.00000
 0.24433  0.54408  0.00000
 0.52523  0.53623  0.00000
 0.80613  0.52838  0.00000
 1.00000  0.52053  0.00000
 0.00000  0.82527  0.00000
 0.22892  0.81742  0.00000
 0.50982  0.80957  0.00000
 0.79072  0.80172  0.00000
 1.00000  0.79387  0.00000
 0.00000  1.00000  0.00000
 0.21351  1.00000  0.00000
 0.49441  1.00000  0.00000
 0.77531  1.00000  0.00000
 1.00000  1.00000  0.00000
 0.00000  0.00225  0.29650
 0.27215  0.00000  0.28865
 0.55305  0.00000  0.28080
 0.83395  0.00000  0.27295
 1.00000  0.00000  0.26510
 0.00000  0.27559  0.28109
 0.25674  0.26774  0.27324
 0.53764  0.25989  0.26539
 0.81854  0.25204  0.25754
 1.00000  0.24420  0.24970
 0.00000  0.54893  0.26568
 0.24133  0.54108  0.25783
 0.52223  0.53323  0.24998
 0.80314  0.52539  0.24214
 1.00000  0.51754  0.23429
 0.00000  0.82227  0.25027
 0.22592  0.81442  0.24242
 0.50683  0.80658  0.23458
 0.78773  0.79873  0.22673
 1.00000  0.79088  0.21888
 0.00000  1.00000  0.23486
 0.21052  1.00000  0.22702
 0.49142  1.00000  0.21917
 0.77232  1.00000  0.21132
 1.00000  1.00000  0.20347
 0.00000  0.00000  0.58226
 0.26916  0.00000  0.57441
 0.55006  0.00000  0.56656
 0.83096  0.00000  0.55871
 1.00000  0.00000  0.55086
 0.00000  0.27260  0.56685
 0.25375  0.26475  0.55900
 0.53465  0.25690  0.55115
 0.81555  0.24905  0.54330
 1.00000  0.24120  0.53545
 0.00000  0.54594  0.55144
 0.23834  0.53809  0.54359
 0.51924  0.53024  0.53574
 0.80014  0.52239  0.52789
 1.00000  0.51454  0.52004
 0.00000  0.81928  0.53603
 0.22293  0.81143  0.52818
 0.50383  0.80358  0.52033
 0.78473  0.79573  0.51248
 1.00000  0.78789  0.50464
 0.00000  1.00000  0.52062
 0.20752  1.00000  0.51277
 0.48842  1.00000  0.50492
 0.76933  1.00000  0.49708
 1.00000  1.00000  0.48923
 0.00000  0.00000  0.86801
 0.26617  0.00000  0.86017
 0.54707  0.00000  0.85232
 0.82797  0.00000  0.84447
 1.00000  0.00000  0.83662
 0.00000  0.26961  0.85261
 0.25076  0.26176  0.84476
 0.53166  0.25391  0.83691
 0.81256  0.24606  0.82906
 1.00000  0.23821  0.82121
 0.00000  0.54295  0.83720
 0.23535  0.53510  0.82935
 0.51625  0.52725  0.82150
 0.79715  0.51940  0.81365
 1.00000  0.51155  0.80580
 0.00000  0.81629  0.82179
 0.21994  0.80844  0.81394
 0.50084  0.80059  0.80609
 0.78174  0.79274  0.79824
 1.00000  0.78489  0.79039
 0.00000  1.00000  0.80638
 0.20453  1.00000  0.79853
 0.48543  1.00000  0.79068
 0.76633  1.00000  0.78283
 1.00000  1.00000  0.77498
 0.00000  0.00000  1.00000
 0.26317  0.00000  1.00000
 0.54407  0.00000  1.00000
 0.82498  0.00000  1.00000
 1.00000  0.00000  1.00000
 0.00000  0.26661  1.00000
 0.24776  0.25876  1.00000
 0.52867  0.25092  1.00000
 0.80957  0.24307  1.00000
 1.00000  0.23522  1.00000
 0.00000  0.53995  1.00000
 0.23236  0.53211  1.00000
 0.51326  0.52426  1.00000
 0.79416  0.51641  1.00000
 1.00000  0.50856  1.00000
 0.00000  0.81330  1.00000
 0.21695  0.80545  1.00000
 0.49785  0.79760  1.00000
 0.77875  0.78975  1.00000
 1.00000  0.78190  1.00000
 0.00000  1.00000  1.00000
 0.20154  1.00000  1.00000
 0.48244  1.00000  1.00000
 0.76334  1.00000  1.00000
 1.00000  1.00000  1.00000
