src/assets/luts/cyberpunk.cube
TITLE "赛博朋克"
LUT_3D_SIZE 5
DOMAIN_MIN 0.0 0.0 0.0
DOMAIN_MAX 1.0 1.0 1.0
# LumEdit built-in LUT · 蓝紫洋红，霓虹夜色
 0.00000  0.00000  0.05125
 0.22430  0.00000  0.03058
 0.55835  0.00000  0.00991
 0.89241  0.00000  0.00000
 1.00000  0.00000  0.00000
 0.00000  0.17636  0.01067
 0.21410  0.16686  0.00000
 0.54815  0.15737  0.00000
 0.88221  0.14787  0.00000
 1.00000  0.13838  0.00000
 0.00000  0.49697  0.00000
 0.20390  0.48747  0.00000
 0.53795  0.47798  0.00000
 0.87200  0.46848  0.00000
 1.00000  0.45899  0.00000
 0.00000  0.81758  0.00000
 0.19369  0.80808  0.00000
 0.52775  0.79859  0.00000
 0.86180  0.78909  0.00000
 1.00000  0.77960  0.00000
 0.00000  1.00000  0.00000
 0.18349  1.00000  0.00000
 0.51755  1.00000  0.00000
 0.85160  1.00000  0.00000
 1.00000  1.00000  0.00000
 0.00000  0.00000  0.38262
 0.22232  0.00000  0.36195
 0.55637  0.00000  0.34128
 0.89043  0.00000  0.32061
 1.00000  0.00000  0.29994
 0.00000  0.17274  0.34204
 0.21212  0.16324  0.32137
 0.54617  0.15375  0.30070
 0.88022  0.14425  0.28003
 1.00000  0.13476  0.25936
 0.00000  0.49335  0.30146
 0.20192  0.48385  0.28079
 0.53597  0.47436  0.26012
 0.87002  0.46486  0.23945
 1.00000  0.45537  0.21878
 0.00000  0.81396  0.26088
 0.19171  0.80446  0.24021
 0.52577  0.79497  0.21954
 0.85982  0.78547  0.19887
 1.00000  0.77598  0.17820
 0.00000  1.00000  0.22030
 0.18151  1.00000  0.19963
 0.51557  1.00000  0.17896
 0.84962  1.00000  0.15829
 1.00000  1.00000  0.13762
 0.00000  0.00000  0.71399
 0.22034  0.00000  0.69332
 0.55439  0.00000  0.67265
 0.88845  0.00000  0.65198
 1.00000  0.00000  0.63131
 0.00000  0.16912  0.67341
 0.21014  0.15962  0.65274
 0.54419  0.15013  0.63207
 0.87824  0.14063  0.61140
 1.00000  0.13114  0.59073
 0.00000  0.48973  0.63283
 0.19993  0.48023  0.61216
 0.53399  0.47074  0.59149
 0.86804  0.46124  0.57082
 1.00000  0.45175  0.55015
 0.00000  0.81034  0.59225
 0.18973  0.80084  0.57158
 0.52379  0.79135  0.55091
 0.85784  0.78185  0.53024
 1.00000  0.77236  0.50957
 0.00000  1.00000  0.55167
 0.17953  1.00000  0.53100
 0.51358  1.00000  0.51033
 0.84764  1.00000  0.48966
 1.00000  1.00000  0.46899
 0.00000  0.00000  1.00000
 0.21836  0.00000  1.00000
 0.55241  0.00000  1.00000
 0.88646  0.00000  0.98335
 1.00000  0.00000  0.96268
 0.00000  0.16550  1.00000
 0.20816  0.15600  0.98411
 0.54221  0.14651  0.96344
 0.87626  0.13701  0.94277
 1.00000  0.12752  0.92210
 0.00000  0.48611  0.96420
 0.19795  0.47661  0.94353
 0.53201  0.46712  0.92286
 0.86606  0.45762  0.90219
 1.00000  0.44813  0.88152
 0.00000  0.80672  0.92362
 0.18775  0.79722  0.90295
 0.52180  0.78773  0.88228
 0.85586  0.77823  0.86161
 1.00000  0.76874  0.84094
 0.00000  1.00000  0.88304
 0.17755  1.00000  0.86237
 0.51160  1.00000  0.84170
 0.84566  1.00000  0.82103
 1.00000  1.00000  0.80036
 0.00000  0.00000  1.00000
 0.21638  0.00000  1.00000
 0.55043  0.00000  1.00000
 0.88448  0.00000  1.00000
 1.00000  0.00000  1.00000
 0.00000  0.16188  1.00000
 0.20617  0.15238  1.00000
 0.54023  0.14289  1.00000
 0.87428  0.13339  1.00000
 1.00000  0.12390  1.00000
 0.00000  0.48249  1.00000
 0.19597  0.47299  1.00000
 0.53003  0.46350  1.00000
 0.86408  0.45400  1.00000
 1.00000  0.44451  1.00000
 0.00000  0.80310  1.00000
 0.18577  0.79360  1.00000
 0.51982  0.78411  1.00000
 0.85388  0.77461  1.00000
 1.00000  0.76512  1.00000
 0.00000  1.00000  1.00000
 0.17557  1.00000  1.00000
 0.50962  1.00000  1.00000
 0.84367  1.00000  1.00000
 1.00000  1.00000  1.00000
