src/assets/luts/cyberpunk.cube
TITLE "赛博朋克"
LUT_3D_SIZE 17
DOMAIN_MIN 0.0 0.0 0.0
DOMAIN_MAX 1.0 1.0 1.0
# LumEdit built-in LUT · 蓝紫洋红，霓虹夜色
 0.00000  0.00000  0.05125
 0.00000  0.00000  0.04608
 0.05727  0.00000  0.04091
 0.14079  0.00000  0.03575
 0.22430  0.00000  0.03058
 0.30781  0.00000  0.02541
 0.39133  0.00000  0.02024
 0.47484  0.00000  0.01508
 0.55835  0.00000  0.00991
 0.64187  0.00000  0.00474
 0.72538  0.00000  0.00000
 0.80889  0.00000  0.00000
 0.89241  0.00000  0.00000
 0.97592  0.00000  0.00000
 1.00000  0.00000  0.00000
 1.00000  0.00000  0.00000
 1.00000  0.00000  0.00000
 0.00000  0.00000  0.04110
 0.00000  0.00000  0.03594
 0.05472  0.00000  0.03077
 0.13824  0.00000  0.02560
 0.22175  0.00000  0.02043
 0.30526  0.00000  0.01527
 0.38878  0.00000  0.01010
 0.47229  0.00000  0.00493
 0.55580  0.00000  0.00000
 0.63932  0.00000  0.00000
 0.72283  0.00000  0.00000
 0.80634  0.00000  0.00000
 0.88986  0.00000  0.00000
 0.97337  0.00000  0.00000
 1.00000  0.00000  0.00000
 1.00000  0.00000  0.00000
 1.00000  0.00000  0.00000
 0.00000  0.01605  0.03096
 0.00000  0.01368  0.02579
 0.05217  0.01131  0.02062
 0.13569  0.00893  0.01546
 0.21920  0.00656  0.01029
 0.30271  0.00418  0.00512
 0.38623  0.00181  0.00000
 0.46974  0.00000  0.00000
 0.55325  0.00000  0.00000
 0.63677  0.00000  0.00000
 0.72028  0.00000  0.00000
 0.80379  0.00000  0.00000
 0.88731  0.00000  0.00000
 0.97082  0.00000  0.00000
 1.00000  0.00000  0.00000
 1.00000  0.00000  0.00000
 1.00000  0.00000  0.00000
 0.00000  0.09620  0.02081
 0.00000  0.09383  0.01565
 0.04962  0.09146  0.01048
 0.13314  0.08908  0.00531
 0.21665  0.08671  0.00014
 0.30016  0.08434  0.00000
 0.38368  0.08196  0.00000
 0.46719  0.07959  0.00000
 0.55070  0.07722  0.00000
 0.63422  0.07484  0.00000
 0.71773  0.07247  0.00000
 0.80124  0.07009  0.00000
 0.88476  0.06772  0.00000
 0.96827  0.06535  0.00000
 1.00000  0.06297  0.00000
 1.00000  0.06060  0.00000
 1.00000  0.05823  0.00000
 0.00000  0.17636  0.01067
 0.00000  0.17398  0.00550
 0.04707  0.17161  0.00033
 0.13059  0.16924  0.00000
 0.21410  0.16686  0.00000
 0.29761  0.16449  0.00000
 0.38113  0.16212  0.00000
 0.46464  0.15974  0.00000
 0.54815  0.15737  0.00000
 0.63167  0.15499  0.00000
 0.71518  0.15262  0.00000
 0.79869  0.15025  0.00000
 0.88221  0.14787  0.00000
 0.96572  0.14550  0.00000
 1.00000  0.14313  0.00000
 1.00000  0.14075  0.00000
 1.00000  0.13838  0.00000
 0.00000  0.25651  0.00052
 0.00000  0.25414  0.00000
 0.04452  0.25176  0.00000
 0.12804  0.24939  0.00000
 0.21155  0.24702  0.00000
 0.29506  0.24464  0.00000
 0.37858  0.24227  0.00000
 0.46209  0.23989  0.00000
 0.54560  0.23752  0.00000
 0.62912  0.23515  0.00000
 0.71263  0.23277  0.00000
 0.79614  0.23040  0.00000
 0.87966  0.22803  0.00000
 0.96317  0.22565  0.00000
 1.00000  0.22328  0.00000
 1.00000  0.22090  0.00000
 1.00000  0.21853  0.00000
 0.00000  0.33666  0.00000
 0.00000  0.33429  0.00000
 0.04197  0.33191  0.00000
 0.12548  0.32954  0.00000
 0.20900  0.32717  0.00000
 0.29251  0.32479  0.00000
 0.37602  0.32242  0.00000
 0.45954  0.32005  0.00000
 0.54305  0.31767  0.00000
 0.62656  0.31530  0.00000
 0.71008  0.31293  0.00000
 0.79359  0.31055  0.00000
 0.87710  0.30818  0.00000
 0.96062  0.30580  0.00000
 1.00000  0.30343  0.00000
 1.00000  0.30106  0.00000
 1.00000  0.29868  0.00000
 0.00000  0.41681  0.00000
 0.00000  0.41444  0.00000
 0.03942  0.41207  0.00000
 0.12293  0.40969  0.00000
 0.20645  0.40732  0.00000
 0.28996  0.40495  0.00000
 0.37347  0.40257  0.00000
 0.45699  0.40020  0.00000
 0.54050  0.39783  0.00000
 0.62401  0.39545  0.00000
 0.70753  0.39308  0.00000
 0.79104  0.39070  0.00000
 0.87455  0.38833  0.00000
 0.95807  0.38596  0.00000
 1.00000  0.38358  0.00000
 1.00000  0.38121  0.00000
 1.00000  0.37884  0.00000
 0.00000  0.49697  0.00000
 0.00000  0.49459  0.00000
 0.03687  0.49222  0.00000
 0.12038  0.48985  0.00000
 0.20390  0.48747  0.00000
 0.28741  0.48510  0.00000
 0.37092  0.48273  0.00000
 0.45444  0.48035  0.00000
 0.53795  0.47798  0.00000
 0.62146  0.47560  0.00000
 0.70498  0.47323  0.00000
 0.78849  0.47086  0.00000
 0.87200  0.46848  0.00000
 0.95552  0.46611  0.00000
 1.00000  0.46374  0.00000
 1.00000  0.46136  0.00000
 1.00000  0.45899  0.00000
 0.00000  0.57712  0.00000
 0.00000  0.57475  0.00000
 0.03432  0.57237  0.00000
 0.11783  0.57000  0.00000
 0.20135  0.56763  0.00000
 0.28486  0.56525  0.00000
 0.36837  0.56288  0.00000
 0.45189  0.56050  0.00000
 0.53540  0.55813  0.00000
 0.61891  0.55576  0.00000
 0.70243  0.55338  0.00000
 0.78594  0.55101  0.00000
 0.86945  0.54864  0.00000
 0.95297  0.54626  0.00000
 1.00000  0.54389  0.00000
 1.00000  0.54151  0.00000
 1.00000  0.53914  0.00000
 0.00000  0.65727  0.00000
 0.00000  0.65490  0.00000
 0.03177  0.65252  0.00000
 0.11528  0.65015  0.00000
 0.19880  0.64778  0.00000
 0.28231  0.64540  0.00000
 0.36582  0.64303  0.00000
 0.44934  0.64066  0.00000
 0.53285  0.63828  0.00000
 0.61636  0.63591  0.00000
 0.69988  0.63354  0.00000
 0.78339  0.63116  0.00000
 0.86690  0.62879  0.00000
 0.95042  0.62641  0.00000
 1.00000  0.62404  0.00000
 1.00000  0.62167  0.00000
 1.00000  0.61929  0.00000
 0.00000  0.73742  0.00000
 0.00000  0.73505  0.00000
 0.02922  0.73268  0.00000
 0.11273  0.73030  0.00000
 0.19625  0.72793  0.00000
 0.27976  0.72556  0.00000
 0.36327  0.72318  0.00000
 0.44679  0.72081  0.00000
 0.53030  0.71844  0.00000
 0.61381  0.71606  0.00000
 0.69733  0.71369  0.00000
 0.78084  0.71131  0.00000
 0.86435  0.70894  0.00000
 0.94787  0.70657  0.00000
 1.00000  0.70419  0.00000
 1.00000  0.70182  0.00000
 1.00000  0.69945  0.00000
 0.00000  0.81758  0.00000
 0.00000  0.81520  0.00000
 0.02667  0.81283  0.00000
 0.11018  0.81046  0.00000
 0.19369  0.80808  0.00000
 0.27721  0.80571  0.00000
 0.36072  0.80334  0.00000
 0.44424  0.80096  0.00000
 0.52775  0.79859  0.00000
 0.61126  0.79621  0.00000
 0.69478  0.79384  0.00000
 0.77829  0.79147  0.00000
 0.86180  0.78909  0.00000
 0.94532  0.78672  0.00000
 1.00000  0.78435  0.00000
 1.00000  0.78197  0.00000
 1.00000  0.77960  0.00000
 0.00000  0.89773  0.00000
 0.00000  0.89536  0.00000
 0.02412  0.89298  0.00000
 0.10763  0.89061  0.00000
 0.19114  0.88823  0.00000
 0.27466  0.88586  0.00000
 0.35817  0.88349  0.00000
 0.44168  0.88111  0.00000
 0.52520  0.87874  0.00000
 0.60871  0.87637  0.00000
 0.69222  0.87399  0.00000
 0.77574  0.87162  0.00000
 0.85925  0.86925  0.00000
 0.94276  0.86687  0.00000
 1.00000  0.86450  0.00000
 1.00000  0.86212  0.00000
 1.00000  0.85975  0.00000
 0.00000  0.97788  0.00000
 0.00000  0.97551  0.00000
 0.02157  0.97313  0.00000
 0.10508  0.97076  0.00000
 0.18859  0.96839  0.00000
 0.27211  0.96601  0.00000
 0.35562  0.96364  0.00000
 0.43913  0.96127  0.00000
 0.52265  0.95889  0.00000
 0.60616  0.95652  0.00000
 0.68967  0.95415  0.00000
 0.77319  0.95177  0.00000
 0.85670  0.94940  0.00000
 0.94021  0.94702  0.00000
 1.00000  0.94465  0.00000
 1.00000  0.94228  0.00000
 1.00000  0.93990  0.00000
 0.00000  1.00000  0.00000
 0.00000  1.00000  0.00000
 0.01902  1.00000  0.00000
 0.10253  1.00000  0.00000
 0.18604  1.00000  0.00000
 0.26956  1.00000  0.00000
 0.35307  1.00000  0.00000
 0.43658  1.00000  0.00000
 0.52010  1.00000  0.00000
 0.60361  1.00000  0.00000
 0.68712  1.00000  0.00000
 0.77064  1.00000  0.00000
 0.85415  1.00000  0.00000
 0.93766  1.00000  0.00000
 1.00000  1.00000  0.00000
 1.00000  1.00000  0.00000
 1.00000  1.00000  0.00000
 0.00000  1.00000  0.00000
 0.00000  1.00000  0.00000
 0.01647  1.00000  0.00000
 0.09998  1.00000  0.00000
 0.18349  1.00000  0.00000
 0.26701  1.00000  0.00000
 0.35052  1.00000  0.00000
 0.43403  1.00000  0.00000
 0.51755  1.00000  0.00000
 0.60106  1.00000  0.00000
 0.68457  1.00000  0.00000
 0.76809  1.00000  0.00000
 0.85160  1.00000  0.00000
 0.93511  1.00000  0.00000
 1.00000  1.00000  0.00000
 1.00000  1.00000  0.00000
 1.00000  1.00000  0.00000
 0.00000  0.00000  0.13409
 0.00000  0.00000  0.12892
 0.05678  0.00000  0.12375
 0.14029  0.00000  0.11859
 0.22381  0.00000  0.11342
 0.30732  0.00000  0.10825
 0.39083  0.00000  0.10309
 0.47435  0.00000  0.09792
 0.55786  0.00000  0.09275
 0.64137  0.00000  0.08758
 0.72489  0.00000  0.08242
 0.80840  0.00000  0.07725
 0.89191  0.00000  0.07208
 0.97543  0.00000  0.06691
 1.00000  0.00000  0.06175
 1.00000  0.00000  0.05658
 1.00000  0.00000  0.05141
 0.00000  0.00000  0.12394
 0.00000  0.00000  0.11878
 0.05423  0.00000  0.11361
 0.13774  0.00000  0.10844
 0.22126  0.00000  0.10328
 0.30477  0.00000  0.09811
 0.38828  0.00000  0.09294
 0.47180  0.00000  0.08777
 0.55531  0.00000  0.08261
 0.63882  0.00000  0.07744
 0.72234  0.00000  0.07227
 0.80585  0.00000  0.06710
 0.88936  0.00000  0.06194
 0.97288  0.00000  0.05677
 1.00000  0.00000  0.05160
 1.00000  0.00000  0.04643
 1.00000  0.00000  0.04127
 0.00000  0.01515  0.11380
 0.00000  0.01277  0.10863
 0.05168  0.01040  0.10347
 0.13519  0.00803  0.09830
 0.21870  0.00565  0.09313
 0.30222  0.00328  0.08796
 0.38573  0.00091  0.08280
 0.46924  0.00000  0.07763
 0.55276  0.00000  0.07246
 0.63627  0.00000  0.06729
 0.71978  0.00000  0.06213
 0.80330  0.00000  0.05696
 0.88681  0.00000  0.05179
 0.97032  0.00000  0.04662
 1.00000  0.00000  0.04146
 1.00000  0.00000  0.03629
 1.00000  0.00000  0.03112
 0.00000  0.09530  0.10366
 0.00000  0.09293  0.09849
 0.04913  0.09055  0.09332
 0.13264  0.08818  0.08815
 0.21615  0.08581  0.08299
 0.29967  0.08343  0.07782
 0.38318  0.08106  0.07265
 0.46669  0.07868  0.06748
 0.55021  0.07631  0.06232
 0.63372  0.07394  0.05715
 0.71723  0.07156  0.05198
 0.80075  0.06919  0.04681
 0.88426  0.06682  0.04165
 0.96777  0.06444  0.03648
 1.00000  0.06207  0.03131
 1.00000  0.05969  0.02614
 1.00000  0.05732  0.02098
 0.00000  0.17545  0.09351
 0.00000  0.17308  0.08834
 0.04658  0.17071  0.08318
 0.13009  0.16833  0.07801
 0.21360  0.16596  0.07284
 0.29712  0.16358  0.06767
 0.38063  0.16121  0.06251
 0.46414  0.15884  0.05734
 0.54766  0.15646  0.05217
 0.63117  0.15409  0.04700
 0.71468  0.15172  0.04184
 0.79820  0.14934  0.03667
 0.88171  0.14697  0.03150
 0.96522  0.14459  0.02633
 1.00000  0.14222  0.02117
 1.00000  0.13985  0.01600
 1.00000  0.13747  0.01083
 0.00000  0.25560  0.08337
 0.00000  0.25323  0.07820
 0.04403  0.25086  0.07303
 0.12754  0.24848  0.06786
 0.21105  0.24611  0.06270
 0.29457  0.24374  0.05753
 0.37808  0.24136  0.05236
 0.46159  0.23899  0.04719
 0.54511  0.23662  0.04203
 0.62862  0.23424  0.03686
 0.71213  0.23187  0.03169
 0.79565  0.22949  0.02652
 0.87916  0.22712  0.02136
 0.96267  0.22475  0.01619
 1.00000  0.22237  0.01102
 1.00000  0.22000  0.00585
 1.00000  0.21763  0.00069
 0.00000  0.33576  0.07322
 0.00000  0.33338  0.06805
 0.04148  0.33101  0.06289
 0.12499  0.32864  0.05772
 0.20850  0.32626  0.05255
 0.29202  0.32389  0.04738
 0.37553  0.32152  0.04222
 0.45904  0.31914  0.03705
 0.54256  0.31677  0.03188
 0.62607  0.31439  0.02671
 0.70958  0.31202  0.02155
 0.79310  0.30965  0.01638
 0.87661  0.30727  0.01121
 0.96012  0.30490  0.00604
 1.00000  0.30253  0.00088
 1.00000  0.30015  0.00000
 1.00000  0.29778  0.00000
 0.00000  0.41591  0.06308
 0.00000  0.41354  0.05791
 0.03893  0.41116  0.05274
 0.12244  0.40879  0.04757
 0.20595  0.40642  0.04241
 0.28947  0.40404  0.03724
 0.37298  0.40167  0.03207
 0.45649  0.39929  0.02690
 0.54001  0.39692  0.02174
 0.62352  0.39455  0.01657
 0.70703  0.39217  0.01140
 0.79055  0.38980  0.00623
 0.87406  0.38743  0.00107
 0.95757  0.38505  0.00000
 1.00000  0.38268  0.00000
 1.00000  0.38030  0.00000
 1.00000  0.37793  0.00000
 0.00000  0.49606  0.05293
 0.00000  0.49369  0.04776
 0.03637  0.49131  0.04260
 0.11989  0.48894  0.03743
 0.20340  0.48657  0.03226
 0.28691  0.48419  0.02709
 0.37043  0.48182  0.02193
 0.45394  0.47945  0.01676
 0.53746  0.47707  0.01159
 0.62097  0.47470  0.00642
 0.70448  0.47233  0.00126
 0.78800  0.46995  0.00000
 0.87151  0.46758  0.00000
 0.95502  0.46520  0.00000
 1.00000  0.46283  0.00000
 1.00000  0.46046  0.00000
 1.00000  0.45808  0.00000
 0.00000  0.57621  0.04279
 0.00000  0.57384  0.03762
 0.03382  0.57147  0.03245
 0.11734  0.56909  0.02728
 0.20085  0.56672  0.02212
 0.28436  0.56435  0.01695
 0.36788  0.56197  0.01178
 0.45139  0.55960  0.00661
 0.53490  0.55723  0.00145
 0.61842  0.55485  0.00000
 0.70193  0.55248  0.00000
 0.78544  0.55010  0.00000
 0.86896  0.54773  0.00000
 0.95247  0.54536  0.00000
 1.00000  0.54298  0.00000
 1.00000  0.54061  0.00000
 1.00000  0.53824  0.00000
 0.00000  0.65637  0.03264
 0.00000  0.65399  0.02747
 0.03127  0.65162  0.02231
 0.11479  0.64925  0.01714
 0.19830  0.64687  0.01197
 0.28181  0.64450  0.00680
 0.36533  0.64213  0.00164
 0.44884  0.63975  0.00000
 0.53235  0.63738  0.00000
 0.61587  0.63500  0.00000
 0.69938  0.63263  0.00000
 0.78289  0.63026  0.00000
 0.86641  0.62788  0.00000
 0.94992  0.62551  0.00000
 1.00000  0.62314  0.00000
 1.00000  0.62076  0.00000
 1.00000  0.61839  0.00000
 0.00000  0.73652  0.02250
 0.00000  0.73415  0.01733
 0.02872  0.73177  0.01216
 0.11224  0.72940  0.00699
 0.19575  0.72702  0.00183
 0.27926  0.72465  0.00000
 0.36278  0.72228  0.00000
 0.44629  0.71990  0.00000
 0.52980  0.71753  0.00000
 0.61332  0.71516  0.00000
 0.69683  0.71278  0.00000
 0.78034  0.71041  0.00000
 0.86386  0.70804  0.00000
 0.94737  0.70566  0.00000
 1.00000  0.70329  0.00000
 1.00000  0.70091  0.00000
 1.00000  0.69854  0.00000
 0.00000  0.81667  0.01235
 0.00000  0.81430  0.00718
 0.02617  0.81192  0.00202
 0.10969  0.80955  0.00000
 0.19320  0.80718  0.00000
 0.27671  0.80480  0.00000
 0.36023  0.80243  0.00000
 0.44374  0.80006  0.00000
 0.52725  0.79768  0.00000
 0.61077  0.79531  0.00000
 0.69428  0.79294  0.00000
 0.77779  0.79056  0.00000
 0.86131  0.78819  0.00000
 0.94482  0.78581  0.00000
 1.00000  0.78344  0.00000
 1.00000  0.78107  0.00000
 1.00000  0.77869  0.00000
 0.00000  0.89682  0.00221
 0.00000  0.89445  0.00000
 0.02362  0.89208  0.00000
 0.10714  0.88970  0.00000
 0.19065  0.88733  0.00000
 0.27416  0.88496  0.00000
 0.35768  0.88258  0.00000
 0.44119  0.88021  0.00000
 0.52470  0.87784  0.00000
 0.60822  0.87546  0.00000
 0.69173  0.87309  0.00000
 0.77524  0.87071  0.00000
 0.85876  0.86834  0.00000
 0.94227  0.86597  0.00000
 1.00000  0.86359  0.00000
 1.00000  0.86122  0.00000
 1.00000  0.85885  0.00000
 0.00000  0.97698  0.00000
 0.00000  0.97460  0.00000
 0.02107  0.97223  0.00000
 0.10459  0.96986  0.00000
 0.18810  0.96748  0.00000
 0.27161  0.96511  0.00000
 0.35513  0.96274  0.00000
 0.43864  0.96036  0.00000
 0.52215  0.95799  0.00000
 0.60567  0.95561  0.00000
 0.68918  0.95324  0.00000
 0.77269  0.95087  0.00000
 0.85621  0.94849  0.00000
 0.93972  0.94612  0.00000
 1.00000  0.94375  0.00000
 1.00000  0.94137  0.00000
 1.00000  0.93900  0.00000
 0.00000  1.00000  0.00000
 0.00000  1.00000  0.00000
 0.01852  1.00000  0.00000
 0.10203  1.00000  0.00000
 0.18555  1.00000  0.00000
 0.26906  1.00000  0.00000
 0.35257  1.00000  0.00000
 0.43609  1.00000  0.00000
 0.51960  1.00000  0.00000
 0.60311  1.00000  0.00000
 0.68663  1.00000  0.00000
 0.77014  1.00000  0.00000
 0.85365  1.00000  0.00000
 0.93717  1.00000  0.00000
 1.00000  1.00000  0.00000
 1.00000  1.00000  0.00000
 1.00000  1.00000  0.00000
 0.00000  1.00000  0.00000
 0.00000  1.00000  0.00000
 0.01597  1.00000  0.00000
 0.09948  1.00000  0.00000
 0.18300  1.00000  0.00000
 0.26651  1.00000  0.00000
 0.35002  1.00000  0.00000
 0.43354  1.00000  0.00000
 0.51705  1.00000  0.00000
 0.60056  1.00000  0.00000
 0.68408  1.00000  0.00000
 0.76759  1.00000  0.00000
 0.85110  1.00000  0.00000
 0.93462  1.00000  0.00000
 1.00000  1.00000  0.00000
 1.00000  1.00000  0.00000
 1.00000  1.00000  0.00000
 0.00000  0.00000  0.21693
 0.00000  0.00000  0.21176
 0.05628  0.00000  0.20660
 0.13980  0.00000  0.20143
 0.22331  0.00000  0.19626
 0.30682  0.00000  0.19109
 0.39034  0.00000  0.18593
 0.47385  0.00000  0.18076
 0.55736  0.00000  0.17559
 0.64088  0.00000  0.17042
 0.72439  0.00000  0.16526
 0.80790  0.00000  0.16009
 0.89142  0.00000  0.15492
 0.97493  0.00000  0.14976
 1.00000  0.00000  0.14459
 1.00000  0.00000  0.13942
 1.00000  0.00000  0.13425
 0.00000  0.00000  0.20679
 0.00000  0.00000  0.20162
 0.05373  0.00000  0.19645
 0.13725  0.00000  0.19128
 0.22076  0.00000  0.18612
 0.30427  0.00000  0.18095
 0.38779  0.00000  0.17578
 0.47130  0.00000  0.17062
 0.55481  0.00000  0.16545
 0.63833  0.00000  0.16028
 0.72184  0.00000  0.15511
 0.80535  0.00000  0.14995
 0.88887  0.00000  0.14478
 0.97238  0.00000  0.13961
 1.00000  0.00000  0.13444
 1.00000  0.00000  0.12928
 1.00000  0.00000  0.12411
 0.00000  0.01424  0.19664
 0.00000  0.01187  0.19148
 0.05118  0.00950  0.18631
 0.13470  0.00712  0.18114
 0.21821  0.00475  0.17597
 0.30172  0.00237  0.17081
 0.38524  0.00000  0.16564
 0.46875  0.00000  0.16047
 0.55226  0.00000  0.15530
 0.63578  0.00000  0.15014
 0.71929  0.00000  0.14497
 0.80280  0.00000  0.13980
 0.88632  0.00000  0.13463
 0.96983  0.00000  0.12947
 1.00000  0.00000  0.12430
 1.00000  0.00000  0.11913
 1.00000  0.00000  0.11396
 0.00000  0.09439  0.18650
 0.00000  0.09202  0.18133
 0.04863  0.08965  0.17616
 0.13215  0.08727  0.17100
 0.21566  0.08490  0.16583
 0.29917  0.08253  0.16066
 0.38269  0.08015  0.15549
 0.46620  0.07778  0.15033
 0.54971  0.07541  0.14516
 0.63323  0.07303  0.13999
 0.71674  0.07066  0.13482
 0.80025  0.06828  0.12966
 0.88377  0.06591  0.12449
 0.96728  0.06354  0.11932
 1.00000  0.06116  0.11415
 1.00000  0.05879  0.10899
 1.00000  0.05642  0.10382
 0.00000  0.17455  0.17635
 0.00000  0.17217  0.17119
 0.04608  0.16980  0.16602
 0.12959  0.16743  0.16085
 0.21311  0.16505  0.15568
 0.29662  0.16268  0.15052
 0.38013  0.16031  0.14535
 0.46365  0.15793  0.14018
 0.54716  0.15556  0.13501
 0.63068  0.15318  0.12985
 0.71419  0.15081  0.12468
 0.79770  0.14844  0.11951
 0.88122  0.14606  0.11434
 0.96473  0.14369  0.10918
 1.00000  0.14132  0.10401
 1.00000  0.13894  0.09884
 1.00000  0.13657  0.09367
 0.00000  0.25470  0.16621
 0.00000  0.25233  0.16104
 0.04353  0.24995  0.15587
 0.12704  0.24758  0.15071
 0.21056  0.24521  0.14554
 0.29407  0.24283  0.14037
 0.37758  0.24046  0.13520
 0.46110  0.23808  0.13004
 0.54461  0.23571  0.12487
 0.62812  0.23334  0.11970
 0.71164  0.23096  0.11453
 0.79515  0.22859  0.10937
 0.87866  0.22622  0.10420
 0.96218  0.22384  0.09903
 1.00000  0.22147  0.09386
 1.00000  0.21909  0.08870
 1.00000  0.21672  0.08353
 0.00000  0.33485  0.15606
 0.00000  0.33248  0.15090
 0.04098  0.33010  0.14573
 0.12449  0.32773  0.14056
 0.20801  0.32536  0.13539
 0.29152  0.32298  0.13023
 0.37503  0.32061  0.12506
 0.45855  0.31824  0.11989
 0.54206  0.31586  0.11472
 0.62557  0.31349  0.10956
 0.70909  0.31112  0.10439
 0.79260  0.30874  0.09922
 0.87611  0.30637  0.09405
 0.95963  0.30399  0.08889
 1.00000  0.30162  0.08372
 1.00000  0.29925  0.07855
 1.00000  0.29687  0.07338
 0.00000  0.41500  0.14592
 0.00000  0.41263  0.14075
 0.03843  0.41026  0.13558
 0.12194  0.40788  0.13042
 0.20546  0.40551  0.12525
 0.28897  0.40314  0.12008
 0.37248  0.40076  0.11491
 0.45600  0.39839  0.10975
 0.53951  0.39602  0.10458
 0.62302  0.39364  0.09941
 0.70654  0.39127  0.09424
 0.79005  0.38889  0.08908
 0.87356  0.38652  0.08391
 0.95708  0.38415  0.07874
 1.00000  0.38177  0.07357
 1.00000  0.37940  0.06841
 1.00000  0.37703  0.06324
 0.00000  0.49516  0.13577
 0.00000  0.49278  0.13061
 0.03588  0.49041  0.12544
 0.11939  0.48804  0.12027
 0.20291  0.48566  0.11510
 0.28642  0.48329  0.10994
 0.36993  0.48092  0.10477
 0.45345  0.47854  0.09960
 0.53696  0.47617  0.09443
 0.62047  0.47379  0.08927
 0.70399  0.47142  0.08410
 0.78750  0.46905  0.07893
 0.87101  0.46667  0.07376
 0.95453  0.46430  0.06860
 1.00000  0.46193  0.06343
 1.00000  0.45955  0.05826
 1.00000  0.45718  0.05309
 0.00000  0.57531  0.12563
 0.00000  0.57294  0.12046
 0.03333  0.57056  0.11529
 0.11684  0.56819  0.11013
 0.20036  0.56582  0.10496
 0.28387  0.56344  0.09979
 0.36738  0.56107  0.09462
 0.45090  0.55869  0.08946
 0.53441  0.55632  0.08429
 0.61792  0.55395  0.07912
 0.70144  0.55157  0.07395
 0.78495  0.54920  0.06879
 0.86846  0.54683  0.06362
 0.95198  0.54445  0.05845
 1.00000  0.54208  0.05328
 1.00000  0.53970  0.04812
 1.00000  0.53733  0.04295
 0.00000  0.65546  0.11548
 0.00000  0.65309  0.11032
 0.03078  0.65071  0.10515
 0.11429  0.64834  0.09998
 0.19781  0.64597  0.09481
 0.28132  0.64359  0.08965
 0.36483  0.64122  0.08448
 0.44835  0.63885  0.07931
 0.53186  0.63647  0.07414
 0.61537  0.63410  0.06898
 0.69889  0.63173  0.06381
 0.78240  0.62935  0.05864
 0.86591  0.62698  0.05347
 0.94943  0.62460  0.04831
 1.00000  0.62223  0.04314
 1.00000  0.61986  0.03797
 1.00000  0.61748  0.03280
 0.00000  0.73561  0.10534
 0.00000  0.73324  0.10017
 0.02823  0.73087  0.09500
 0.11174  0.72849  0.08984
 0.19525  0.72612  0.08467
 0.27877  0.72375  0.07950
 0.36228  0.72137  0.07433
 0.44579  0.71900  0.06917
 0.52931  0.71663  0.06400
 0.61282  0.71425  0.05883
 0.69633  0.71188  0.05366
 0.77985  0.70950  0.04850
 0.86336  0.70713  0.04333
 0.94687  0.70476  0.03816
 1.00000  0.70238  0.03299
 1.00000  0.70001  0.02783
 1.00000  0.69764  0.02266
 0.00000  0.81577  0.09519
 0.00000  0.81339  0.09003
 0.02568  0.81102  0.08486
 0.10919  0.80865  0.07969
 0.19270  0.80627  0.07452
 0.27622  0.80390  0.06936
 0.35973  0.80153  0.06419
 0.44324  0.79915  0.05902
 0.52676  0.79678  0.05385
 0.61027  0.79440  0.04869
 0.69378  0.79203  0.04352
 0.77730  0.78966  0.03835
 0.86081  0.78728  0.03318
 0.94432  0.78491  0.02802
 1.00000  0.78254  0.02285
 1.00000  0.78016  0.01768
 1.00000  0.77779  0.01252
 0.00000  0.89592  0.08505
 0.00000  0.89355  0.07988
 0.02313  0.89117  0.07471
 0.10664  0.88880  0.06955
 0.19015  0.88642  0.06438
 0.27367  0.88405  0.05921
 0.35718  0.88168  0.05404
 0.44069  0.87930  0.04888
 0.52421  0.87693  0.04371
 0.60772  0.87456  0.03854
 0.69123  0.87218  0.03337
 0.77475  0.86981  0.02821
 0.85826  0.86744  0.02304
 0.94177  0.86506  0.01787
 1.00000  0.86269  0.01271
 1.00000  0.86031  0.00754
 1.00000  0.85794  0.00237
 0.00000  0.97607  0.07490
 0.00000  0.97370  0.06974
 0.02058  0.97132  0.06457
 0.10409  0.96895  0.05940
 0.18760  0.96658  0.05423
 0.27112  0.96420  0.04907
 0.35463  0.96183  0.04390
 0.43814  0.95946  0.03873
 0.52166  0.95708  0.03357
 0.60517  0.95471  0.02840
 0.68868  0.95234  0.02323
 0.77220  0.94996  0.01806
 0.85571  0.94759  0.01290
 0.93922  0.94521  0.00773
 1.00000  0.94284  0.00256
 1.00000  0.94047  0.00000
 1.00000  0.93809  0.00000
 0.00000  1.00000  0.06476
 0.00000  1.00000  0.05959
 0.01803  1.00000  0.05443
 0.10154  1.00000  0.04926
 0.18505  1.00000  0.04409
 0.26857  1.00000  0.03892
 0.35208  1.00000  0.03376
 0.43559  1.00000  0.02859
 0.51911  1.00000  0.02342
 0.60262  1.00000  0.01825
 0.68613  1.00000  0.01309
 0.76965  1.00000  0.00792
 0.85316  1.00000  0.00275
 0.93667  1.00000  0.00000
 1.00000  1.00000  0.00000
 1.00000  1.00000  0.00000
 1.00000  1.00000  0.00000
 0.00000  1.00000  0.05462
 0.00000  1.00000  0.04945
 0.01548  1.00000  0.04428
 0.09899  1.00000  0.03911
 0.18250  1.00000  0.03395
 0.26602  1.00000  0.02878
 0.34953  1.00000  0.02361
 0.43304  1.00000  0.01844
 0.51656  1.00000  0.01328
 0.60007  1.00000  0.00811
 0.68358  1.00000  0.00294
 0.76710  1.00000  0.00000
 0.85061  1.00000  0.00000
 0.93412  1.00000  0.00000
 1.00000  1.00000  0.00000
 1.00000  1.00000  0.00000
 1.00000  1.00000  0.00000
 0.00000  0.00000  0.29977
 0.00000  0.00000  0.29461
 0.05579  0.00000  0.28944
 0.13930  0.00000  0.28427
 0.22281  0.00000  0.27910
 0.30633  0.00000  0.27394
 0.38984  0.00000  0.26877
 0.47336  0.00000  0.26360
 0.55687  0.00000  0.25843
 0.64038  0.00000  0.25327
 0.72390  0.00000  0.24810
 0.80741  0.00000  0.24293
 0.89092  0.00000  0.23776
 0.97444  0.00000  0.23260
 1.00000  0.00000  0.22743
 1.00000  0.00000  0.22226
 1.00000  0.00000  0.21710
