src/assets/luts/cyberpunk.cube
TITLE "赛博朋克"
LUT_3D_SIZE 9
DOMAIN_MIN 0.0 0.0 0.0
DOMAIN_MAX 1.0 1.0 1.0
# LumEdit built-in LUT · 蓝紫洋红，霓虹夜色
 0.00000  0.00000  0.05125
 0.05727  0.00000  0.04091
 0.22430  0.00000  0.03058
 0.39133  0.00000  0.02024
 0.55835  0.00000  0.00991
 0.72538  0.00000  0.00000
 0.89241  0.00000  0.00000
 1.00000  0.00000  0.00000
 1.00000  0.00000  0.00000
 0.00000  0.01605  0.03096
 0.05217  0.01131  0.02062
 0.21920  0.00656  0.01029
 0.38623  0.00181  0.00000
 0.55325  0.00000  0.00000
 0.72028  0.00000  0.00000
 0.88731  0.00000  0.00000
 1.00000  0.00000  0.00000
 1.00000  0.00000  0.00000
 0.00000  0.17636  0.01067
 0.04707  0.17161  0.00033
 0.21410  0.16686  0.00000
 0.38113  0.16212  0.00000
 0.54815  0.15737  0.00000
 0.71518  0.15262  0.00000
 0.88221  0.14787  0.00000
 1.00000  0.14313  0.00000
 1.00000  0.13838  0.00000
 0.00000  0.33666  0.00000
 0.04197  0.33191  0.00000
 0.20900  0.32717  0.00000
 0.37602  0.32242  0.00000
 0.54305  0.31767  0.00000
 0.71008  0.31293  0.00000
 0.87710  0.30818  0.00000
 1.00000  0.30343  0.00000
 1.00000  0.29868  0.00000
 0.00000  0.49697  0.00000
 0.03687  0.49222  0.00000
 0.20390  0.48747  0.00000
 0.37092  0.48273  0.00000
 0.53795  0.47798  0.00000
 0.70498  0.47323  0.00000
 0.87200  0.46848  0.00000
 1.00000  0.46374  0.00000
 1.00000  0.45899  0.00000
 0.00000  0.65727  0.00000
 0.03177  0.65252  0.00000
 0.19880  0.64778  0.00000
 0.36582  0.64303  0.00000
 0.53285  0.63828  0.00000
 0.69988  0.63354  0.00000
 0.86690  0.62879  0.00000
 1.00000  0.62404  0.00000
 1.00000  0.61929  0.00000
 0.00000  0.81758  0.00000
 0.02667  0.81283  0.00000
 0.19369  0.80808  0.00000
 0.36072  0.80334  0.00000
 0.52775  0.79859  0.00000
 0.69478  0.79384  0.00000
 0.86180  0.78909  0.00000
 1.00000  0.78435  0.00000
 1.00000  0.77960  0.00000
 0.00000  0.97788  0.00000
 0.02157  0.97313  0.00000
 0.18859  0.96839  0.00000
 0.35562  0.96364  0.00000
 0.52265  0.95889  0.00000
 0.68967  0.95415  0.00000
 0.85670  0.94940  0.00000
 1.00000  0.94465  0.00000
 1.00000  0.93990  0.00000
 0.00000  1.00000  0.00000
 0.01647  1.00000  0.00000
 0.18349  1.00000  0.00000
 0.35052  1.00000  0.00000
 0.51755  1.00000  0.00000
 0.68457  1.00000  0.00000
 0.85160  1.00000  0.00000
 1.00000  1.00000  0.00000
 1.00000  1.00000  0.00000
 0.00000  0.00000  0.21693
 0.05628  0.00000  0.20660
 0.22331  0.00000  0.19626
 0.39034  0.00000  0.18593
 0.55736  0.00000  0.17559
 0.72439  0.00000  0.16526
 0.89142  0.00000  0.15492
 1.00000  0.00000  0.14459
 1.00000  0.00000  0.13425
 0.00000  0.01424  0.19664
 0.05118  0.00950  0.18631
 0.21821  0.00475  0.17597
 0.38524  0.00000  0.16564
 0.55226  0.00000  0.15530
 0.71929  0.00000  0.14497
 0.88632  0.00000  0.13463
 1.00000  0.00000  0.12430
 1.00000  0.00000  0.11396
 0.00000  0.17455  0.17635
 0.04608  0.16980  0.16602
 0.21311  0.16505  0.15568
 0.38013  0.16031  0.14535
 0.54716  0.15556  0.13501
 0.71419  0.15081  0.12468
 0.88122  0.14606  0.11434
 1.00000  0.14132  0.10401
 1.00000  0.13657  0.09367
 0.00000  0.33485  0.15606
 0.04098  0.33010  0.14573
 0.20801  0.32536  0.13539
 0.37503  0.32061  0.12506
 0.54206  0.31586  0.11472
 0.70909  0.31112  0.10439
 0.87611  0.30637  0.09405
 1.00000  0.30162  0.08372
 1.00000  0.29687  0.07338
 0.00000  0.49516  0.13577
 0.03588  0.49041  0.12544
 0.20291  0.48566  0.11510
 0.36993  0.48092  0.10477
 0.53696  0.47617  0.09443
 0.70399  0.47142  0.08410
 0.87101  0.46667  0.07376
 1.00000  0.46193  0.06343
 1.00000  0.45718  0.05309
 0.00000  0.65546  0.11548
 0.03078  0.65071  0.10515
 0.19781  0.64597  0.09481
 0.36483  0.64122  0.08448
 0.53186  0.63647  0.07414
 0.69889  0.63173  0.06381
 0.86591  0.62698  0.05347
 1.00000  0.62223  0.04314
 1.00000  0.61748  0.03280
 0.00000  0.81577  0.09519
 0.02568  0.81102  0.08486
 0.19270  0.80627  0.07452
 0.35973  0.80153  0.06419
 0.52676  0.79678  0.05385
 0.69378  0.79203  0.04352
 0.86081  0.78728  0.03318
 1.00000  0.78254  0.02285
 1.00000  0.77779  0.01252
 0.00000  0.97607  0.07490
 0.02058  0.97132  0.06457
 0.18760  0.96658  0.05423
 0.35463  0.96183  0.04390
 0.52166  0.95708  0.03357
 0.68868  0.95234  0.02323
 0.85571  0.94759  0.01290
 1.00000  0.94284  0.00256
 1.00000  0.93809  0.00000
 0.00000  1.00000  0.05462
 0.01548  1.00000  0.04428
 0.18250  1.00000  0.03395
 0.34953  1.00000  0.02361
 0.51656  1.00000  0.01328
 0.68358  1.00000  0.00294
 0.85061  1.00000  0.00000
 1.00000  1.00000  0.00000
 1.00000  1.00000  0.00000
 0.00000  0.00000  0.38262
 0.05529  0.00000  0.37228
 0.22232  0.00000  0.36195
 0.38935  0.00000  0.35161
 0.55637  0.00000  0.34128
 0.72340  0.00000  0.33094
 0.89043  0.00000  0.32061
 1.00000  0.00000  0.31027
 1.00000  0.00000  0.29994
 0.00000  0.01243  0.36233
 0.05019  0.00769  0.35199
 0.21722  0.00294  0.34166
 0.38425  0.00000  0.33132
 0.55127  0.00000  0.32099
 0.71830  0.00000  0.31065
 0.88533  0.00000  0.30032
 1.00000  0.00000  0.28998
 1.00000  0.00000  0.27965
 0.00000  0.17274  0.34204
 0.04509  0.16799  0.33170
 0.21212  0.16324  0.32137
 0.37914  0.15850  0.31103
 0.54617  0.15375  0.30070
 0.71320  0.14900  0.29036
 0.88022  0.14425  0.28003
 1.00000  0.13951  0.26969
 1.00000  0.13476  0.25936
 0.00000  0.33304  0.32175
 0.03999  0.32829  0.31141
 0.20702  0.32355  0.30108
 0.37404  0.31880  0.29074
 0.54107  0.31405  0.28041
 0.70810  0.30931  0.27007
 0.87512  0.30456  0.25974
 1.00000  0.29981  0.24940
 1.00000  0.29506  0.23907
 0.00000  0.49335  0.30146
 0.03489  0.48860  0.29112
 0.20192  0.48385  0.28079
 0.36894  0.47911  0.27045
 0.53597  0.47436  0.26012
 0.70300  0.46961  0.24978
 0.87002  0.46486  0.23945
 1.00000  0.46012  0.22911
 1.00000  0.45537  0.21878
 0.00000  0.65365  0.28117
 0.02979  0.64890  0.27083
 0.19681  0.64416  0.26050
 0.36384  0.63941  0.25016
 0.53087  0.63466  0.23983
 0.69789  0.62992  0.22949
 0.86492  0.62517  0.21916
 1.00000  0.62042  0.20882
 1.00000  0.61567  0.19849
 0.00000  0.81396  0.26088
 0.02469  0.80921  0.25054
 0.19171  0.80446  0.24021
 0.35874  0.79972  0.22987
 0.52577  0.79497  0.21954
 0.69279  0.79022  0.20920
 0.85982  0.78547  0.19887
 1.00000  0.78073  0.18853
 1.00000  0.77598  0.17820
 0.00000  0.97426  0.24059
 0.01959  0.96951  0.23025
 0.18661  0.96477  0.21992
 0.35364  0.96002  0.20958
 0.52067  0.95527  0.19925
 0.68769  0.95053  0.18891
 0.85472  0.94578  0.17858
 1.00000  0.94103  0.16824
 1.00000  0.93628  0.15791
 0.00000  1.00000  0.22030
 0.01448  1.00000  0.20996
 0.18151  1.00000  0.19963
 0.34854  1.00000  0.18929
 0.51557  1.00000  0.17896
 0.68259  1.00000  0.16863
 0.84962  1.00000  0.15829
 1.00000  1.00000  0.14796
 1.00000  1.00000  0.13762
 0.00000  0.00000  0.54830
 0.05430  0.00000  0.53797
 0.22133  0.00000  0.52763
 0.38836  0.00000  0.51730
 0.55538  0.00000  0.50696
 0.72241  0.00000  0.49663
 0.88944  0.00000  0.48629
 1.00000  0.00000  0.47596
 1.00000  0.00000  0.46562
 0.00000  0.01062  0.52801
 0.04920  0.00588  0.51768
 0.21623  0.00113  0.50734
 0.38325  0.00000  0.49701
 0.55028  0.00000  0.48667
 0.71731  0.00000  0.47634
 0.88433  0.00000  0.46600
 1.00000  0.00000  0.45567
 1.00000  0.00000  0.44533
 0.00000  0.17093  0.50772
 0.04410  0.16618  0.49739
 0.21113  0.16143  0.48705
 0.37815  0.15669  0.47672
 0.54518  0.15194  0.46638
 0.71221  0.14719  0.45605
 0.87923  0.14244  0.44571
 1.00000  0.13770  0.43538
 1.00000  0.13295  0.42504
 0.00000  0.33123  0.48743
 0.03900  0.32648  0.47710
 0.20603  0.32174  0.46676
 0.37305  0.31699  0.45643
 0.54008  0.31224  0.44609
 0.70711  0.30750  0.43576
 0.87413  0.30275  0.42542
 1.00000  0.29800  0.41509
 1.00000  0.29325  0.40475
 0.00000  0.49154  0.46714
 0.03390  0.48679  0.45681
 0.20092  0.48204  0.44647
 0.36795  0.47730  0.43614
 0.53498  0.47255  0.42580
 0.70201  0.46780  0.41547
 0.86903  0.46305  0.40513
 1.00000  0.45831  0.39480
 1.00000  0.45356  0.38446
 0.00000  0.65184  0.44685
 0.02880  0.64709  0.43652
 0.19582  0.64235  0.42618
 0.36285  0.63760  0.41585
 0.52988  0.63285  0.40551
 0.69690  0.62811  0.39518
 0.86393  0.62336  0.38484
 1.00000  0.61861  0.37451
 1.00000  0.61386  0.36417
 0.00000  0.81215  0.42656
 0.02370  0.80740  0.41623
 0.19072  0.80265  0.40589
 0.35775  0.79791  0.39556
 0.52478  0.79316  0.38522
 0.69180  0.78841  0.37489
 0.85883  0.78366  0.36455
 1.00000  0.77892  0.35422
 1.00000  0.77417  0.34388
 0.00000  0.97245  0.40627
 0.01860  0.96770  0.39594
 0.18562  0.96296  0.38560
 0.35265  0.95821  0.37527
 0.51968  0.95346  0.36493
 0.68670  0.94872  0.35460
 0.85373  0.94397  0.34426
 1.00000  0.93922  0.33393
 1.00000  0.93447  0.32359
 0.00000  1.00000  0.38598
 0.01349  1.00000  0.37565
 0.18052  1.00000  0.36531
 0.34755  1.00000  0.35498
 0.51457  1.00000  0.34464
 0.68160  1.00000  0.33431
 0.84863  1.00000  0.32397
 1.00000  1.00000  0.31364
 1.00000  1.00000  0.30331
 0.00000  0.00000  0.71399
 0.05331  0.00000  0.70365
 0.22034  0.00000  0.69332
 0.38737  0.00000  0.68298
 0.55439  0.00000  0.67265
 0.72142  0.00000  0.66231
 0.88845  0.00000  0.65198
 1.00000  0.00000  0.64164
 1.00000  0.00000  0.63131
 0.00000  0.00881  0.69370
 0.04821  0.00406  0.68336
 0.21524  0.00000  0.67303
 0.38226  0.00000  0.66269
 0.54929  0.00000  0.65236
 0.71632  0.00000  0.64202
 0.88334  0.00000  0.63169
 1.00000  0.00000  0.62135
 1.00000  0.00000  0.61102
 0.00000  0.16912  0.67341
 0.04311  0.16437  0.66307
 0.21014  0.15962  0.65274
 0.37716  0.15488  0.64240
 0.54419  0.15013  0.63207
 0.71122  0.14538  0.62173
 0.87824  0.14063  0.61140
 1.00000  0.13589  0.60106
 1.00000  0.13114  0.59073
 0.00000  0.32942  0.65312
 0.03801  0.32467  0.64278
 0.20504  0.31993  0.63245
 0.37206  0.31518  0.62211
 0.53909  0.31043  0.61178
 0.70612  0.30569  0.60144
 0.87314  0.30094  0.59111
 1.00000  0.29619  0.58077
 1.00000  0.29144  0.57044
 0.00000  0.48973  0.63283
 0.03291  0.48498  0.62249
 0.19993  0.48023  0.61216
 0.36696  0.47549  0.60182
 0.53399  0.47074  0.59149
 0.70101  0.46599  0.58115
 0.86804  0.46124  0.57082
 1.00000  0.45650  0.56048
 1.00000  0.45175  0.55015
 0.00000  0.65003  0.61254
 0.02781  0.64528  0.60220
 0.19483  0.64054  0.59187
 0.36186  0.63579  0.58153
 0.52889  0.63104  0.57120
 0.69591  0.62630  0.56086
 0.86294  0.62155  0.55053
 1.00000  0.61680  0.54019
 1.00000  0.61205  0.52986
 0.00000  0.81034  0.59225
 0.02271  0.80559  0.58191
 0.18973  0.80084  0.57158
 0.35676  0.79609  0.56124
 0.52379  0.79135  0.55091
 0.69081  0.78660  0.54057
 0.85784  0.78185  0.53024
 1.00000  0.77711  0.51990
 1.00000  0.77236  0.50957
 0.00000  0.97064  0.57196
 0.01760  0.96589  0.56162
 0.18463  0.96115  0.55129
 0.35166  0.95640  0.54095
 0.51868  0.95165  0.53062
 0.68571  0.94691  0.52028
 0.85274  0.94216  0.50995
 1.00000  0.93741  0.49961
 1.00000  0.93266  0.48928
 0.00000  1.00000  0.55167
 0.01250  1.00000  0.54133
 0.17953  1.00000  0.53100
 0.34656  1.00000  0.52066
 0.51358  1.00000  0.51033
 0.68061  1.00000  0.49999
 0.84764  1.00000  0.48966
 1.00000  1.00000  0.47932
 1.00000  1.00000  0.46899
 0.00000  0.00000  0.87967
 0.05232  0.00000  0.86934
 0.21935  0.00000  0.85900
 0.38637  0.00000  0.84867
 0.55340  0.00000  0.83833
 0.72043  0.00000  0.82800
 0.88745  0.00000  0.81766
 1.00000  0.00000  0.80733
 1.00000  0.00000  0.79699
 0.00000  0.00700  0.85938
 0.04722  0.00225  0.84905
 0.21425  0.00000  0.83871
 0.38127  0.00000  0.82838
 0.54830  0.00000  0.81804
 0.71533  0.00000  0.80771
 0.88235  0.00000  0.79737
 1.00000  0.00000  0.78704
 1.00000  0.00000  0.77670
 0.00000  0.16731  0.83909
 0.04212  0.16256  0.82876
 0.20915  0.15781  0.81842
 0.37617  0.15307  0.80809
 0.54320  0.14832  0.79775
 0.71023  0.14357  0.78742
 0.87725  0.13882  0.77708
 1.00000  0.13408  0.76675
 1.00000  0.12933  0.75641
 0.00000  0.32761  0.81880
 0.03702  0.32286  0.80847
 0.20404  0.31812  0.79813
 0.37107  0.31337  0.78780
 0.53810  0.30862  0.77746
 0.70512  0.30388  0.76713
 0.87215  0.29913  0.75679
 1.00000  0.29438  0.74646
 1.00000  0.28963  0.73612
 0.00000  0.48792  0.79851
 0.03192  0.48317  0.78818
 0.19894  0.47842  0.77784
 0.36597  0.47368  0.76751
 0.53300  0.46893  0.75717
 0.70002  0.46418  0.74684
 0.86705  0.45943  0.73650
 1.00000  0.45469  0.72617
 1.00000  0.44994  0.71583
 0.00000  0.64822  0.77822
 0.02682  0.64347  0.76789
 0.19384  0.63873  0.75755
 0.36087  0.63398  0.74722
 0.52790  0.62923  0.73688
 0.69492  0.62449  0.72655
 0.86195  0.61974  0.71621
 1.00000  0.61499  0.70588
 1.00000  0.61024  0.69554
 0.00000  0.80853  0.75793
 0.02171  0.80378  0.74760
 0.18874  0.79903  0.73726
 0.35577  0.79428  0.72693
 0.52280  0.78954  0.71659
 0.68982  0.78479  0.70626
 0.85685  0.78004  0.69592
 1.00000  0.77530  0.68559
 1.00000  0.77055  0.67525
 0.00000  0.96883  0.73764
 0.01661  0.96408  0.72731
 0.18364  0.95934  0.71697
 0.35067  0.95459  0.70664
 0.51769  0.94984  0.69630
 0.68472  0.94510  0.68597
 0.85175  0.94035  0.67563
 1.00000  0.93560  0.66530
 1.00000  0.93085  0.65496
 0.00000  1.00000  0.71735
 0.01151  1.00000  0.70702
 0.17854  1.00000  0.69668
 0.34557  1.00000  0.68635
 0.51259  1.00000  0.67601
 0.67962  1.00000  0.66568
 0.84665  1.00000  0.65534
 1.00000  1.00000  0.64501
 1.00000  1.00000  0.63467
 0.00000  0.00000  1.00000
 0.05133  0.00000  1.00000
 0.21836  0.00000  1.00000
 0.38538  0.00000  1.00000
 0.55241  0.00000  1.00000
 0.71944  0.00000  0.99368
 0.88646  0.00000  0.98335
 1.00000  0.00000  0.97301
 1.00000  0.00000  0.96268
 0.00000  0.00519  1.00000
 0.04623  0.00044  1.00000
 0.21326  0.00000  1.00000
 0.38028  0.00000  0.99406
 0.54731  0.00000  0.98373
 0.71434  0.00000  0.97339
 0.88136  0.00000  0.96306
 1.00000  0.00000  0.95272
 1.00000  0.00000  0.94239
 0.00000  0.16550  1.00000
 0.04113  0.16075  0.99444
 0.20816  0.15600  0.98411
 0.37518  0.15126  0.97377
 0.54221  0.14651  0.96344
 0.70924  0.14176  0.95310
 0.87626  0.13701  0.94277
 1.00000  0.13227  0.93243
 1.00000  0.12752  0.92210
 0.00000  0.32580  0.98449
 0.03603  0.32105  0.97415
 0.20305  0.31631  0.96382
 0.37008  0.31156  0.95348
 0.53711  0.30681  0.94315
 0.70413  0.30207  0.93281
 0.87116  0.29732  0.92248
 1.00000  0.29257  0.91214
 1.00000  0.28782  0.90181
 0.00000  0.48611  0.96420
 0.03093  0.48136  0.95386
 0.19795  0.47661  0.94353
 0.36498  0.47187  0.93319
 0.53201  0.46712  0.92286
 0.69903  0.46237  0.91252
 0.86606  0.45762  0.90219
 1.00000  0.45288  0.89185
 1.00000  0.44813  0.88152
 0.00000  0.64641  0.94391
 0.02583  0.64166  0.93357
 0.19285  0.63692  0.92324
 0.35988  0.63217  0.91290
 0.52691  0.62742  0.90257
 0.69393  0.62268  0.89223
 0.86096  0.61793  0.88190
 1.00000  0.61318  0.87156
 1.00000  0.60843  0.86123
 0.00000  0.80672  0.92362
 0.02072  0.80197  0.91328
 0.18775  0.79722  0.90295
 0.35478  0.79247  0.89261
 0.52180  0.78773  0.88228
 0.68883  0.78298  0.87194
 0.85586  0.77823  0.86161
 1.00000  0.77349  0.85127
 1.00000  0.76874  0.84094
 0.00000  0.96702  0.90333
 0.01562  0.96227  0.89299
 0.18265  0.95753  0.88266
 0.34968  0.95278  0.87232
 0.51670  0.94803  0.86199
 0.68373  0.94329  0.85165
 0.85076  0.93854  0.84132
 1.00000  0.93379  0.83098
 1.00000  0.92904  0.82065
 0.00000  1.00000  0.88304
 0.01052  1.00000  0.87270
 0.17755  1.00000  0.86237
 0.34458  1.00000  0.85203
 0.51160  1.00000  0.84170
 0.67863  1.00000  0.83136
 0.84566  1.00000  0.82103
 1.00000  1.00000  0.81069
 1.00000  1.00000  0.80036
 0.00000  0.00000  1.00000
 0.05034  0.00000  1.00000
 0.21737  0.00000  1.00000
 0.38439  0.00000  1.00000
 0.55142  0.00000  1.00000
 0.71845  0.00000  1.00000
 0.88547  0.00000  1.00000
 1.00000  0.00000  1.00000
 1.00000  0.00000  1.00000
 0.00000  0.00338  1.00000
 0.04524  0.00000  1.00000
 0.21227  0.00000  1.00000
 0.37929  0.00000  1.00000
 0.54632  0.00000  1.00000
 0.71335  0.00000  1.00000
 0.88037  0.00000  1.00000
 1.00000  0.00000  1.00000
 1.00000  0.00000  1.00000
 0.00000  0.16369  1.00000
 0.04014  0.15894  1.00000
 0.20716  0.15419  1.00000
 0.37419  0.14945  1.00000
 0.54122  0.14470  1.00000
 0.70824  0.13995  1.00000
 0.87527  0.13520  1.00000
 1.00000  0.13046  1.00000
 1.00000  0.12571  1.00000
 0.00000  0.32399  1.00000
 0.03504  0.31924  1.00000
 0.20206  0.31450  1.00000
 0.36909  0.30975  1.00000
 0.53612  0.30500  1.00000
 0.70314  0.30026  1.00000
 0.87017  0.29551  1.00000
 1.00000  0.29076  1.00000
 1.00000  0.28601  1.00000
 0.00000  0.48430  1.00000
 0.02994  0.47955  1.00000
 0.19696  0.47480  1.00000
 0.36399  0.47006  1.00000
 0.53102  0.46531  1.00000
 0.69804  0.46056  1.00000
 0.86507  0.45581  1.00000
 1.00000  0.45107  1.00000
 1.00000  0.44632  1.00000
 0.00000  0.64460  1.00000
 0.02483  0.63985  1.00000
 0.19186  0.63511  1.00000
 0.35889  0.63036  1.00000
 0.52591  0.62561  1.00000
 0.69294  0.62087  1.00000
 0.85997  0.61612  1.00000
 1.00000  0.61137  1.00000
 1.00000  0.60662  1.00000
 0.00000  0.80491  1.00000
 0.01973  0.80016  1.00000
 0.18676  0.79541  1.00000
 0.35379  0.79066  1.00000
 0.52081  0.78592  1.00000
 0.68784  0.78117  1.00000
 0.85487  0.77642  1.00000
 1.00000  0.77168  1.00000
 1.00000  0.76693  1.00000
 0.00000  0.96521  1.00000
 0.01463  0.96046  1.00000
 0.18166  0.95572  1.00000
 0.34869  0.95097  1.00000
 0.51571  0.94622  1.00000
 0.68274  0.94148  1.00000
 0.84977  0.93673  1.00000
 1.00000  0.93198  0.99667
 1.00000  0.92723  0.98633
 0.00000  1.00000  1.00000
 0.00953  1.00000  1.00000
 0.17656  1.00000  1.00000
 0.34359  1.00000  1.00000
 0.51061  1.00000  1.00000
 0.67764  1.00000  0.99705
 0.84467  1.00000  0.98671
 1.00000  1.00000  0.97638
 1.00000  1.00000  0.96604
 0.00000  0.00000  1.00000
 0.04935  0.00000  1.00000
 0.21638  0.00000  1.00000
 0.38340  0.00000  1.00000
 0.55043  0.00000  1.00000
 0.71746  0.00000  1.00000
 0.88448  0.00000  1.00000
 1.00000  0.00000  1.00000
 1.00000  0.00000  1.00000
 0.00000  0.00157  1.00000
 0.04425  0.00000  1.00000
 0.21127  0.00000  1.00000
 0.37830  0.00000  1.00000
 0.54533  0.00000  1.00000
 0.71235  0.00000  1.00000
 0.87938  0.00000  1.00000
 1.00000  0.00000  1.00000
 1.00000  0.00000  1.00000
 0.00000  0.16188  1.00000
 0.03915  0.15713  1.00000
 0.20617  0.15238  1.00000
 0.37320  0.14764  1.00000
 0.54023  0.14289  1.00000
 0.70725  0.13814  1.00000
 0.87428  0.13339  1.00000
 1.00000  0.12865  1.00000
 1.00000  0.12390  1.00000
 0.00000  0.32218  1.00000
 0.03405  0.31743  1.00000
 0.20107  0.31269  1.00000
 0.36810  0.30794  1.00000
 0.53513  0.30319  1.00000
 0.70215  0.29845  1.00000
 0.86918  0.29370  1.00000
 1.00000  0.28895  1.00000
 1.00000  0.28420  1.00000
 0.00000  0.48249  1.00000
 0.02895  0.47774  1.00000
 0.19597  0.47299  1.00000
 0.36300  0.46824  1.00000
 0.53003  0.46350  1.00000
 0.69705  0.45875  1.00000
 0.86408  0.45400  1.00000
 1.00000  0.44926  1.00000
 1.00000  0.44451  1.00000
 0.00000  0.64279  1.00000
 0.02384  0.63804  1.00000
 0.19087  0.63330  1.00000
 0.35790  0.62855  1.00000
 0.52492  0.62380  1.00000
 0.69195  0.61906  1.00000
 0.85898  0.61431  1.00000
 1.00000  0.60956  1.00000
 1.00000  0.60481  1.00000
 0.00000  0.80310  1.00000
 0.01874  0.79835  1.00000
 0.18577  0.79360  1.00000
 0.35280  0.78885  1.00000
 0.51982  0.78411  1.00000
 0.68685  0.77936  1.00000
 0.85388  0.77461  1.00000
 1.00000  0.76987  1.00000
 1.00000  0.76512  1.00000
 0.00000  0.96340  1.00000
 0.01364  0.95865  1.00000
 0.18067  0.95391  1.00000
 0.34770  0.94916  1.00000
 0.51472  0.94441  1.00000
 0.68175  0.93967  1.00000
 0.84878  0.93492  1.00000
 1.00000  0.93017  1.00000
 1.00000  0.92542  1.00000
 0.00000  1.00000  1.00000
 0.00854  1.00000  1.00000
 0.17557  1.00000  1.00000
 0.34259  1.00000  1.00000
 0.50962  1.00000  1.00000
 0.67665  1.00000  1.00000
 0.84367  1.00000  1.00000
 1.00000  1.00000  1.00000
 1.00000  1.00000  1.00000
