src/assets/luts/dark-mood.cube
TITLE "暗调氛围"
LUT_3D_SIZE 5
DOMAIN_MIN 0.0 0.0 0.0
DOMAIN_MAX 1.0 1.0 1.0
# LumEdit built-in LUT · 压暗高对比，冷峻氛围
 0.00000  0.00000  0.00000
 0.09945  0.00000  0.00000
 0.37840  0.00000  0.00000
 0.65735  0.00000  0.00000
 0.93629  0.00000  0.00000
 0.00000  0.10807  0.00000
 0.11702  0.11702  0.00000
 0.39597  0.12597  0.00000
 0.67492  0.13492  0.00000
 0.95386  0.14386  0.00000
 0.00000  0.39564  0.00000
 0.13459  0.40459  0.00000
 0.41354  0.41354  0.00000
 0.69248  0.42248  0.00000
 0.97143  0.43143  0.00000
 0.00000  0.68321  0.00000
 0.15216  0.69216  0.00000
 0.43111  0.70111  0.00000
 0.71005  0.71005  0.00000
 0.98900  0.71900  0.00000
 0.00000  0.97078  0.00000
 0.16973  0.97973  0.00000
 0.44868  0.98868  0.00000
 0.72762  0.99762  0.00000
 1.00000  1.00000  0.00000
 0.00000  0.00000  0.13249
 0.10286  0.00000  0.13983
 0.38181  0.00000  0.14716
 0.66076  0.00000  0.15450
 0.93971  0.00000  0.16183
 0.00000  0.11148  0.14689
 0.12043  0.12043  0.15423
 0.39938  0.12938  0.16156
 0.67833  0.13833  0.16890
 0.95728  0.14728  0.17623
 0.00000  0.39905  0.16129
 0.13800  0.40800  0.16863
 0.41695  0.41695  0.17596
 0.69590  0.42590  0.18330
 0.97485  0.43485  0.19063
 0.00000  0.68662  0.17569
 0.15557  0.69557  0.18303
 0.43452  0.70452  0.19036
 0.71347  0.71347  0.19770
 0.99242  0.72242  0.20503
 0.00000  0.97419  0.19009
 0.17314  0.98314  0.19743
 0.45209  0.99209  0.20476
 0.73104  1.00000  0.21210
 1.00000  1.00000  0.21943
 0.00000  0.00000  0.40529
 0.10627  0.00000  0.41262
 0.38522  0.00000  0.41996
 0.66417  0.00000  0.42729
 0.94312  0.00000  0.43463
 0.00000  0.11489  0.41969
 0.12384  0.12384  0.42702
 0.40279  0.13279  0.43436
 0.68174  0.14174  0.44169
 0.96069  0.15069  0.44903
 0.00000  0.40246  0.43409
 0.14141  0.41141  0.44142
 0.42036  0.42036  0.44876
 0.69931  0.42931  0.45609
 0.97826  0.43826  0.46343
 0.00000  0.69003  0.44849
 0.15898  0.69898  0.45582
 0.43793  0.70793  0.46316
 0.71688  0.71688  0.47049
 0.99583  0.72583  0.47783
 0.00000  0.97760  0.46289
 0.17655  0.98655  0.47022
 0.45550  0.99550  0.47756
 0.73445  1.00000  0.48489
 1.00000  1.00000  0.49223
 0.00000  0.00000  0.67809
 0.10968  0.00000  0.68542
 0.38863  0.00000  0.69276
 0.66758  0.00000  0.70009
 0.94653  0.00000  0.70743
 0.00000  0.11830  0.69249
 0.12725  0.12725  0.69982
 0.40620  0.13620  0.70716
 0.68515  0.14515  0.71449
 0.96410  0.15410  0.72183
 0.00000  0.40587  0.70689
 0.14482  0.41482  0.71422
 0.42377  0.42377  0.72156
 0.70272  0.43272  0.72889
 0.98167  0.44167  0.73623
 0.00000  0.69344  0.72129
 0.16239  0.70239  0.72862
 0.44134  0.71134  0.73596
 0.72029  0.72029  0.74329
 0.99924  0.72924  0.75063
 0.00000  0.98101  0.73569
 0.17996  0.98996  0.74302
 0.45891  0.99891  0.75036
 0.73786  1.00000  0.75769
 1.00000  1.00000  0.76503
 0.00000  0.00000  0.95088
 0.11309  0.00000  0.95822
 0.39204  0.00000  0.96555
 0.67099  0.00000  0.97289
 0.94994  0.00000  0.98022
 0.00000  0.12172  0.96528
 0.13066  0.13066  0.97262
 0.40961  0.13961  0.97995
 0.68856  0.14856  0.98729
 0.96751  0.15751  0.99462
 0.00000  0.40929  0.97968
 0.14823  0.41823  0.98702
 0.42718  0.42718  0.99435
 0.70613  0.43613  1.00000
 0.98508  0.44508  1.00000
 0.00000  0.69685  0.99408
 0.16580  0.70580  1.00000
 0.44475  0.71475  1.00000
 0.72370  0.72370  1.00000
 1.00000  0.73265  1.00000
 0.00000  0.98442  1.00000
 0.18337  0.99337  1.00000
 0.46232  1.00000  1.00000
 0.74127  1.00000  1.00000
 1.00000  1.00000  1.00000
