src/assets/luts/dark-mood.cube
TITLE "暗调氛围"
LUT_3D_SIZE 17
DOMAIN_MIN 0.0 0.0 0.0
DOMAIN_MAX 1.0 1.0 1.0
# LumEdit built-in LUT · 压暗高对比，冷峻氛围
 0.00000  0.00000  0.00000
 0.00000  0.00000  0.00000
 0.00000  0.00000  0.00000
 0.02971  0.00000  0.00000
 0.09945  0.00000  0.00000
 0.16918  0.00000  0.00000
 0.23892  0.00000  0.00000
 0.30866  0.00000  0.00000
 0.37840  0.00000  0.00000
 0.44813  0.00000  0.00000
 0.51787  0.00000  0.00000
 0.58761  0.00000  0.00000
 0.65735  0.00000  0.00000
 0.72708  0.00000  0.00000
 0.79682  0.00000  0.00000
 0.86656  0.00000  0.00000
 0.93629  0.00000  0.00000
 0.00000  0.00000  0.00000
 0.00000  0.00000  0.00000
 0.00000  0.00000  0.00000
 0.03410  0.00000  0.00000
 0.10384  0.00000  0.00000
 0.17358  0.00000  0.00000
 0.24331  0.00000  0.00000
 0.31305  0.00000  0.00000
 0.38279  0.00000  0.00000
 0.45253  0.00000  0.00000
 0.52226  0.00000  0.00000
 0.59200  0.00000  0.00000
 0.66174  0.00000  0.00000
 0.73148  0.00000  0.00000
 0.80121  0.00000  0.00000
 0.87095  0.00000  0.00000
 0.94069  0.00000  0.00000
 0.00000  0.00000  0.00000
 0.00000  0.00000  0.00000
 0.00000  0.00000  0.00000
 0.03849  0.00000  0.00000
 0.10823  0.00000  0.00000
 0.17797  0.00000  0.00000
 0.24771  0.00000  0.00000
 0.31744  0.00000  0.00000
 0.38718  0.00000  0.00000
 0.45692  0.00000  0.00000
 0.52666  0.00000  0.00000
 0.59639  0.00000  0.00000
 0.66613  0.00000  0.00000
 0.73587  0.00000  0.00000
 0.80560  0.00000  0.00000
 0.87534  0.00000  0.00000
 0.94508  0.00008  0.00000
 0.00000  0.03617  0.00000
 0.00000  0.03841  0.00000
 0.00000  0.04065  0.00000
 0.04289  0.04289  0.00000
 0.11262  0.04512  0.00000
 0.18236  0.04736  0.00000
 0.25210  0.04960  0.00000
 0.32184  0.05184  0.00000
 0.39157  0.05407  0.00000
 0.46131  0.05631  0.00000
 0.53105  0.05855  0.00000
 0.60079  0.06079  0.00000
 0.67052  0.06302  0.00000
 0.74026  0.06526  0.00000
 0.81000  0.06750  0.00000
 0.87973  0.06973  0.00000
 0.94947  0.07197  0.00000
 0.00000  0.10807  0.00000
 0.00000  0.11030  0.00000
 0.00000  0.11254  0.00000
 0.04728  0.11478  0.00000
 0.11702  0.11702  0.00000
 0.18675  0.11925  0.00000
 0.25649  0.12149  0.00000
 0.32623  0.12373  0.00000
 0.39597  0.12597  0.00000
 0.46570  0.12820  0.00000
 0.53544  0.13044  0.00000
 0.60518  0.13268  0.00000
 0.67492  0.13492  0.00000
 0.74465  0.13715  0.00000
 0.81439  0.13939  0.00000
 0.88413  0.14163  0.00000
 0.95386  0.14386  0.00000
 0.00000  0.17996  0.00000
 0.00000  0.18220  0.00000
 0.00000  0.18443  0.00000
 0.05167  0.18667  0.00000
 0.12141  0.18891  0.00000
 0.19115  0.19115  0.00000
 0.26088  0.19338  0.00000
 0.33062  0.19562  0.00000
 0.40036  0.19786  0.00000
 0.47010  0.20010  0.00000
 0.53983  0.20233  0.00000
 0.60957  0.20457  0.00000
 0.67931  0.20681  0.00000
 0.74904  0.20904  0.00000
 0.81878  0.21128  0.00000
 0.88852  0.21352  0.00000
 0.95826  0.21576  0.00000
 0.00000  0.25185  0.00000
 0.00000  0.25409  0.00000
 0.00000  0.25633  0.00000
 0.05606  0.25856  0.00000
 0.12580  0.26080  0.00000
 0.19554  0.26304  0.00000
 0.26528  0.26528  0.00000
 0.33501  0.26751  0.00000
 0.40475  0.26975  0.00000
 0.47449  0.27199  0.00000
 0.54423  0.27423  0.00000
 0.61396  0.27646  0.00000
 0.68370  0.27870  0.00000
 0.75344  0.28094  0.00000
 0.82317  0.28317  0.00000
 0.89291  0.28541  0.00000
 0.96265  0.28765  0.00000
 0.00000  0.32374  0.00000
 0.00000  0.32598  0.00000
 0.00000  0.32822  0.00000
 0.06046  0.33046  0.00000
 0.13019  0.33269  0.00000
 0.19993  0.33493  0.00000
 0.26967  0.33717  0.00000
 0.33941  0.33941  0.00000
 0.40914  0.34164  0.00000
 0.47888  0.34388  0.00000
 0.54862  0.34612  0.00000
 0.61836  0.34836  0.00000
 0.68809  0.35059  0.00000
 0.75783  0.35283  0.00000
 0.82757  0.35507  0.00000
 0.89730  0.35730  0.00000
 0.96704  0.35954  0.00000
 0.00000  0.39564  0.00000
 0.00000  0.39787  0.00000
 0.00000  0.40011  0.00000
 0.06485  0.40235  0.00000
 0.13459  0.40459  0.00000
 0.20432  0.40682  0.00000
 0.27406  0.40906  0.00000
 0.34380  0.41130  0.00000
 0.41354  0.41354  0.00000
 0.48327  0.41577  0.00000
 0.55301  0.41801  0.00000
 0.62275  0.42025  0.00000
 0.69248  0.42248  0.00000
 0.76222  0.42472  0.00000
 0.83196  0.42696  0.00000
 0.90170  0.42920  0.00000
 0.97143  0.43143  0.00000
 0.00000  0.46753  0.00000
 0.00000  0.46977  0.00000
 0.00000  0.47200  0.00000
 0.06924  0.47424  0.00000
 0.13898  0.47648  0.00000
 0.20872  0.47872  0.00000
 0.27845  0.48095  0.00000
 0.34819  0.48319  0.00000
 0.41793  0.48543  0.00000
 0.48767  0.48767  0.00000
 0.55740  0.48990  0.00000
 0.62714  0.49214  0.00000
 0.69688  0.49438  0.00000
 0.76661  0.49661  0.00000
 0.83635  0.49885  0.00000
 0.90609  0.50109  0.00000
 0.97583  0.50333  0.00000
 0.00000  0.53942  0.00000
 0.00000  0.54166  0.00000
 0.00390  0.54390  0.00000
 0.07363  0.54613  0.00000
 0.14337  0.54837  0.00000
 0.21311  0.55061  0.00000
 0.28285  0.55285  0.00000
 0.35258  0.55508  0.00000
 0.42232  0.55732  0.00000
 0.49206  0.55956  0.00000
 0.56180  0.56180  0.00000
 0.63153  0.56403  0.00000
 0.70127  0.56627  0.00000
 0.77101  0.56851  0.00000
 0.84074  0.57074  0.00000
 0.91048  0.57298  0.00000
 0.98022  0.57522  0.00000
 0.00000  0.61131  0.00000
 0.00000  0.61355  0.00000
 0.00829  0.61579  0.00000
 0.07803  0.61803  0.00000
 0.14776  0.62026  0.00000
 0.21750  0.62250  0.00000
 0.28724  0.62474  0.00000
 0.35698  0.62698  0.00000
 0.42671  0.62921  0.00000
 0.49645  0.63145  0.00000
 0.56619  0.63369  0.00000
 0.63592  0.63592  0.00000
 0.70566  0.63816  0.00000
 0.77540  0.64040  0.00000
 0.84514  0.64264  0.00000
 0.91487  0.64487  0.00000
 0.98461  0.64711  0.00000
 0.00000  0.68321  0.00000
 0.00000  0.68544  0.00000
 0.01268  0.68768  0.00000
 0.08242  0.68992  0.00000
 0.15216  0.69216  0.00000
 0.22189  0.69439  0.00000
 0.29163  0.69663  0.00000
 0.36137  0.69887  0.00000
 0.43111  0.70111  0.00000
 0.50084  0.70334  0.00000
 0.57058  0.70558  0.00000
 0.64032  0.70782  0.00000
 0.71005  0.71005  0.00000
 0.77979  0.71229  0.00000
 0.84953  0.71453  0.00000
 0.91927  0.71677  0.00000
 0.98900  0.71900  0.00000
 0.00000  0.75510  0.00000
 0.00000  0.75734  0.00000
 0.01707  0.75957  0.00000
 0.08681  0.76181  0.00000
 0.15655  0.76405  0.00000
 0.22629  0.76629  0.00000
 0.29602  0.76852  0.00000
 0.36576  0.77076  0.00000
 0.43550  0.77300  0.00000
 0.50524  0.77524  0.00000
 0.57497  0.77747  0.00000
 0.64471  0.77971  0.00000
 0.71445  0.78195  0.00000
 0.78418  0.78418  0.00000
 0.85392  0.78642  0.00000
 0.92366  0.78866  0.00000
 0.99340  0.79090  0.00000
 0.00000  0.82699  0.00000
 0.00000  0.82923  0.00000
 0.02147  0.83147  0.00000
 0.09120  0.83370  0.00000
 0.16094  0.83594  0.00000
 0.23068  0.83818  0.00000
 0.30042  0.84042  0.00000
 0.37015  0.84265  0.00000
 0.43989  0.84489  0.00000
 0.50963  0.84713  0.00000
 0.57936  0.84936  0.00000
 0.64910  0.85160  0.00000
 0.71884  0.85384  0.00000
 0.78858  0.85608  0.00000
 0.85831  0.85831  0.00000
 0.92805  0.86055  0.00000
 0.99779  0.86279  0.00000
 0.00000  0.89888  0.00000
 0.00000  0.90112  0.00000
 0.02586  0.90336  0.00000
 0.09560  0.90560  0.00000
 0.16533  0.90783  0.00000
 0.23507  0.91007  0.00000
 0.30481  0.91231  0.00000
 0.37455  0.91455  0.00000
 0.44428  0.91678  0.00000
 0.51402  0.91902  0.00000
 0.58376  0.92126  0.00000
 0.65349  0.92349  0.00000
 0.72323  0.92573  0.00000
 0.79297  0.92797  0.00000
 0.86271  0.93021  0.00000
 0.93244  0.93244  0.00000
 1.00000  0.93468  0.00000
 0.00000  0.97078  0.00000
 0.00000  0.97301  0.00000
 0.03025  0.97525  0.00000
 0.09999  0.97749  0.00000
 0.16973  0.97973  0.00000
 0.23946  0.98196  0.00000
 0.30920  0.98420  0.00000
 0.37894  0.98644  0.00000
 0.44868  0.98868  0.00000
 0.51841  0.99091  0.00000
 0.58815  0.99315  0.00000
 0.65789  0.99539  0.00000
 0.72762  0.99762  0.00000
 0.79736  0.99986  0.00000
 0.86710  1.00000  0.00000
 0.93684  1.00000  0.00000
 1.00000  1.00000  0.00000
 0.00000  0.00000  0.00000
 0.00000  0.00000  0.00000
 0.00000  0.00000  0.00000
 0.03056  0.00000  0.00000
 0.10030  0.00000  0.00000
 0.17004  0.00000  0.00000
 0.23977  0.00000  0.00000
 0.30951  0.00000  0.00000
 0.37925  0.00000  0.00000
 0.44899  0.00000  0.00000
 0.51872  0.00000  0.00000
 0.58846  0.00000  0.00000
 0.65820  0.00000  0.00000
 0.72794  0.00000  0.00000
 0.79767  0.00000  0.00000
 0.86741  0.00000  0.00000
 0.93715  0.00000  0.00000
 0.00000  0.00000  0.00000
 0.00000  0.00000  0.00000
 0.00000  0.00000  0.00000
 0.03495  0.00000  0.00000
 0.10469  0.00000  0.00000
 0.17443  0.00000  0.00000
 0.24417  0.00000  0.00000
 0.31390  0.00000  0.00000
 0.38364  0.00000  0.00000
 0.45338  0.00000  0.00000
 0.52312  0.00000  0.00000
 0.59285  0.00000  0.00000
 0.66259  0.00000  0.00000
 0.73233  0.00000  0.00000
 0.80207  0.00000  0.00000
 0.87180  0.00000  0.00000
 0.94154  0.00000  0.00000
 0.00000  0.00000  0.00000
 0.00000  0.00000  0.00000
 0.00000  0.00000  0.00000
 0.03935  0.00000  0.00000
 0.10908  0.00000  0.00000
 0.17882  0.00000  0.00000
 0.24856  0.00000  0.00000
 0.31830  0.00000  0.00000
 0.38803  0.00000  0.00000
 0.45777  0.00000  0.00000
 0.52751  0.00000  0.00000
 0.59725  0.00000  0.00000
 0.66698  0.00000  0.00000
 0.73672  0.00000  0.00000
 0.80646  0.00000  0.00000
 0.87620  0.00000  0.00000
 0.94593  0.00093  0.00000
 0.00000  0.03703  0.00000
 0.00000  0.03926  0.00000
 0.00000  0.04150  0.00000
 0.04374  0.04374  0.00000
 0.11348  0.04598  0.00000
 0.18321  0.04821  0.00000
 0.25295  0.05045  0.00000
 0.32269  0.05269  0.00000
 0.39243  0.05493  0.00000
 0.46216  0.05716  0.00000
 0.53190  0.05940  0.00000
 0.60164  0.06164  0.00000
 0.67138  0.06388  0.00000
 0.74111  0.06611  0.00000
 0.81085  0.06835  0.00000
 0.88059  0.07059  0.00000
 0.95033  0.07283  0.00000
 0.00000  0.10892  0.00000
 0.00000  0.11116  0.00000
 0.00000  0.11339  0.00000
 0.04813  0.11563  0.00000
 0.11787  0.11787  0.00000
 0.18761  0.12011  0.00000
 0.25734  0.12234  0.00000
 0.32708  0.12458  0.00000
 0.39682  0.12682  0.00000
 0.46656  0.12906  0.00000
 0.53629  0.13129  0.00000
 0.60603  0.13353  0.00000
 0.67577  0.13577  0.00000
 0.74551  0.13801  0.00000
 0.81524  0.14024  0.00000
 0.88498  0.14248  0.00000
 0.95472  0.14472  0.00000
 0.00000  0.18081  0.00000
 0.00000  0.18305  0.00000
 0.00000  0.18529  0.00000
 0.05252  0.18752  0.00000
 0.12226  0.18976  0.00000
 0.19200  0.19200  0.00000
 0.26174  0.19424  0.00000
 0.33147  0.19647  0.00000
 0.40121  0.19871  0.00000
 0.47095  0.20095  0.00000
 0.54069  0.20319  0.00000
 0.61042  0.20542  0.00000
 0.68016  0.20766  0.00000
 0.74990  0.20990  0.00000
 0.81964  0.21214  0.00000
 0.88937  0.21437  0.00000
 0.95911  0.21661  0.00000
 0.00000  0.25270  0.00000
 0.00000  0.25494  0.00000
 0.00000  0.25718  0.00000
 0.05692  0.25942  0.00000
 0.12665  0.26165  0.00000
 0.19639  0.26389  0.00000
 0.26613  0.26613  0.00000
 0.33587  0.26837  0.00000
 0.40560  0.27060  0.00000
 0.47534  0.27284  0.00000
 0.54508  0.27508  0.00000
 0.61482  0.27732  0.00000
 0.68455  0.27955  0.00000
 0.75429  0.28179  0.00000
 0.82403  0.28403  0.00000
 0.89377  0.28627  0.00000
 0.96350  0.28850  0.00000
 0.00000  0.32460  0.00000
 0.00000  0.32683  0.00000
 0.00000  0.32907  0.00000
 0.06131  0.33131  0.00000
 0.13105  0.33355  0.00000
 0.20078  0.33578  0.00000
 0.27052  0.33802  0.00000
 0.34026  0.34026  0.00000
 0.41000  0.34250  0.00000
 0.47973  0.34473  0.00000
 0.54947  0.34697  0.00000
 0.61921  0.34921  0.00000
 0.68895  0.35145  0.00000
 0.75868  0.35368  0.00000
 0.82842  0.35592  0.00000
 0.89816  0.35816  0.00000
 0.96790  0.36040  0.00000
 0.00000  0.39649  0.00000
 0.00000  0.39873  0.00000
 0.00000  0.40096  0.00000
 0.06570  0.40320  0.00000
 0.13544  0.40544  0.00000
 0.20518  0.40768  0.00000
 0.27491  0.40991  0.00000
 0.34465  0.41215  0.00000
 0.41439  0.41439  0.00000
 0.48413  0.41663  0.00000
 0.55386  0.41886  0.00000
 0.62360  0.42110  0.00000
 0.69334  0.42334  0.00000
 0.76308  0.42558  0.00000
 0.83281  0.42781  0.00000
 0.90255  0.43005  0.00000
 0.97229  0.43229  0.00000
 0.00000  0.46838  0.00000
 0.00000  0.47062  0.00000
 0.00036  0.47286  0.00000
 0.07009  0.47509  0.00000
 0.13983  0.47733  0.00000
 0.20957  0.47957  0.00000
 0.27931  0.48181  0.00000
 0.34904  0.48404  0.00000
 0.41878  0.48628  0.00000
 0.48852  0.48852  0.00000
 0.55826  0.49076  0.00000
 0.62799  0.49299  0.00000
 0.69773  0.49523  0.00000
 0.76747  0.49747  0.00000
 0.83721  0.49971  0.00000
 0.90694  0.50194  0.00000
 0.97668  0.50418  0.00000
 0.00000  0.54027  0.00000
 0.00000  0.54251  0.00000
 0.00475  0.54475  0.00000
 0.07449  0.54699  0.00000
 0.14422  0.54922  0.00000
 0.21396  0.55146  0.00000
 0.28370  0.55370  0.00000
 0.35344  0.55594  0.00000
 0.42317  0.55817  0.00000
 0.49291  0.56041  0.00000
 0.56265  0.56265  0.00000
 0.63239  0.56489  0.00000
 0.70212  0.56712  0.00000
 0.77186  0.56936  0.00000
 0.84160  0.57160  0.00000
 0.91134  0.57384  0.00000
 0.98107  0.57607  0.00000
 0.00000  0.61217  0.00000
 0.00000  0.61440  0.00000
 0.00914  0.61664  0.00000
 0.07888  0.61888  0.00000
 0.14862  0.62112  0.00000
 0.21835  0.62335  0.00000
 0.28809  0.62559  0.00000
 0.35783  0.62783  0.00000
 0.42757  0.63007  0.00000
 0.49730  0.63230  0.00000
 0.56704  0.63454  0.00000
 0.63678  0.63678  0.00000
 0.70652  0.63902  0.00000
 0.77625  0.64125  0.00000
 0.84599  0.64349  0.00000
 0.91573  0.64573  0.00000
 0.98546  0.64796  0.00000
 0.00000  0.68406  0.00000
 0.00000  0.68630  0.00000
 0.01353  0.68853  0.00000
 0.08327  0.69077  0.00000
 0.15301  0.69301  0.00000
 0.22275  0.69525  0.00000
 0.29248  0.69748  0.00000
 0.36222  0.69972  0.00000
 0.43196  0.70196  0.00000
 0.50170  0.70420  0.00000
 0.57143  0.70643  0.00000
 0.64117  0.70867  0.00000
 0.71091  0.71091  0.00000
 0.78065  0.71315  0.00000
 0.85038  0.71538  0.00000
 0.92012  0.71762  0.00000
 0.98986  0.71986  0.00043
 0.00000  0.75595  0.00000
 0.00000  0.75819  0.00000
 0.01793  0.76043  0.00000
 0.08766  0.76266  0.00000
 0.15740  0.76490  0.00000
 0.22714  0.76714  0.00000
 0.29688  0.76938  0.00000
 0.36661  0.77161  0.00000
 0.43635  0.77385  0.00000
 0.50609  0.77609  0.00000
 0.57583  0.77833  0.00000
 0.64556  0.78056  0.00000
 0.71530  0.78280  0.00000
 0.78504  0.78504  0.00000
 0.85478  0.78728  0.00037
 0.92451  0.78951  0.00220
 0.99425  0.79175  0.00403
 0.00000  0.82784  0.00000
 0.00000  0.83008  0.00000
 0.02232  0.83232  0.00000
 0.09206  0.83456  0.00000
 0.16179  0.83679  0.00000
 0.23153  0.83903  0.00000
 0.30127  0.84127  0.00000
 0.37101  0.84351  0.00000
 0.44074  0.84574  0.00000
 0.51048  0.84798  0.00000
 0.58022  0.85022  0.00000
 0.64996  0.85246  0.00000
 0.71969  0.85469  0.00030
 0.78943  0.85693  0.00213
 0.85917  0.85917  0.00397
 0.92890  0.86140  0.00580
 0.99864  0.86364  0.00763
 0.00000  0.89974  0.00000
 0.00000  0.90197  0.00000
 0.02671  0.90421  0.00000
 0.09645  0.90645  0.00000
 0.16619  0.90869  0.00000
 0.23592  0.91092  0.00000
 0.30566  0.91316  0.00000
 0.37540  0.91540  0.00000
 0.44514  0.91764  0.00000
 0.51487  0.91987  0.00000
 0.58461  0.92211  0.00023
 0.65435  0.92435  0.00207
 0.72409  0.92659  0.00390
 0.79382  0.92882  0.00573
 0.86356  0.93106  0.00757
 0.93330  0.93330  0.00940
 1.00000  0.93553  0.01123
 0.00000  0.97163  0.00000
 0.00000  0.97387  0.00000
 0.03110  0.97610  0.00000
 0.10084  0.97834  0.00000
 0.17058  0.98058  0.00000
 0.24032  0.98282  0.00000
 0.31005  0.98505  0.00000
 0.37979  0.98729  0.00000
 0.44953  0.98953  0.00016
 0.51927  0.99177  0.00200
 0.58900  0.99400  0.00383
 0.65874  0.99624  0.00567
 0.72848  0.99848  0.00750
 0.79821  1.00000  0.00933
 0.86795  1.00000  0.01117
 0.93769  1.00000  0.01300
 1.00000  1.00000  0.01483
 0.00000  0.00000  0.00000
 0.00000  0.00000  0.00000
 0.00000  0.00000  0.00000
 0.03141  0.00000  0.00159
 0.10115  0.00000  0.00343
 0.17089  0.00000  0.00526
 0.24063  0.00000  0.00710
 0.31036  0.00000  0.00893
 0.38010  0.00000  0.01076
 0.44984  0.00000  0.01260
 0.51958  0.00000  0.01443
 0.58931  0.00000  0.01626
 0.65905  0.00000  0.01810
 0.72879  0.00000  0.01993
 0.79853  0.00000  0.02177
 0.86826  0.00000  0.02360
 0.93800  0.00000  0.02543
 0.00000  0.00000  0.00000
 0.00000  0.00000  0.00153
 0.00000  0.00000  0.00336
 0.03581  0.00000  0.00520
 0.10554  0.00000  0.00703
 0.17528  0.00000  0.00886
 0.24502  0.00000  0.01070
 0.31476  0.00000  0.01253
 0.38449  0.00000  0.01436
 0.45423  0.00000  0.01620
 0.52397  0.00000  0.01803
 0.59371  0.00000  0.01986
 0.66344  0.00000  0.02170
 0.73318  0.00000  0.02353
 0.80292  0.00000  0.02537
 0.87266  0.00000  0.02720
 0.94239  0.00000  0.02903
 0.00000  0.00000  0.00329
 0.00000  0.00000  0.00513
 0.00000  0.00000  0.00696
 0.04020  0.00000  0.00880
 0.10994  0.00000  0.01063
 0.17967  0.00000  0.01246
 0.24941  0.00000  0.01430
 0.31915  0.00000  0.01613
 0.38889  0.00000  0.01796
 0.45862  0.00000  0.01980
 0.52836  0.00000  0.02163
 0.59810  0.00000  0.02346
 0.66784  0.00000  0.02530
 0.73757  0.00000  0.02713
 0.80731  0.00000  0.02897
 0.87705  0.00000  0.03080
 0.94679  0.00179  0.03263
 0.00000  0.03788  0.00689
 0.00000  0.04012  0.00873
 0.00000  0.04235  0.01056
 0.04459  0.04459  0.01240
 0.11433  0.04683  0.01423
 0.18407  0.04907  0.01606
 0.25380  0.05130  0.01790
 0.32354  0.05354  0.01973
 0.39328  0.05578  0.02156
 0.46302  0.05802  0.02340
 0.53275  0.06025  0.02523
 0.60249  0.06249  0.02706
 0.67223  0.06473  0.02890
 0.74197  0.06697  0.03073
 0.81170  0.06920  0.03257
 0.88144  0.07144  0.03440
 0.95118  0.07368  0.03623
 0.00000  0.10977  0.01049
 0.00000  0.11201  0.01233
 0.00000  0.11425  0.01416
 0.04898  0.11648  0.01600
 0.11872  0.11872  0.01783
 0.18846  0.12096  0.01966
 0.25820  0.12320  0.02150
 0.32793  0.12543  0.02333
 0.39767  0.12767  0.02516
 0.46741  0.12991  0.02700
 0.53715  0.13215  0.02883
 0.60688  0.13438  0.03066
 0.67662  0.13662  0.03250
 0.74636  0.13886  0.03433
 0.81610  0.14110  0.03617
 0.88583  0.14333  0.03800
 0.95557  0.14557  0.03983
 0.00000  0.18166  0.01409
 0.00000  0.18390  0.01593
 0.00000  0.18614  0.01776
 0.05338  0.18838  0.01960
 0.12311  0.19061  0.02143
 0.19285  0.19285  0.02326
 0.26259  0.19509  0.02510
 0.33233  0.19733  0.02693
 0.40206  0.19956  0.02876
 0.47180  0.20180  0.03060
 0.54154  0.20404  0.03243
 0.61128  0.20628  0.03426
 0.68101  0.20851  0.03610
 0.75075  0.21075  0.03793
 0.82049  0.21299  0.03977
 0.89023  0.21523  0.04160
 0.95996  0.21746  0.04343
 0.00000  0.25356  0.01769
 0.00000  0.25579  0.01953
 0.00000  0.25803  0.02136
 0.05777  0.26027  0.02320
 0.12751  0.26251  0.02503
 0.19724  0.26474  0.02686
 0.26698  0.26698  0.02870
 0.33672  0.26922  0.03053
 0.40646  0.27146  0.03236
 0.47619  0.27369  0.03420
 0.54593  0.27593  0.03603
 0.61567  0.27817  0.03786
 0.68541  0.28041  0.03970
 0.75514  0.28264  0.04153
 0.82488  0.28488  0.04337
 0.89462  0.28712  0.04520
 0.96436  0.28936  0.04703
 0.00000  0.32545  0.02129
 0.00000  0.32769  0.02313
 0.00000  0.32992  0.02496
 0.06216  0.33216  0.02680
 0.13190  0.33440  0.02863
 0.20164  0.33664  0.03046
 0.27137  0.33887  0.03230
 0.34111  0.34111  0.03413
 0.41085  0.34335  0.03596
 0.48059  0.34559  0.03780
 0.55032  0.34782  0.03963
 0.62006  0.35006  0.04146
 0.68980  0.35230  0.04330
 0.75954  0.35454  0.04513
 0.82927  0.35677  0.04697
 0.89901  0.35901  0.04880
 0.96875  0.36125  0.05063
 0.00000  0.39734  0.02489
 0.00000  0.39958  0.02673
 0.00000  0.40182  0.02856
 0.06655  0.40405  0.03040
 0.13629  0.40629  0.03223
 0.20603  0.40853  0.03406
 0.27577  0.41077  0.03590
 0.34550  0.41300  0.03773
 0.41524  0.41524  0.03956
 0.48498  0.41748  0.04140
 0.55472  0.41972  0.04323
 0.62445  0.42195  0.04506
 0.69419  0.42419  0.04690
 0.76393  0.42643  0.04873
 0.83367  0.42867  0.05057
 0.90340  0.43090  0.05240
 0.97314  0.43314  0.05423
 0.00000  0.46923  0.02849
 0.00000  0.47147  0.03033
 0.00121  0.47371  0.03216
 0.07095  0.47595  0.03400
 0.14068  0.47818  0.03583
 0.21042  0.48042  0.03766
 0.28016  0.48266  0.03950
 0.34990  0.48490  0.04133
 0.41963  0.48713  0.04316
 0.48937  0.48937  0.04500
 0.55911  0.49161  0.04683
 0.62885  0.49385  0.04867
 0.69858  0.49608  0.05050
 0.76832  0.49832  0.05233
 0.83806  0.50056  0.05417
 0.90780  0.50280  0.05600
 0.97753  0.50503  0.05783
 0.00000  0.54113  0.03209
 0.00000  0.54336  0.03393
 0.00560  0.54560  0.03576
 0.07534  0.54784  0.03760
 0.14508  0.55008  0.03943
 0.21481  0.55231  0.04126
 0.28455  0.55455  0.04310
 0.35429  0.55679  0.04493
 0.42403  0.55903  0.04676
 0.49376  0.56126  0.04860
 0.56350  0.56350  0.05043
 0.63324  0.56574  0.05227
 0.70298  0.56798  0.05410
 0.77271  0.57021  0.05593
 0.84245  0.57245  0.05777
 0.91219  0.57469  0.05960
 0.98193  0.57693  0.06143
 0.00000  0.61302  0.03569
 0.00000  0.61526  0.03753
 0.00999  0.61749  0.03936
 0.07973  0.61973  0.04120
 0.14947  0.62197  0.04303
 0.21921  0.62421  0.04486
 0.28894  0.62644  0.04670
 0.35868  0.62868  0.04853
 0.42842  0.63092  0.05036
 0.49816  0.63316  0.05220
 0.56789  0.63539  0.05403
 0.63763  0.63763  0.05587
 0.70737  0.63987  0.05770
 0.77711  0.64211  0.05953
 0.84684  0.64434  0.06137
 0.91658  0.64658  0.06320
 0.98632  0.64882  0.06503
 0.00000  0.68491  0.03929
 0.00000  0.68715  0.04113
 0.01439  0.68939  0.04296
 0.08412  0.69162  0.04480
 0.15386  0.69386  0.04663
 0.22360  0.69610  0.04846
 0.29334  0.69834  0.05030
 0.36307  0.70057  0.05213
 0.43281  0.70281  0.05396
 0.50255  0.70505  0.05580
 0.57229  0.70729  0.05763
 0.64202  0.70952  0.05947
 0.71176  0.71176  0.06130
 0.78150  0.71400  0.06313
 0.85124  0.71624  0.06497
 0.92097  0.71847  0.06680
 0.99071  0.72071  0.06863
 0.00000  0.75680  0.04289
 0.00000  0.75904  0.04473
 0.01878  0.76128  0.04656
 0.08852  0.76352  0.04840
 0.15825  0.76575  0.05023
 0.22799  0.76799  0.05206
 0.29773  0.77023  0.05390
 0.36747  0.77247  0.05573
 0.43720  0.77470  0.05756
 0.50694  0.77694  0.05940
 0.57668  0.77918  0.06123
 0.64642  0.78142  0.06307
 0.71615  0.78365  0.06490
 0.78589  0.78589  0.06673
 0.85563  0.78813  0.06857
 0.92537  0.79037  0.07040
 0.99510  0.79260  0.07223
 0.00000  0.82870  0.04649
 0.00000  0.83093  0.04833
 0.02317  0.83317  0.05016
 0.09291  0.83541  0.05200
 0.16265  0.83765  0.05383
 0.23238  0.83988  0.05566
 0.30212  0.84212  0.05750
 0.37186  0.84436  0.05933
 0.44160  0.84660  0.06116
 0.51133  0.84883  0.06300
 0.58107  0.85107  0.06483
 0.65081  0.85331  0.06667
 0.72055  0.85555  0.06850
 0.79028  0.85778  0.07033
 0.86002  0.86002  0.07217
 0.92976  0.86226  0.07400
 0.99950  0.86450  0.07583
 0.00000  0.90059  0.05009
 0.00000  0.90283  0.05193
 0.02756  0.90506  0.05376
 0.09730  0.90730  0.05560
 0.16704  0.90954  0.05743
 0.23678  0.91178  0.05926
 0.30651  0.91401  0.06110
 0.37625  0.91625  0.06293
 0.44599  0.91849  0.06476
 0.51573  0.92073  0.06660
 0.58546  0.92296  0.06843
 0.65520  0.92520  0.07027
 0.72494  0.92744  0.07210
 0.79468  0.92968  0.07393
 0.86441  0.93191  0.07577
 0.93415  0.93415  0.07760
 1.00000  0.93639  0.07943
 0.00000  0.97248  0.05369
 0.00000  0.97472  0.05553
 0.03196  0.97696  0.05736
 0.10169  0.97919  0.05920
 0.17143  0.98143  0.06103
 0.24117  0.98367  0.06286
 0.31091  0.98591  0.06470
 0.38064  0.98814  0.06653
 0.45038  0.99038  0.06836
 0.52012  0.99262  0.07020
 0.58986  0.99486  0.07203
 0.65959  0.99709  0.07387
 0.72933  0.99933  0.07570
 0.79907  1.00000  0.07753
 0.86881  1.00000  0.07937
 0.93854  1.00000  0.08120
 1.00000  1.00000  0.08303
 0.00000  0.00000  0.06429
 0.00000  0.00000  0.06613
 0.00000  0.00000  0.06796
 0.03227  0.00000  0.06979
 0.10201  0.00000  0.07163
 0.17174  0.00000  0.07346
 0.24148  0.00000  0.07530
 0.31122  0.00000  0.07713
 0.38095  0.00000  0.07896
 0.45069  0.00000  0.08080
 0.52043  0.00000  0.08263
 0.59017  0.00000  0.08446
 0.65990  0.00000  0.08630
 0.72964  0.00000  0.08813
 0.79938  0.00000  0.08997
 0.86912  0.00000  0.09180
 0.93885  0.00000  0.09363
