src/assets/luts/dark-mood.cube
TITLE "暗调氛围"
LUT_3D_SIZE 9
DOMAIN_MIN 0.0 0.0 0.0
DOMAIN_MAX 1.0 1.0 1.0
# LumEdit built-in LUT · 压暗高对比，冷峻氛围
 0.00000  0.00000  0.00000
 0.00000  0.00000  0.00000
 0.09945  0.00000  0.00000
 0.23892  0.00000  0.00000
 0.37840  0.00000  0.00000
 0.51787  0.00000  0.00000
 0.65735  0.00000  0.00000
 0.79682  0.00000  0.00000
 0.93629  0.00000  0.00000
 0.00000  0.00000  0.00000
 0.00000  0.00000  0.00000
 0.10823  0.00000  0.00000
 0.24771  0.00000  0.00000
 0.38718  0.00000  0.00000
 0.52666  0.00000  0.00000
 0.66613  0.00000  0.00000
 0.80560  0.00000  0.00000
 0.94508  0.00008  0.00000
 0.00000  0.10807  0.00000
 0.00000  0.11254  0.00000
 0.11702  0.11702  0.00000
 0.25649  0.12149  0.00000
 0.39597  0.12597  0.00000
 0.53544  0.13044  0.00000
 0.67492  0.13492  0.00000
 0.81439  0.13939  0.00000
 0.95386  0.14386  0.00000
 0.00000  0.25185  0.00000
 0.00000  0.25633  0.00000
 0.12580  0.26080  0.00000
 0.26528  0.26528  0.00000
 0.40475  0.26975  0.00000
 0.54423  0.27423  0.00000
 0.68370  0.27870  0.00000
 0.82317  0.28317  0.00000
 0.96265  0.28765  0.00000
 0.00000  0.39564  0.00000
 0.00000  0.40011  0.00000
 0.13459  0.40459  0.00000
 0.27406  0.40906  0.00000
 0.41354  0.41354  0.00000
 0.55301  0.41801  0.00000
 0.69248  0.42248  0.00000
 0.83196  0.42696  0.00000
 0.97143  0.43143  0.00000
 0.00000  0.53942  0.00000
 0.00390  0.54390  0.00000
 0.14337  0.54837  0.00000
 0.28285  0.55285  0.00000
 0.42232  0.55732  0.00000
 0.56180  0.56180  0.00000
 0.70127  0.56627  0.00000
 0.84074  0.57074  0.00000
 0.98022  0.57522  0.00000
 0.00000  0.68321  0.00000
 0.01268  0.68768  0.00000
 0.15216  0.69216  0.00000
 0.29163  0.69663  0.00000
 0.43111  0.70111  0.00000
 0.57058  0.70558  0.00000
 0.71005  0.71005  0.00000
 0.84953  0.71453  0.00000
 0.98900  0.71900  0.00000
 0.00000  0.82699  0.00000
 0.02147  0.83147  0.00000
 0.16094  0.83594  0.00000
 0.30042  0.84042  0.00000
 0.43989  0.84489  0.00000
 0.57936  0.84936  0.00000
 0.71884  0.85384  0.00000
 0.85831  0.85831  0.00000
 0.99779  0.86279  0.00000
 0.00000  0.97078  0.00000
 0.03025  0.97525  0.00000
 0.16973  0.97973  0.00000
 0.30920  0.98420  0.00000
 0.44868  0.98868  0.00000
 0.58815  0.99315  0.00000
 0.72762  0.99762  0.00000
 0.86710  1.00000  0.00000
 1.00000  1.00000  0.00000
 0.00000  0.00000  0.00000
 0.00000  0.00000  0.00000
 0.10115  0.00000  0.00343
 0.24063  0.00000  0.00710
 0.38010  0.00000  0.01076
 0.51958  0.00000  0.01443
 0.65905  0.00000  0.01810
 0.79853  0.00000  0.02177
 0.93800  0.00000  0.02543
 0.00000  0.00000  0.00329
 0.00000  0.00000  0.00696
 0.10994  0.00000  0.01063
 0.24941  0.00000  0.01430
 0.38889  0.00000  0.01796
 0.52836  0.00000  0.02163
 0.66784  0.00000  0.02530
 0.80731  0.00000  0.02897
 0.94679  0.00179  0.03263
 0.00000  0.10977  0.01049
 0.00000  0.11425  0.01416
 0.11872  0.11872  0.01783
 0.25820  0.12320  0.02150
 0.39767  0.12767  0.02516
 0.53715  0.13215  0.02883
 0.67662  0.13662  0.03250
 0.81610  0.14110  0.03617
 0.95557  0.14557  0.03983
 0.00000  0.25356  0.01769
 0.00000  0.25803  0.02136
 0.12751  0.26251  0.02503
 0.26698  0.26698  0.02870
 0.40646  0.27146  0.03236
 0.54593  0.27593  0.03603
 0.68541  0.28041  0.03970
 0.82488  0.28488  0.04337
 0.96436  0.28936  0.04703
 0.00000  0.39734  0.02489
 0.00000  0.40182  0.02856
 0.13629  0.40629  0.03223
 0.27577  0.41077  0.03590
 0.41524  0.41524  0.03956
 0.55472  0.41972  0.04323
 0.69419  0.42419  0.04690
 0.83367  0.42867  0.05057
 0.97314  0.43314  0.05423
 0.00000  0.54113  0.03209
 0.00560  0.54560  0.03576
 0.14508  0.55008  0.03943
 0.28455  0.55455  0.04310
 0.42403  0.55903  0.04676
 0.56350  0.56350  0.05043
 0.70298  0.56798  0.05410
 0.84245  0.57245  0.05777
 0.98193  0.57693  0.06143
 0.00000  0.68491  0.03929
 0.01439  0.68939  0.04296
 0.15386  0.69386  0.04663
 0.29334  0.69834  0.05030
 0.43281  0.70281  0.05396
 0.57229  0.70729  0.05763
 0.71176  0.71176  0.06130
 0.85124  0.71624  0.06497
 0.99071  0.72071  0.06863
 0.00000  0.82870  0.04649
 0.02317  0.83317  0.05016
 0.16265  0.83765  0.05383
 0.30212  0.84212  0.05750
 0.44160  0.84660  0.06116
 0.58107  0.85107  0.06483
 0.72055  0.85555  0.06850
 0.86002  0.86002  0.07217
 0.99950  0.86450  0.07583
 0.00000  0.97248  0.05369
 0.03196  0.97696  0.05736
 0.17143  0.98143  0.06103
 0.31091  0.98591  0.06470
 0.45038  0.99038  0.06836
 0.58986  0.99486  0.07203
 0.72933  0.99933  0.07570
 0.86881  1.00000  0.07937
 1.00000  1.00000  0.08303
 0.00000  0.00000  0.13249
 0.00000  0.00000  0.13616
 0.10286  0.00000  0.13983
 0.24233  0.00000  0.14349
 0.38181  0.00000  0.14716
 0.52128  0.00000  0.15083
 0.66076  0.00000  0.15450
 0.80023  0.00000  0.15816
 0.93971  0.00000  0.16183
 0.00000  0.00000  0.13969
 0.00000  0.00000  0.14336
 0.11164  0.00000  0.14703
 0.25112  0.00000  0.15069
 0.39059  0.00000  0.15436
 0.53007  0.00000  0.15803
 0.66954  0.00000  0.16170
 0.80902  0.00000  0.16536
 0.94849  0.00349  0.16903
 0.00000  0.11148  0.14689
 0.00000  0.11595  0.15056
 0.12043  0.12043  0.15423
 0.25990  0.12490  0.15789
 0.39938  0.12938  0.16156
 0.53885  0.13385  0.16523
 0.67833  0.13833  0.16890
 0.81780  0.14280  0.17256
 0.95728  0.14728  0.17623
 0.00000  0.25526  0.15409
 0.00000  0.25974  0.15776
 0.12921  0.26421  0.16143
 0.26869  0.26869  0.16509
 0.40816  0.27316  0.16876
 0.54764  0.27764  0.17243
 0.68711  0.28211  0.17610
 0.82659  0.28659  0.17976
 0.96606  0.29106  0.18343
 0.00000  0.39905  0.16129
 0.00000  0.40352  0.16496
 0.13800  0.40800  0.16863
 0.27747  0.41247  0.17229
 0.41695  0.41695  0.17596
 0.55642  0.42142  0.17963
 0.69590  0.42590  0.18330
 0.83537  0.43037  0.18696
 0.97485  0.43485  0.19063
 0.00000  0.54283  0.16849
 0.00731  0.54731  0.17216
 0.14678  0.55178  0.17583
 0.28626  0.55626  0.17949
 0.42573  0.56073  0.18316
 0.56521  0.56521  0.18683
 0.70468  0.56968  0.19050
 0.84416  0.57416  0.19416
 0.98363  0.57863  0.19783
 0.00000  0.68662  0.17569
 0.01609  0.69109  0.17936
 0.15557  0.69557  0.18303
 0.29504  0.70004  0.18669
 0.43452  0.70452  0.19036
 0.57399  0.70899  0.19403
 0.71347  0.71347  0.19770
 0.85294  0.71794  0.20136
 0.99242  0.72242  0.20503
 0.00000  0.83040  0.18289
 0.02488  0.83488  0.18656
 0.16435  0.83935  0.19023
 0.30383  0.84383  0.19389
 0.44330  0.84830  0.19756
 0.58278  0.85278  0.20123
 0.72225  0.85725  0.20490
 0.86173  0.86173  0.20856
 1.00000  0.86620  0.21223
 0.00000  0.97419  0.19009
 0.03366  0.97866  0.19376
 0.17314  0.98314  0.19743
 0.31261  0.98761  0.20109
 0.45209  0.99209  0.20476
 0.59156  0.99656  0.20843
 0.73104  1.00000  0.21210
 0.87051  1.00000  0.21576
 1.00000  1.00000  0.21943
 0.00000  0.00000  0.26889
 0.00000  0.00000  0.27256
 0.10456  0.00000  0.27623
 0.24404  0.00000  0.27989
 0.38351  0.00000  0.28356
 0.52299  0.00000  0.28723
 0.66246  0.00000  0.29090
 0.80194  0.00000  0.29456
 0.94141  0.00000  0.29823
 0.00000  0.00000  0.27609
 0.00000  0.00000  0.27976
 0.11335  0.00000  0.28343
 0.25282  0.00000  0.28709
 0.39230  0.00000  0.29076
 0.53177  0.00000  0.29443
 0.67125  0.00000  0.29810
 0.81072  0.00072  0.30176
 0.95020  0.00520  0.30543
 0.00000  0.11318  0.28329
 0.00000  0.11766  0.28696
 0.12213  0.12213  0.29063
 0.26161  0.12661  0.29429
 0.40108  0.13108  0.29796
 0.54056  0.13556  0.30163
 0.68003  0.14003  0.30530
 0.81951  0.14451  0.30896
 0.95898  0.14898  0.31263
 0.00000  0.25697  0.29049
 0.00000  0.26144  0.29416
 0.13092  0.26592  0.29783
 0.27039  0.27039  0.30149
 0.40987  0.27487  0.30516
 0.54934  0.27934  0.30883
 0.68882  0.28382  0.31250
 0.82829  0.28829  0.31616
 0.96777  0.29277  0.31983
 0.00000  0.40075  0.29769
 0.00023  0.40523  0.30136
 0.13970  0.40970  0.30503
 0.27918  0.41418  0.30869
 0.41865  0.41865  0.31236
 0.55813  0.42313  0.31603
 0.69760  0.42760  0.31970
 0.83708  0.43208  0.32336
 0.97655  0.43655  0.32703
 0.00000  0.54454  0.30489
 0.00901  0.54901  0.30856
 0.14849  0.55349  0.31223
 0.28796  0.55796  0.31589
 0.42744  0.56244  0.31956
 0.56691  0.56691  0.32323
 0.70639  0.57139  0.32690
 0.84586  0.57586  0.33056
 0.98534  0.58034  0.33423
 0.00000  0.68832  0.31209
 0.01780  0.69280  0.31576
 0.15727  0.69727  0.31943
 0.29675  0.70175  0.32309
 0.43622  0.70622  0.32676
 0.57570  0.71070  0.33043
 0.71517  0.71517  0.33410
 0.85465  0.71965  0.33776
 0.99412  0.72412  0.34143
 0.00000  0.83211  0.31929
 0.02658  0.83658  0.32296
 0.16606  0.84106  0.32663
 0.30553  0.84553  0.33029
 0.44501  0.85001  0.33396
 0.58448  0.85448  0.33763
 0.72396  0.85896  0.34130
 0.86343  0.86343  0.34496
 1.00000  0.86791  0.34863
 0.00000  0.97589  0.32649
 0.03537  0.98037  0.33016
 0.17484  0.98484  0.33383
 0.31432  0.98932  0.33749
 0.45379  0.99379  0.34116
 0.59327  0.99827  0.34483
 0.73274  1.00000  0.34850
 0.87222  1.00000  0.35216
 1.00000  1.00000  0.35583
 0.00000  0.00000  0.40529
 0.00000  0.00000  0.40896
 0.10627  0.00000  0.41262
 0.24575  0.00000  0.41629
 0.38522  0.00000  0.41996
 0.52469  0.00000  0.42363
 0.66417  0.00000  0.42729
 0.80364  0.00000  0.43096
 0.94312  0.00000  0.43463
 0.00000  0.00000  0.41249
 0.00000  0.00000  0.41616
 0.11506  0.00000  0.41982
 0.25453  0.00000  0.42349
 0.39400  0.00000  0.42716
 0.53348  0.00000  0.43083
 0.67295  0.00000  0.43449
 0.81243  0.00243  0.43816
 0.95190  0.00690  0.44183
 0.00000  0.11489  0.41969
 0.00000  0.11937  0.42336
 0.12384  0.12384  0.42702
 0.26332  0.12832  0.43069
 0.40279  0.13279  0.43436
 0.54226  0.13726  0.43803
 0.68174  0.14174  0.44169
 0.82121  0.14621  0.44536
 0.96069  0.15069  0.44903
 0.00000  0.25868  0.42689
 0.00000  0.26315  0.43056
 0.13263  0.26763  0.43422
 0.27210  0.27210  0.43789
 0.41157  0.27657  0.44156
 0.55105  0.28105  0.44523
 0.69052  0.28552  0.44889
 0.83000  0.29000  0.45256
 0.96947  0.29447  0.45623
 0.00000  0.40246  0.43409
 0.00194  0.40694  0.43776
 0.14141  0.41141  0.44142
 0.28088  0.41588  0.44509
 0.42036  0.42036  0.44876
 0.55983  0.42483  0.45243
 0.69931  0.42931  0.45609
 0.83878  0.43378  0.45976
 0.97826  0.43826  0.46343
 0.00000  0.54625  0.44129
 0.01072  0.55072  0.44496
 0.15020  0.55520  0.44862
 0.28967  0.55967  0.45229
 0.42914  0.56414  0.45596
 0.56862  0.56862  0.45963
 0.70809  0.57309  0.46329
 0.84757  0.57757  0.46696
 0.98704  0.58204  0.47063
 0.00000  0.69003  0.44849
 0.01951  0.69451  0.45216
 0.15898  0.69898  0.45582
 0.29845  0.70345  0.45949
 0.43793  0.70793  0.46316
 0.57740  0.71240  0.46683
 0.71688  0.71688  0.47049
 0.85635  0.72135  0.47416
 0.99583  0.72583  0.47783
 0.00000  0.83382  0.45569
 0.02829  0.83829  0.45936
 0.16776  0.84276  0.46302
 0.30724  0.84724  0.46669
 0.44671  0.85171  0.47036
 0.58619  0.85619  0.47403
 0.72566  0.86066  0.47769
 0.86514  0.86514  0.48136
 1.00000  0.86961  0.48503
 0.00000  0.97760  0.46289
 0.03708  0.98208  0.46656
 0.17655  0.98655  0.47022
 0.31602  0.99102  0.47389
 0.45550  0.99550  0.47756
 0.59497  0.99997  0.48123
 0.73445  1.00000  0.48489
 0.87392  1.00000  0.48856
 1.00000  1.00000  0.49223
 0.00000  0.00000  0.54169
 0.00000  0.00000  0.54535
 0.10798  0.00000  0.54902
 0.24745  0.00000  0.55269
 0.38693  0.00000  0.55636
 0.52640  0.00000  0.56002
 0.66588  0.00000  0.56369
 0.80535  0.00000  0.56736
 0.94483  0.00000  0.57103
 0.00000  0.00000  0.54889
 0.00000  0.00000  0.55255
 0.11676  0.00000  0.55622
 0.25624  0.00000  0.55989
 0.39571  0.00000  0.56356
 0.53519  0.00000  0.56722
 0.67466  0.00000  0.57089
 0.81414  0.00414  0.57456
 0.95361  0.00861  0.57823
 0.00000  0.11660  0.55609
 0.00000  0.12107  0.55975
 0.12555  0.12555  0.56342
 0.26502  0.13002  0.56709
 0.40450  0.13450  0.57076
 0.54397  0.13897  0.57442
 0.68345  0.14345  0.57809
 0.82292  0.14792  0.58176
 0.96240  0.15240  0.58543
 0.00000  0.26038  0.56329
 0.00000  0.26486  0.56695
 0.13433  0.26933  0.57062
 0.27381  0.27381  0.57429
 0.41328  0.27828  0.57796
 0.55276  0.28276  0.58162
 0.69223  0.28723  0.58529
 0.83171  0.29171  0.58896
 0.97118  0.29618  0.59263
 0.00000  0.40417  0.57049
 0.00364  0.40864  0.57415
 0.14312  0.41312  0.57782
 0.28259  0.41759  0.58149
 0.42207  0.42207  0.58516
 0.56154  0.42654  0.58882
 0.70102  0.43102  0.59249
 0.84049  0.43549  0.59616
 0.97996  0.43996  0.59983
 0.00000  0.54795  0.57769
 0.01243  0.55243  0.58135
 0.15190  0.55690  0.58502
 0.29138  0.56138  0.58869
 0.43085  0.56585  0.59236
 0.57033  0.57033  0.59602
 0.70980  0.57480  0.59969
 0.84928  0.57928  0.60336
 0.98875  0.58375  0.60703
 0.00000  0.69174  0.58489
 0.02121  0.69621  0.58855
 0.16069  0.70069  0.59222
 0.30016  0.70516  0.59589
 0.43964  0.70964  0.59956
 0.57911  0.71411  0.60322
 0.71859  0.71859  0.60689
 0.85806  0.72306  0.61056
 0.99753  0.72753  0.61423
 0.00000  0.83552  0.59209
 0.03000  0.84000  0.59575
 0.16947  0.84447  0.59942
 0.30895  0.84895  0.60309
 0.44842  0.85342  0.60676
 0.58790  0.85790  0.61042
 0.72737  0.86237  0.61409
 0.86684  0.86684  0.61776
 1.00000  0.87132  0.62143
 0.00000  0.97931  0.59929
 0.03878  0.98378  0.60295
 0.17826  0.98826  0.60662
 0.31773  0.99273  0.61029
 0.45721  0.99721  0.61396
 0.59668  1.00000  0.61762
 0.73616  1.00000  0.62129
 0.87563  1.00000  0.62496
 1.00000  1.00000  0.62863
 0.00000  0.00000  0.67809
 0.00000  0.00000  0.68175
 0.10968  0.00000  0.68542
 0.24916  0.00000  0.68909
 0.38863  0.00000  0.69276
 0.52811  0.00000  0.69642
 0.66758  0.00000  0.70009
 0.80706  0.00000  0.70376
 0.94653  0.00000  0.70743
 0.00000  0.00000  0.68529
 0.00000  0.00000  0.68895
 0.11847  0.00000  0.69262
 0.25794  0.00000  0.69629
 0.39742  0.00000  0.69996
 0.53689  0.00000  0.70362
 0.67637  0.00137  0.70729
 0.81584  0.00584  0.71096
 0.95532  0.01032  0.71463
 0.00000  0.11830  0.69249
 0.00000  0.12278  0.69615
 0.12725  0.12725  0.69982
 0.26673  0.13173  0.70349
 0.40620  0.13620  0.70716
 0.54568  0.14068  0.71082
 0.68515  0.14515  0.71449
 0.82463  0.14963  0.71816
 0.96410  0.15410  0.72183
 0.00000  0.26209  0.69969
 0.00000  0.26656  0.70335
 0.13604  0.27104  0.70702
 0.27551  0.27551  0.71069
 0.41499  0.27999  0.71436
 0.55446  0.28446  0.71802
 0.69394  0.28894  0.72169
 0.83341  0.29341  0.72536
 0.97289  0.29789  0.72903
 0.00000  0.40587  0.70689
 0.00535  0.41035  0.71055
 0.14482  0.41482  0.71422
 0.28430  0.41930  0.71789
 0.42377  0.42377  0.72156
 0.56325  0.42825  0.72522
 0.70272  0.43272  0.72889
 0.84220  0.43720  0.73256
 0.98167  0.44167  0.73623
 0.00000  0.54966  0.71409
 0.01413  0.55413  0.71775
 0.15361  0.55861  0.72142
 0.29308  0.56308  0.72509
 0.43256  0.56756  0.72876
 0.57203  0.57203  0.73242
 0.71151  0.57651  0.73609
 0.85098  0.58098  0.73976
 0.99046  0.58546  0.74343
 0.00000  0.69344  0.72129
 0.02292  0.69792  0.72495
 0.16239  0.70239  0.72862
 0.30187  0.70687  0.73229
 0.44134  0.71134  0.73596
 0.58082  0.71582  0.73962
 0.72029  0.72029  0.74329
 0.85977  0.72477  0.74696
 0.99924  0.72924  0.75063
 0.00000  0.83723  0.72849
 0.03170  0.84170  0.73215
 0.17118  0.84618  0.73582
 0.31065  0.85065  0.73949
 0.45013  0.85513  0.74316
 0.58960  0.85960  0.74682
 0.72908  0.86408  0.75049
 0.86855  0.86855  0.75416
 1.00000  0.87303  0.75783
 0.00000  0.98101  0.73569
 0.04049  0.98549  0.73935
 0.17996  0.98996  0.74302
 0.31944  0.99444  0.74669
 0.45891  0.99891  0.75036
 0.59839  1.00000  0.75402
 0.73786  1.00000  0.75769
 0.87734  1.00000  0.76136
 1.00000  1.00000  0.76503
 0.00000  0.00000  0.81448
 0.00000  0.00000  0.81815
 0.11139  0.00000  0.82182
 0.25086  0.00000  0.82549
 0.39034  0.00000  0.82915
 0.52981  0.00000  0.83282
 0.66929  0.00000  0.83649
 0.80876  0.00000  0.84016
 0.94824  0.00000  0.84382
 0.00000  0.00000  0.82168
 0.00000  0.00000  0.82535
 0.12017  0.00000  0.82902
 0.25965  0.00000  0.83269
 0.39912  0.00000  0.83635
 0.53860  0.00000  0.84002
 0.67807  0.00307  0.84369
 0.81755  0.00755  0.84736
 0.95702  0.01202  0.85102
 0.00000  0.12001  0.82888
 0.00000  0.12448  0.83255
 0.12896  0.12896  0.83622
 0.26843  0.13343  0.83989
 0.40791  0.13791  0.84355
 0.54738  0.14238  0.84722
 0.68686  0.14686  0.85089
 0.82633  0.15133  0.85456
 0.96581  0.15581  0.85822
 0.00000  0.26379  0.83608
 0.00000  0.26827  0.83975
 0.13774  0.27274  0.84342
 0.27722  0.27722  0.84709
 0.41669  0.28169  0.85075
 0.55617  0.28617  0.85442
 0.69564  0.29064  0.85809
 0.83512  0.29512  0.86176
 0.97459  0.29959  0.86542
 0.00000  0.40758  0.84328
 0.00705  0.41205  0.84695
 0.14653  0.41653  0.85062
 0.28600  0.42100  0.85429
 0.42548  0.42548  0.85795
 0.56495  0.42995  0.86162
 0.70443  0.43443  0.86529
 0.84390  0.43890  0.86896
 0.98338  0.44338  0.87262
 0.00000  0.55136  0.85048
 0.01584  0.55584  0.85415
 0.15531  0.56031  0.85782
 0.29479  0.56479  0.86149
 0.43426  0.56926  0.86515
 0.57374  0.57374  0.86882
 0.71321  0.57821  0.87249
 0.85269  0.58269  0.87616
 0.99216  0.58716  0.87982
 0.00000  0.69515  0.85768
 0.02462  0.69962  0.86135
 0.16410  0.70410  0.86502
 0.30357  0.70857  0.86869
 0.44305  0.71305  0.87235
 0.58252  0.71752  0.87602
 0.72200  0.72200  0.87969
 0.86147  0.72647  0.88336
 1.00000  0.73095  0.88702
 0.00000  0.83893  0.86488
 0.03341  0.84341  0.86855
 0.17288  0.84788  0.87222
 0.31236  0.85236  0.87589
 0.45183  0.85683  0.87955
 0.59131  0.86131  0.88322
 0.73078  0.86578  0.88689
 0.87026  0.87026  0.89056
 1.00000  0.87473  0.89422
 0.00000  0.98272  0.87208
 0.04219  0.98719  0.87575
 0.18167  0.99167  0.87942
 0.32114  0.99614  0.88309
 0.46062  1.00000  0.88675
 0.60009  1.00000  0.89042
 0.73957  1.00000  0.89409
 0.87904  1.00000  0.89776
 1.00000  1.00000  0.90142
 0.00000  0.00000  0.95088
 0.00000  0.00000  0.95455
 0.11309  0.00000  0.95822
 0.25257  0.00000  0.96188
 0.39204  0.00000  0.96555
 0.53152  0.00000  0.96922
 0.67099  0.00000  0.97289
 0.81047  0.00000  0.97655
 0.94994  0.00000  0.98022
 0.00000  0.00000  0.95808
 0.00000  0.00000  0.96175
 0.12188  0.00000  0.96542
 0.26135  0.00000  0.96908
 0.40083  0.00000  0.97275
 0.54030  0.00030  0.97642
 0.67978  0.00478  0.98009
 0.81925  0.00925  0.98375
 0.95873  0.01373  0.98742
 0.00000  0.12172  0.96528
 0.00000  0.12619  0.96895
 0.13066  0.13066  0.97262
 0.27014  0.13514  0.97628
 0.40961  0.13961  0.97995
 0.54909  0.14409  0.98362
 0.68856  0.14856  0.98729
 0.82804  0.15304  0.99095
 0.96751  0.15751  0.99462
 0.00000  0.26550  0.97248
 0.00000  0.26997  0.97615
 0.13945  0.27445  0.97982
 0.27892  0.27892  0.98348
 0.41840  0.28340  0.98715
 0.55787  0.28787  0.99082
 0.69735  0.29235  0.99449
 0.83682  0.29682  0.99815
 0.97630  0.30130  1.00000
 0.00000  0.40929  0.97968
 0.00876  0.41376  0.98335
 0.14823  0.41823  0.98702
 0.28771  0.42271  0.99068
 0.42718  0.42718  0.99435
 0.56666  0.43166  0.99802
 0.70613  0.43613  1.00000
 0.84561  0.44061  1.00000
 0.98508  0.44508  1.00000
 0.00000  0.55307  0.98688
 0.01754  0.55754  0.99055
 0.15702  0.56202  0.99422
 0.29649  0.56649  0.99788
 0.43597  0.57097  1.00000
 0.57544  0.57544  1.00000
 0.71492  0.57992  1.00000
 0.85439  0.58439  1.00000
 0.99387  0.58887  1.00000
 0.00000  0.69685  0.99408
 0.02633  0.70133  0.99775
 0.16580  0.70580  1.00000
 0.30528  0.71028  1.00000
 0.44475  0.71475  1.00000
 0.58423  0.71923  1.00000
 0.72370  0.72370  1.00000
 0.86318  0.72818  1.00000
 1.00000  0.73265  1.00000
 0.00000  0.84064  1.00000
 0.03511  0.84511  1.00000
 0.17459  0.84959  1.00000
 0.31406  0.85406  1.00000
 0.45354  0.85854  1.00000
 0.59301  0.86301  1.00000
 0.73249  0.86749  1.00000
 0.87196  0.87196  1.00000
 1.00000  0.87644  1.00000
 0.00000  0.98442  1.00000
 0.04390  0.98890  1.00000
 0.18337  0.99337  1.00000
 0.32285  0.99785  1.00000
 0.46232  1.00000  1.00000
 0.60180  1.00000  1.00000
 0.74127  1.00000  1.00000
 0.88075  1.00000  1.00000
 1.00000  1.00000  1.00000
