src/assets/luts/fade-matte.cube
TITLE "哑光褪色"
LUT_3D_SIZE 17
DOMAIN_MIN 0.0 0.0 0.0
DOMAIN_MAX 1.0 1.0 1.0
# LumEdit built-in LUT · 抬黑场的复古哑光
 0.16941  0.16413  0.15885
 0.21475  0.16591  0.16063
 0.26009  0.16769  0.16241
 0.30542  0.16946  0.16418
 0.35076  0.17124  0.16596
 0.39609  0.17301  0.16773
 0.44143  0.17479  0.16951
 0.48677  0.17657  0.17129
 0.53210  0.17834  0.17306
 0.57744  0.18012  0.17484
 0.62277  0.18189  0.17661
 0.66811  0.18367  0.17839
 0.71345  0.18545  0.18017
 0.75878  0.18722  0.18194
 0.80412  0.18900  0.18372
 0.84945  0.19077  0.18549
 0.89479  0.19255  0.18727
 0.17290  0.21118  0.16234
 0.21824  0.21296  0.16412
 0.26357  0.21473  0.16589
 0.30891  0.21651  0.16767
 0.35424  0.21828  0.16944
 0.39958  0.22006  0.17122
 0.44492  0.22184  0.17300
 0.49025  0.22361  0.17477
 0.53559  0.22539  0.17655
 0.58092  0.22716  0.17832
 0.62626  0.22894  0.18010
 0.67160  0.23072  0.18188
 0.71693  0.23249  0.18365
 0.76227  0.23427  0.18543
 0.80760  0.23604  0.18720
 0.85294  0.23782  0.18898
 0.89828  0.23960  0.19076
 0.17639  0.25823  0.16583
 0.22172  0.26000  0.16760
 0.26706  0.26178  0.16938
 0.31239  0.26355  0.17115
 0.35773  0.26533  0.17293
 0.40307  0.26711  0.17471
 0.44840  0.26888  0.17648
 0.49374  0.27066  0.17826
 0.53908  0.27244  0.18004
 0.58441  0.27421  0.18181
 0.62975  0.27599  0.18359
 0.67508  0.27776  0.18536
 0.72042  0.27954  0.18714
 0.76576  0.28132  0.18892
 0.81109  0.28309  0.19069
 0.85643  0.28487  0.19247
 0.90176  0.28664  0.19424
 0.17987  0.30527  0.16931
 0.22521  0.30705  0.17109
 0.27055  0.30883  0.17287
 0.31588  0.31060  0.17464
 0.36122  0.31238  0.17642
 0.40655  0.31415  0.17819
 0.45189  0.31593  0.17997
 0.49723  0.31771  0.18175
 0.54256  0.31948  0.18352
 0.58790  0.32126  0.18530
 0.63323  0.32303  0.18707
 0.67857  0.32481  0.18885
 0.72391  0.32659  0.19063
 0.76924  0.32836  0.19240
 0.81458  0.33014  0.19418
 0.85991  0.33191  0.19595
 0.90525  0.33369  0.19773
 0.18336  0.35232  0.17280
 0.22870  0.35410  0.17458
 0.27403  0.35587  0.17635
 0.31937  0.35765  0.17813
 0.36470  0.35942  0.17990
 0.41004  0.36120  0.18168
 0.45538  0.36298  0.18346
 0.50071  0.36475  0.18523
 0.54605  0.36653  0.18701
 0.59138  0.36830  0.18878
 0.63672  0.37008  0.19056
 0.68206  0.37186  0.19234
 0.72739  0.37363  0.19411
 0.77273  0.37541  0.19589
 0.81807  0.37719  0.19767
 0.86340  0.37896  0.19944
 0.90874  0.38074  0.20122
 0.18685  0.39937  0.17629
 0.23218  0.40114  0.17806
 0.27752  0.40292  0.17984
 0.32286  0.40470  0.18162
 0.36819  0.40647  0.18339
 0.41353  0.40825  0.18517
 0.45886  0.41002  0.18694
 0.50420  0.41180  0.18872
 0.54954  0.41358  0.19050
 0.59487  0.41535  0.19227
 0.64021  0.41713  0.19405
 0.68554  0.41890  0.19582
 0.73088  0.42068  0.19760
 0.77622  0.42246  0.19938
 0.82155  0.42423  0.20115
 0.86689  0.42601  0.20293
 0.91222  0.42778  0.20470
 0.19033  0.44641  0.17977
 0.23567  0.44819  0.18155
 0.28101  0.44997  0.18333
 0.32634  0.45174  0.18510
 0.37168  0.45352  0.18688
 0.41701  0.45529  0.18865
 0.46235  0.45707  0.19043
 0.50769  0.45885  0.19221
 0.55302  0.46062  0.19398
 0.59836  0.46240  0.19576
 0.64369  0.46417  0.19753
 0.68903  0.46595  0.19931
 0.73437  0.46773  0.20109
 0.77970  0.46950  0.20286
 0.82504  0.47128  0.20464
 0.87037  0.47305  0.20641
 0.91571  0.47483  0.20819
 0.19382  0.49346  0.18326
 0.23916  0.49524  0.18504
 0.28449  0.49701  0.18681
 0.32983  0.49879  0.18859
 0.37516  0.50056  0.19036
 0.42050  0.50234  0.19214
 0.46584  0.50412  0.19392
 0.51117  0.50589  0.19569
 0.55651  0.50767  0.19747
 0.60185  0.50945  0.19925
 0.64718  0.51122  0.20102
 0.69252  0.51300  0.20280
 0.73785  0.51477  0.20457
 0.78319  0.51655  0.20635
 0.82853  0.51833  0.20813
 0.87386  0.52010  0.20990
 0.91920  0.52188  0.21168
 0.19731  0.54051  0.18675
 0.24264  0.54228  0.18852
 0.28798  0.54406  0.19030
 0.33332  0.54584  0.19208
 0.37865  0.54761  0.19385
 0.42399  0.54939  0.19563
 0.46932  0.55116  0.19740
 0.51466  0.55294  0.19918
 0.56000  0.55472  0.20096
 0.60533  0.55649  0.20273
 0.65067  0.55827  0.20451
 0.69600  0.56004  0.20628
 0.74134  0.56182  0.20806
 0.78668  0.56360  0.20984
 0.83201  0.56537  0.21161
 0.87735  0.56715  0.21339
 0.92268  0.56892  0.21516
 0.20079  0.58755  0.19023
 0.24613  0.58933  0.19201
 0.29147  0.59111  0.19379
 0.33680  0.59288  0.19556
 0.38214  0.59466  0.19734
 0.42747  0.59643  0.19911
 0.47281  0.59821  0.20089
 0.51815  0.59999  0.20267
 0.56348  0.60176  0.20444
 0.60882  0.60354  0.20622
 0.65415  0.60531  0.20799
 0.69949  0.60709  0.20977
 0.74483  0.60887  0.21155
 0.79016  0.61064  0.21332
 0.83550  0.61242  0.21510
 0.88084  0.61420  0.21688
 0.92617  0.61597  0.21865
 0.20428  0.63460  0.19372
 0.24962  0.63638  0.19550
 0.29495  0.63815  0.19727
 0.34029  0.63993  0.19905
 0.38563  0.64171  0.20083
 0.43096  0.64348  0.20260
 0.47630  0.64526  0.20438
 0.52163  0.64703  0.20615
 0.56697  0.64881  0.20793
 0.61231  0.65059  0.20971
 0.65764  0.65236  0.21148
 0.70298  0.65414  0.21326
 0.74831  0.65591  0.21503
 0.79365  0.65769  0.21681
 0.83899  0.65947  0.21859
 0.88432  0.66124  0.22036
 0.92966  0.66302  0.22214
 0.20777  0.68165  0.19721
 0.25310  0.68342  0.19898
 0.29844  0.68520  0.20076
 0.34378  0.68698  0.20254
 0.38911  0.68875  0.20431
 0.43445  0.69053  0.20609
 0.47978  0.69230  0.20786
 0.52512  0.69408  0.20964
 0.57046  0.69586  0.21142
 0.61579  0.69763  0.21319
 0.66113  0.69941  0.21497
 0.70646  0.70118  0.21674
 0.75180  0.70296  0.21852
 0.79714  0.70474  0.22030
 0.84247  0.70651  0.22207
 0.88781  0.70829  0.22385
 0.93314  0.71006  0.22562
 0.21125  0.72869  0.20069
 0.25659  0.73047  0.20247
 0.30193  0.73225  0.20425
 0.34726  0.73402  0.20602
 0.39260  0.73580  0.20780
 0.43793  0.73757  0.20957
 0.48327  0.73935  0.21135
 0.52861  0.74113  0.21313
 0.57394  0.74290  0.21490
 0.61928  0.74468  0.21668
 0.66462  0.74646  0.21846
 0.70995  0.74823  0.22023
 0.75529  0.75001  0.22201
 0.80062  0.75178  0.22378
 0.84596  0.75356  0.22556
 0.89130  0.75534  0.22734
 0.93663  0.75711  0.22911
 0.21474  0.77574  0.20418
 0.26008  0.77752  0.20596
 0.30541  0.77929  0.20773
 0.35075  0.78107  0.20951
 0.39609  0.78285  0.21129
 0.44142  0.78462  0.21306
 0.48676  0.78640  0.21484
 0.53209  0.78817  0.21661
 0.57743  0.78995  0.21839
 0.62277  0.79173  0.22017
 0.66810  0.79350  0.22194
 0.71344  0.79528  0.22372
 0.75877  0.79705  0.22549
 0.80411  0.79883  0.22727
 0.84945  0.80061  0.22905
 0.89478  0.80238  0.23082
 0.94012  0.80416  0.23260
 0.21823  0.82279  0.20767
 0.26356  0.82456  0.20944
 0.30890  0.82634  0.21122
 0.35424  0.82812  0.21300
 0.39957  0.82989  0.21477
 0.44491  0.83167  0.21655
 0.49024  0.83344  0.21832
 0.53558  0.83522  0.22010
 0.58092  0.83700  0.22188
 0.62625  0.83877  0.22365
 0.67159  0.84055  0.22543
 0.71692  0.84232  0.22720
 0.76226  0.84410  0.22898
 0.80760  0.84588  0.23076
 0.85293  0.84765  0.23253
 0.89827  0.84943  0.23431
 0.94361  0.85121  0.23609
 0.22171  0.86983  0.21115
 0.26705  0.87161  0.21293
 0.31239  0.87339  0.21471
 0.35772  0.87516  0.21648
 0.40306  0.87694  0.21826
 0.44840  0.87872  0.22004
 0.49373  0.88049  0.22181
 0.53907  0.88227  0.22359
 0.58440  0.88404  0.22536
 0.62974  0.88582  0.22714
 0.67508  0.88760  0.22892
 0.72041  0.88937  0.23069
 0.76575  0.89115  0.23247
 0.81108  0.89292  0.23424
 0.85642  0.89470  0.23602
 0.90176  0.89648  0.23780
 0.94709  0.89825  0.23957
 0.22520  0.91688  0.21464
 0.27054  0.91866  0.21642
 0.31587  0.92043  0.21819
 0.36121  0.92221  0.21997
 0.40655  0.92399  0.22175
 0.45188  0.92576  0.22352
 0.49722  0.92754  0.22530
 0.54255  0.92931  0.22707
 0.58789  0.93109  0.22885
 0.63323  0.93287  0.23063
 0.67856  0.93464  0.23240
 0.72390  0.93642  0.23418
 0.76923  0.93819  0.23595
 0.81457  0.93997  0.23773
 0.85991  0.94175  0.23951
 0.90524  0.94352  0.24128
 0.95058  0.94530  0.24306
 0.17009  0.16481  0.20309
 0.21543  0.16659  0.20487
 0.26076  0.16836  0.20664
 0.30610  0.17014  0.20842
 0.35143  0.17191  0.21019
 0.39677  0.17369  0.21197
 0.44211  0.17547  0.21375
 0.48744  0.17724  0.21552
 0.53278  0.17902  0.21730
 0.57811  0.18079  0.21907
 0.62345  0.18257  0.22085
 0.66879  0.18435  0.22263
 0.71412  0.18612  0.22440
 0.75946  0.18790  0.22618
 0.80480  0.18968  0.22796
 0.85013  0.19145  0.22973
 0.89547  0.19323  0.23151
 0.17358  0.21186  0.20658
 0.21891  0.21363  0.20835
 0.26425  0.21541  0.21013
 0.30959  0.21719  0.21191
 0.35492  0.21896  0.21368
 0.40026  0.22074  0.21546
 0.44559  0.22251  0.21723
 0.49093  0.22429  0.21901
 0.53627  0.22607  0.22079
 0.58160  0.22784  0.22256
 0.62694  0.22962  0.22434
 0.67227  0.23139  0.22611
 0.71761  0.23317  0.22789
 0.76295  0.23495  0.22967
 0.80828  0.23672  0.23144
 0.85362  0.23850  0.23322
 0.89895  0.24027  0.23499
 0.17706  0.25890  0.21006
 0.22240  0.26068  0.21184
 0.26774  0.26246  0.21362
 0.31307  0.26423  0.21539
 0.35841  0.26601  0.21717
 0.40374  0.26778  0.21894
 0.44908  0.26956  0.22072
 0.49442  0.27134  0.22250
 0.53975  0.27311  0.22427
 0.58509  0.27489  0.22605
 0.63042  0.27666  0.22782
 0.67576  0.27844  0.22960
 0.72110  0.28022  0.23138
 0.76643  0.28199  0.23315
 0.81177  0.28377  0.23493
 0.85710  0.28554  0.23670
 0.90244  0.28732  0.23848
 0.18055  0.30595  0.21355
 0.22589  0.30773  0.21533
 0.27122  0.30950  0.21710
 0.31656  0.31128  0.21888
 0.36189  0.31305  0.22065
 0.40723  0.31483  0.22243
 0.45257  0.31661  0.22421
 0.49790  0.31838  0.22598
 0.54324  0.32016  0.22776
 0.58858  0.32194  0.22954
 0.63391  0.32371  0.23131
 0.67925  0.32549  0.23309
 0.72458  0.32726  0.23486
 0.76992  0.32904  0.23664
 0.81526  0.33082  0.23842
 0.86059  0.33259  0.24019
 0.90593  0.33437  0.24197
 0.18404  0.35300  0.21704
 0.22937  0.35477  0.21881
 0.27471  0.35655  0.22059
 0.32005  0.35833  0.22237
 0.36538  0.36010  0.22414
 0.41072  0.36188  0.22592
 0.45605  0.36365  0.22769
 0.50139  0.36543  0.22947
 0.54673  0.36721  0.23125
 0.59206  0.36898  0.23302
 0.63740  0.37076  0.23480
 0.68273  0.37253  0.23657
 0.72807  0.37431  0.23835
 0.77341  0.37609  0.24013
 0.81874  0.37786  0.24190
 0.86408  0.37964  0.24368
 0.90941  0.38141  0.24545
 0.18752  0.40004  0.22052
 0.23286  0.40182  0.22230
 0.27820  0.40360  0.22408
 0.32353  0.40537  0.22585
 0.36887  0.40715  0.22763
 0.41420  0.40892  0.22940
 0.45954  0.41070  0.23118
 0.50488  0.41248  0.23296
 0.55021  0.41425  0.23473
 0.59555  0.41603  0.23651
 0.64088  0.41780  0.23828
 0.68622  0.41958  0.24006
 0.73156  0.42136  0.24184
 0.77689  0.42313  0.24361
 0.82223  0.42491  0.24539
 0.86757  0.42669  0.24717
 0.91290  0.42846  0.24894
 0.19101  0.44709  0.22401
 0.23635  0.44887  0.22579
 0.28168  0.45064  0.22756
 0.32702  0.45242  0.22934
 0.37236  0.45420  0.23112
 0.41769  0.45597  0.23289
 0.46303  0.45775  0.23467
 0.50836  0.45952  0.23644
 0.55370  0.46130  0.23822
 0.59904  0.46308  0.24000
 0.64437  0.46485  0.24177
 0.68971  0.46663  0.24355
 0.73504  0.46840  0.24532
 0.78038  0.47018  0.24710
 0.82572  0.47196  0.24888
 0.87105  0.47373  0.25065
 0.91639  0.47551  0.25243
 0.19450  0.49414  0.22750
 0.23983  0.49591  0.22927
 0.28517  0.49769  0.23105
 0.33051  0.49947  0.23283
 0.37584  0.50124  0.23460
 0.42118  0.50302  0.23638
 0.46651  0.50479  0.23815
 0.51185  0.50657  0.23993
 0.55719  0.50835  0.24171
 0.60252  0.51012  0.24348
 0.64786  0.51190  0.24526
 0.69319  0.51367  0.24703
 0.73853  0.51545  0.24881
 0.78387  0.51723  0.25059
 0.82920  0.51900  0.25236
 0.87454  0.52078  0.25414
 0.91987  0.52255  0.25591
 0.19798  0.54118  0.23098
 0.24332  0.54296  0.23276
 0.28866  0.54474  0.23454
 0.33399  0.54651  0.23631
 0.37933  0.54829  0.23809
 0.42466  0.55006  0.23986
 0.47000  0.55184  0.24164
 0.51534  0.55362  0.24342
 0.56067  0.55539  0.24519
 0.60601  0.55717  0.24697
 0.65135  0.55895  0.24875
 0.69668  0.56072  0.25052
 0.74202  0.56250  0.25230
 0.78735  0.56427  0.25407
 0.83269  0.56605  0.25585
 0.87803  0.56783  0.25763
 0.92336  0.56960  0.25940
 0.20147  0.58823  0.23447
 0.24681  0.59001  0.23625
 0.29214  0.59178  0.23802
 0.33748  0.59356  0.23980
 0.38282  0.59534  0.24158
 0.42815  0.59711  0.24335
 0.47349  0.59889  0.24513
 0.51882  0.60066  0.24690
 0.56416  0.60244  0.24868
 0.60950  0.60422  0.25046
 0.65483  0.60599  0.25223
 0.70017  0.60777  0.25401
 0.74550  0.60954  0.25578
 0.79084  0.61132  0.25756
 0.83618  0.61310  0.25934
 0.88151  0.61487  0.26111
 0.92685  0.61665  0.26289
 0.20496  0.63528  0.23796
 0.25029  0.63705  0.23973
 0.29563  0.63883  0.24151
 0.34097  0.64061  0.24329
 0.38630  0.64238  0.24506
 0.43164  0.64416  0.24684
 0.47697  0.64593  0.24861
 0.52231  0.64771  0.25039
 0.56765  0.64949  0.25217
 0.61298  0.65126  0.25394
 0.65832  0.65304  0.25572
 0.70365  0.65481  0.25749
 0.74899  0.65659  0.25927
 0.79433  0.65837  0.26105
 0.83966  0.66014  0.26282
 0.88500  0.66192  0.26460
 0.93034  0.66370  0.26638
 0.20844  0.68232  0.24144
 0.25378  0.68410  0.24322
 0.29912  0.68588  0.24500
 0.34445  0.68765  0.24677
 0.38979  0.68943  0.24855
 0.43513  0.69121  0.25033
 0.48046  0.69298  0.25210
 0.52580  0.69476  0.25388
 0.57113  0.69653  0.25565
 0.61647  0.69831  0.25743
 0.66181  0.70009  0.25921
 0.70714  0.70186  0.26098
 0.75248  0.70364  0.26276
 0.79781  0.70541  0.26453
 0.84315  0.70719  0.26631
 0.88849  0.70897  0.26809
 0.93382  0.71074  0.26986
 0.21193  0.72937  0.24493
 0.25727  0.73115  0.24671
 0.30260  0.73292  0.24848
 0.34794  0.73470  0.25026
 0.39328  0.73648  0.25204
 0.43861  0.73825  0.25381
 0.48395  0.74003  0.25559
 0.52928  0.74180  0.25736
 0.57462  0.74358  0.25914
 0.61996  0.74536  0.26092
 0.66529  0.74713  0.26269
 0.71063  0.74891  0.26447
 0.75596  0.75068  0.26624
 0.80130  0.75246  0.26802
 0.84664  0.75424  0.26980
 0.89197  0.75601  0.27157
 0.93731  0.75779  0.27335
 0.21542  0.77642  0.24842
 0.26075  0.77819  0.25019
 0.30609  0.77997  0.25197
 0.35143  0.78175  0.25375
 0.39676  0.78352  0.25552
 0.44210  0.78530  0.25730
 0.48743  0.78707  0.25907
 0.53277  0.78885  0.26085
 0.57811  0.79063  0.26263
 0.62344  0.79240  0.26440
 0.66878  0.79418  0.26618
 0.71412  0.79596  0.26796
 0.75945  0.79773  0.26973
 0.80479  0.79951  0.27151
 0.85012  0.80128  0.27328
 0.89546  0.80306  0.27506
 0.94080  0.80484  0.27684
 0.21891  0.82347  0.25191
 0.26424  0.82524  0.25368
 0.30958  0.82702  0.25546
 0.35491  0.82879  0.25723
 0.40025  0.83057  0.25901
 0.44559  0.83235  0.26079
 0.49092  0.83412  0.26256
 0.53626  0.83590  0.26434
 0.58159  0.83767  0.26611
 0.62693  0.83945  0.26789
 0.67227  0.84123  0.26967
 0.71760  0.84300  0.27144
 0.76294  0.84478  0.27322
 0.80827  0.84655  0.27499
 0.85361  0.84833  0.27677
 0.89895  0.85011  0.27855
 0.94428  0.85188  0.28032
 0.22239  0.87051  0.25539
 0.26773  0.87229  0.25717
 0.31306  0.87406  0.25894
 0.35840  0.87584  0.26072
 0.40374  0.87762  0.26250
 0.44907  0.87939  0.26427
 0.49441  0.88117  0.26605
 0.53974  0.88294  0.26782
 0.58508  0.88472  0.26960
 0.63042  0.88650  0.27138
 0.67575  0.88827  0.27315
 0.72109  0.89005  0.27493
 0.76642  0.89182  0.27670
 0.81176  0.89360  0.27848
 0.85710  0.89538  0.28026
 0.90243  0.89715  0.28203
 0.94777  0.89893  0.28381
 0.22588  0.91756  0.25888
 0.27121  0.91933  0.26065
 0.31655  0.92111  0.26243
 0.36189  0.92289  0.26421
 0.40722  0.92466  0.26598
 0.45256  0.92644  0.26776
 0.49790  0.92822  0.26954
 0.54323  0.92999  0.27131
 0.58857  0.93177  0.27309
 0.63390  0.93354  0.27486
 0.67924  0.93532  0.27664
 0.72458  0.93710  0.27842
 0.76991  0.93887  0.28019
 0.81525  0.94065  0.28197
 0.86058  0.94242  0.28374
 0.90592  0.94420  0.28552
 0.95126  0.94598  0.28730
 0.17077  0.16549  0.24733
 0.21610  0.16726  0.24910
 0.26144  0.16904  0.25088
 0.30678  0.17082  0.25266
 0.35211  0.17259  0.25443
 0.39745  0.17437  0.25621
 0.44278  0.17614  0.25798
 0.48812  0.17792  0.25976
 0.53346  0.17970  0.26154
 0.57879  0.18147  0.26331
 0.62413  0.18325  0.26509
 0.66946  0.18502  0.26686
 0.71480  0.18680  0.26864
 0.76014  0.18858  0.27042
 0.80547  0.19035  0.27219
 0.85081  0.19213  0.27397
 0.89614  0.19390  0.27574
 0.17425  0.21253  0.25081
 0.21959  0.21431  0.25259
 0.26493  0.21609  0.25437
 0.31026  0.21786  0.25614
 0.35560  0.21964  0.25792
 0.40093  0.22141  0.25969
 0.44627  0.22319  0.26147
 0.49161  0.22497  0.26325
 0.53694  0.22674  0.26502
 0.58228  0.22852  0.26680
 0.62761  0.23029  0.26857
 0.67295  0.23207  0.27035
 0.71829  0.23385  0.27213
 0.76362  0.23562  0.27390
 0.80896  0.23740  0.27568
 0.85430  0.23918  0.27746
 0.89963  0.24095  0.27923
 0.17774  0.25958  0.25430
 0.22308  0.26136  0.25608
 0.26841  0.26313  0.25785
 0.31375  0.26491  0.25963
 0.35909  0.26669  0.26141
 0.40442  0.26846  0.26318
 0.44976  0.27024  0.26496
 0.49509  0.27201  0.26673
 0.54043  0.27379  0.26851
 0.58577  0.27557  0.27029
 0.63110  0.27734  0.27206
 0.67644  0.27912  0.27384
 0.72177  0.28089  0.27561
 0.76711  0.28267  0.27739
 0.81245  0.28445  0.27917
 0.85778  0.28622  0.28094
 0.90312  0.28800  0.28272
 0.18123  0.30663  0.25779
 0.22656  0.30840  0.25956
 0.27190  0.31018  0.26134
 0.31724  0.31196  0.26312
 0.36257  0.31373  0.26489
 0.40791  0.31551  0.26667
 0.45324  0.31728  0.26844
 0.49858  0.31906  0.27022
 0.54392  0.32084  0.27200
 0.58925  0.32261  0.27377
 0.63459  0.32439  0.27555
 0.67992  0.32616  0.27732
 0.72526  0.32794  0.27910
 0.77060  0.32972  0.28088
 0.81593  0.33149  0.28265
 0.86127  0.33327  0.28443
 0.90660  0.33504  0.28620
 0.18471  0.35367  0.26127
 0.23005  0.35545  0.26305
 0.27539  0.35723  0.26483
 0.32072  0.35900  0.26660
 0.36606  0.36078  0.26838
 0.41139  0.36255  0.27015
 0.45673  0.36433  0.27193
 0.50207  0.36611  0.27371
 0.54740  0.36788  0.27548
 0.59274  0.36966  0.27726
 0.63808  0.37144  0.27904
 0.68341  0.37321  0.28081
 0.72875  0.37499  0.28259
 0.77408  0.37676  0.28436
 0.81942  0.37854  0.28614
 0.86476  0.38032  0.28792
 0.91009  0.38209  0.28969
 0.18820  0.40072  0.26476
 0.23354  0.40250  0.26654
 0.27887  0.40427  0.26831
 0.32421  0.40605  0.27009
 0.36955  0.40783  0.27187
 0.41488  0.40960  0.27364
 0.46022  0.41138  0.27542
 0.50555  0.41315  0.27719
 0.55089  0.41493  0.27897
 0.59623  0.41671  0.28075
 0.64156  0.41848  0.28252
 0.68690  0.42026  0.28430
 0.73223  0.42203  0.28607
 0.77757  0.42381  0.28785
 0.82291  0.42559  0.28963
 0.86824  0.42736  0.29140
 0.91358  0.42914  0.29318
 0.19169  0.44777  0.26825
 0.23702  0.44954  0.27002
 0.28236  0.45132  0.27180
 0.32770  0.45310  0.27358
 0.37303  0.45487  0.27535
 0.41837  0.45665  0.27713
 0.46370  0.45842  0.27890
 0.50904  0.46020  0.28068
 0.55438  0.46198  0.28246
 0.59971  0.46375  0.28423
 0.64505  0.46553  0.28601
 0.69038  0.46730  0.28778
 0.73572  0.46908  0.28956
 0.78106  0.47086  0.29134
 0.82639  0.47263  0.29311
 0.87173  0.47441  0.29489
 0.91707  0.47619  0.29667
 0.19517  0.49481  0.27173
 0.24051  0.49659  0.27351
 0.28585  0.49837  0.27529
 0.33118  0.50014  0.27706
 0.37652  0.50192  0.27884
 0.42186  0.50370  0.28062
 0.46719  0.50547  0.28239
 0.51253  0.50725  0.28417
 0.55786  0.50902  0.28594
 0.60320  0.51080  0.28772
 0.64854  0.51258  0.28950
 0.69387  0.51435  0.29127
 0.73921  0.51613  0.29305
 0.78454  0.51790  0.29482
 0.82988  0.51968  0.29660
 0.87522  0.52146  0.29838
 0.92055  0.52323  0.30015
 0.19866  0.54186  0.27522
 0.24400  0.54364  0.27700
 0.28933  0.54541  0.27877
 0.33467  0.54719  0.28055
 0.38001  0.54897  0.28233
 0.42534  0.55074  0.28410
 0.47068  0.55252  0.28588
 0.51601  0.55429  0.28765
 0.56135  0.55607  0.28943
 0.60669  0.55785  0.29121
 0.65202  0.55962  0.29298
 0.69736  0.56140  0.29476
 0.74269  0.56317  0.29653
 0.78803  0.56495  0.29831
 0.83337  0.56673  0.30009
 0.87870  0.56850  0.30186
 0.92404  0.57028  0.30364
 0.20215  0.58891  0.27871
 0.24748  0.59068  0.28048
 0.29282  0.59246  0.28226
 0.33816  0.59424  0.28404
 0.38349  0.59601  0.28581
 0.42883  0.59779  0.28759
 0.47416  0.59956  0.28936
 0.51950  0.60134  0.29114
 0.56484  0.60312  0.29292
 0.61017  0.60489  0.29469
 0.65551  0.60667  0.29647
 0.70085  0.60845  0.29825
 0.74618  0.61022  0.30002
 0.79152  0.61200  0.30180
 0.83685  0.61377  0.30357
 0.88219  0.61555  0.30535
 0.92753  0.61733  0.30713
 0.20564  0.63596  0.28220
 0.25097  0.63773  0.28397
 0.29631  0.63951  0.28575
 0.34164  0.64128  0.28752
 0.38698  0.64306  0.28930
 0.43232  0.64484  0.29108
 0.47765  0.64661  0.29285
 0.52299  0.64839  0.29463
 0.56832  0.65016  0.29640
 0.61366  0.65194  0.29818
 0.65900  0.65372  0.29996
 0.70433  0.65549  0.30173
 0.74967  0.65727  0.30351
 0.79500  0.65904  0.30528
 0.84034  0.66082  0.30706
 0.88568  0.66260  0.30884
 0.93101  0.66437  0.31061
 0.20912  0.68300  0.28568
 0.25446  0.68478  0.28746
 0.29979  0.68655  0.28923
 0.34513  0.68833  0.29101
 0.39047  0.69011  0.29279
 0.43580  0.69188  0.29456
 0.48114  0.69366  0.29634
 0.52647  0.69543  0.29811
 0.57181  0.69721  0.29989
 0.61715  0.69899  0.30167
 0.66248  0.70076  0.30344
 0.70782  0.70254  0.30522
 0.75315  0.70431  0.30699
 0.79849  0.70609  0.30877
 0.84383  0.70787  0.31055
 0.88916  0.70964  0.31232
 0.93450  0.71142  0.31410
 0.21261  0.73005  0.28917
 0.25794  0.73182  0.29094
 0.30328  0.73360  0.29272
 0.34862  0.73538  0.29450
 0.39395  0.73715  0.29627
 0.43929  0.73893  0.29805
 0.48463  0.74071  0.29983
 0.52996  0.74248  0.30160
 0.57530  0.74426  0.30338
 0.62063  0.74603  0.30515
 0.66597  0.74781  0.30693
 0.71131  0.74959  0.30871
 0.75664  0.75136  0.31048
 0.80198  0.75314  0.31226
 0.84731  0.75491  0.31403
 0.89265  0.75669  0.31581
 0.93799  0.75847  0.31759
 0.21610  0.77710  0.29266
 0.26143  0.77887  0.29443
 0.30677  0.78065  0.29621
 0.35210  0.78242  0.29798
 0.39744  0.78420  0.29976
 0.44278  0.78598  0.30154
 0.48811  0.78775  0.30331
 0.53345  0.78953  0.30509
 0.57878  0.79130  0.30686
 0.62412  0.79308  0.30864
 0.66946  0.79486  0.31042
 0.71479  0.79663  0.31219
 0.76013  0.79841  0.31397
 0.80546  0.80018  0.31574
 0.85080  0.80196  0.31752
 0.89614  0.80374  0.31930
 0.94147  0.80551  0.32107
 0.21958  0.82414  0.29614
 0.26492  0.82592  0.29792
 0.31025  0.82769  0.29969
 0.35559  0.82947  0.30147
 0.40093  0.83125  0.30325
 0.44626  0.83302  0.30502
 0.49160  0.83480  0.30680
 0.53693  0.83657  0.30857
 0.58227  0.83835  0.31035
 0.62761  0.84013  0.31213
 0.67294  0.84190  0.31390
 0.71828  0.84368  0.31568
 0.76362  0.84546  0.31746
 0.80895  0.84723  0.31923
 0.85429  0.84901  0.32101
 0.89962  0.85078  0.32278
 0.94496  0.85256  0.32456
 0.22307  0.87119  0.29963
 0.26841  0.87297  0.30141
 0.31374  0.87474  0.30318
 0.35908  0.87652  0.30496
 0.40441  0.87829  0.30673
 0.44975  0.88007  0.30851
 0.49509  0.88185  0.31029
 0.54042  0.88362  0.31206
 0.58576  0.88540  0.31384
 0.63109  0.88717  0.31561
 0.67643  0.88895  0.31739
 0.72177  0.89073  0.31917
 0.76710  0.89250  0.32094
 0.81244  0.89428  0.32272
 0.85777  0.89605  0.32449
 0.90311  0.89783  0.32627
 0.94845  0.89961  0.32805
 0.22656  0.91824  0.30312
 0.27189  0.92001  0.30489
 0.31723  0.92179  0.30667
 0.36256  0.92356  0.30844
 0.40790  0.92534  0.31022
 0.45324  0.92712  0.31200
 0.49857  0.92889  0.31377
 0.54391  0.93067  0.31555
 0.58924  0.93244  0.31732
 0.63458  0.93422  0.31910
 0.67992  0.93600  0.32088
 0.72525  0.93777  0.32265
 0.77059  0.93955  0.32443
 0.81592  0.94132  0.32620
 0.86126  0.94310  0.32798
 0.90660  0.94488  0.32976
 0.95193  0.94665  0.33153
 0.17144  0.16616  0.29156
 0.21678  0.16794  0.29334
 0.26212  0.16972  0.29512
 0.30745  0.17149  0.29689
 0.35279  0.17327  0.29867
 0.39812  0.17504  0.30044
 0.44346  0.17682  0.30222
 0.48880  0.17860  0.30400
 0.53413  0.18037  0.30577
 0.57947  0.18215  0.30755
 0.62481  0.18393  0.30933
 0.67014  0.18570  0.31110
 0.71548  0.18748  0.31288
 0.76081  0.18925  0.31465
 0.80615  0.19103  0.31643
 0.85149  0.19281  0.31821
 0.89682  0.19458  0.31998
