src/assets/luts/fade-matte.cube
TITLE "哑光褪色"
LUT_3D_SIZE 5
DOMAIN_MIN 0.0 0.0 0.0
DOMAIN_MAX 1.0 1.0 1.0
# LumEdit built-in LUT · 抬黑场的复古哑光
 0.16941  0.16413  0.15885
 0.35076  0.17124  0.16596
 0.53210  0.17834  0.17306
 0.71345  0.18545  0.18017
 0.89479  0.19255  0.18727
 0.18336  0.35232  0.17280
 0.36470  0.35942  0.17990
 0.54605  0.36653  0.18701
 0.72739  0.37363  0.19411
 0.90874  0.38074  0.20122
 0.19731  0.54051  0.18675
 0.37865  0.54761  0.19385
 0.56000  0.55472  0.20096
 0.74134  0.56182  0.20806
 0.92268  0.56892  0.21516
 0.21125  0.72869  0.20069
 0.39260  0.73580  0.20780
 0.57394  0.74290  0.21490
 0.75529  0.75001  0.22201
 0.93663  0.75711  0.22911
 0.22520  0.91688  0.21464
 0.40655  0.92399  0.22175
 0.58789  0.93109  0.22885
 0.76923  0.93819  0.23595
 0.95058  0.94530  0.24306
 0.17212  0.16684  0.33580
 0.35347  0.17395  0.34291
 0.53481  0.18105  0.35001
 0.71615  0.18815  0.35711
 0.89750  0.19526  0.36422
 0.18607  0.35503  0.34975
 0.36741  0.36213  0.35685
 0.54876  0.36924  0.36396
 0.73010  0.37634  0.37106
 0.91145  0.38345  0.37817
 0.20002  0.54322  0.36370
 0.38136  0.55032  0.37080
 0.56270  0.55742  0.37790
 0.74405  0.56453  0.38501
 0.92539  0.57163  0.39211
 0.21396  0.73140  0.37764
 0.39531  0.73851  0.38475
 0.57665  0.74561  0.39185
 0.75800  0.75272  0.39896
 0.93934  0.75982  0.40606
 0.22791  0.91959  0.39159
 0.40925  0.92669  0.39869
 0.59060  0.93380  0.40580
 0.77194  0.94090  0.41290
 0.95329  0.94801  0.42001
 0.17483  0.16955  0.51275
 0.35617  0.17665  0.51985
 0.53752  0.18376  0.52696
 0.71886  0.19086  0.53406
 0.90021  0.19797  0.54117
 0.18878  0.35774  0.52670
 0.37012  0.36484  0.53380
 0.55147  0.37195  0.54091
 0.73281  0.37905  0.54801
 0.91415  0.38615  0.55511
 0.20272  0.54592  0.54064
 0.38407  0.55303  0.54775
 0.56541  0.56013  0.55485
 0.74676  0.56724  0.56196
 0.92810  0.57434  0.56906
 0.21667  0.73411  0.55459
 0.39802  0.74122  0.56170
 0.57936  0.74832  0.56880
 0.76070  0.75542  0.57590
 0.94205  0.76253  0.58301
 0.23062  0.92230  0.56854
 0.41196  0.92940  0.57564
 0.59331  0.93651  0.58275
 0.77465  0.94361  0.58985
 0.95600  0.95072  0.59696
 0.17754  0.17226  0.68970
 0.35888  0.17936  0.69680
 0.54023  0.18647  0.70391
 0.72157  0.19357  0.71101
 0.90292  0.20068  0.71812
 0.19149  0.36045  0.70365
 0.37283  0.36755  0.71075
 0.55417  0.37465  0.71785
 0.73552  0.38176  0.72496
 0.91686  0.38886  0.73206
 0.20543  0.54863  0.71759
 0.38678  0.55574  0.72470
 0.56812  0.56284  0.73180
 0.74947  0.56995  0.73891
 0.93081  0.57705  0.74601
 0.21938  0.73682  0.73154
 0.40072  0.74392  0.73864
 0.58207  0.75103  0.74575
 0.76341  0.75813  0.75285
 0.94476  0.76524  0.75996
 0.23333  0.92501  0.74549
 0.41467  0.93211  0.75259
 0.59602  0.93922  0.75970
 0.77736  0.94632  0.76680
 0.95870  0.95342  0.77390
 0.18025  0.17497  0.86665
 0.36159  0.18207  0.87375
 0.54294  0.18918  0.88086
 0.72428  0.19628  0.88796
 0.90562  0.20338  0.89506
 0.19419  0.36315  0.88059
 0.37554  0.37026  0.88770
 0.55688  0.37736  0.89480
 0.73823  0.38447  0.90191
 0.91957  0.39157  0.90901
 0.20814  0.55134  0.89454
 0.38949  0.55845  0.90165
 0.57083  0.56555  0.90875
 0.75217  0.57265  0.91585
 0.93352  0.57976  0.92296
 0.22209  0.73953  0.90849
 0.40343  0.74663  0.91559
 0.58478  0.75374  0.92270
 0.76612  0.76084  0.92980
 0.94747  0.76795  0.93691
 0.23604  0.92772  0.92244
 0.41738  0.93482  0.92954
 0.59872  0.94192  0.93664
 0.78007  0.94903  0.94375
 0.96141  0.95613  0.95085
