src/assets/luts/fade-matte.cube
TITLE "哑光褪色"
LUT_3D_SIZE 9
DOMAIN_MIN 0.0 0.0 0.0
DOMAIN_MAX 1.0 1.0 1.0
# LumEdit built-in LUT · 抬黑场的复古哑光
 0.16941  0.16413  0.15885
 0.26009  0.16769  0.16241
 0.35076  0.17124  0.16596
 0.44143  0.17479  0.16951
 0.53210  0.17834  0.17306
 0.62277  0.18189  0.17661
 0.71345  0.18545  0.18017
 0.80412  0.18900  0.18372
 0.89479  0.19255  0.18727
 0.17639  0.25823  0.16583
 0.26706  0.26178  0.16938
 0.35773  0.26533  0.17293
 0.44840  0.26888  0.17648
 0.53908  0.27244  0.18004
 0.62975  0.27599  0.18359
 0.72042  0.27954  0.18714
 0.81109  0.28309  0.19069
 0.90176  0.28664  0.19424
 0.18336  0.35232  0.17280
 0.27403  0.35587  0.17635
 0.36470  0.35942  0.17990
 0.45538  0.36298  0.18346
 0.54605  0.36653  0.18701
 0.63672  0.37008  0.19056
 0.72739  0.37363  0.19411
 0.81807  0.37719  0.19767
 0.90874  0.38074  0.20122
 0.19033  0.44641  0.17977
 0.28101  0.44997  0.18333
 0.37168  0.45352  0.18688
 0.46235  0.45707  0.19043
 0.55302  0.46062  0.19398
 0.64369  0.46417  0.19753
 0.73437  0.46773  0.20109
 0.82504  0.47128  0.20464
 0.91571  0.47483  0.20819
 0.19731  0.54051  0.18675
 0.28798  0.54406  0.19030
 0.37865  0.54761  0.19385
 0.46932  0.55116  0.19740
 0.56000  0.55472  0.20096
 0.65067  0.55827  0.20451
 0.74134  0.56182  0.20806
 0.83201  0.56537  0.21161
 0.92268  0.56892  0.21516
 0.20428  0.63460  0.19372
 0.29495  0.63815  0.19727
 0.38563  0.64171  0.20083
 0.47630  0.64526  0.20438
 0.56697  0.64881  0.20793
 0.65764  0.65236  0.21148
 0.74831  0.65591  0.21503
 0.83899  0.65947  0.21859
 0.92966  0.66302  0.22214
 0.21125  0.72869  0.20069
 0.30193  0.73225  0.20425
 0.39260  0.73580  0.20780
 0.48327  0.73935  0.21135
 0.57394  0.74290  0.21490
 0.66462  0.74646  0.21846
 0.75529  0.75001  0.22201
 0.84596  0.75356  0.22556
 0.93663  0.75711  0.22911
 0.21823  0.82279  0.20767
 0.30890  0.82634  0.21122
 0.39957  0.82989  0.21477
 0.49024  0.83344  0.21832
 0.58092  0.83700  0.22188
 0.67159  0.84055  0.22543
 0.76226  0.84410  0.22898
 0.85293  0.84765  0.23253
 0.94361  0.85121  0.23609
 0.22520  0.91688  0.21464
 0.31587  0.92043  0.21819
 0.40655  0.92399  0.22175
 0.49722  0.92754  0.22530
 0.58789  0.93109  0.22885
 0.67856  0.93464  0.23240
 0.76923  0.93819  0.23595
 0.85991  0.94175  0.23951
 0.95058  0.94530  0.24306
 0.17077  0.16549  0.24733
 0.26144  0.16904  0.25088
 0.35211  0.17259  0.25443
 0.44278  0.17614  0.25798
 0.53346  0.17970  0.26154
 0.62413  0.18325  0.26509
 0.71480  0.18680  0.26864
 0.80547  0.19035  0.27219
 0.89614  0.19390  0.27574
 0.17774  0.25958  0.25430
 0.26841  0.26313  0.25785
 0.35909  0.26669  0.26141
 0.44976  0.27024  0.26496
 0.54043  0.27379  0.26851
 0.63110  0.27734  0.27206
 0.72177  0.28089  0.27561
 0.81245  0.28445  0.27917
 0.90312  0.28800  0.28272
 0.18471  0.35367  0.26127
 0.27539  0.35723  0.26483
 0.36606  0.36078  0.26838
 0.45673  0.36433  0.27193
 0.54740  0.36788  0.27548
 0.63808  0.37144  0.27904
 0.72875  0.37499  0.28259
 0.81942  0.37854  0.28614
 0.91009  0.38209  0.28969
 0.19169  0.44777  0.26825
 0.28236  0.45132  0.27180
 0.37303  0.45487  0.27535
 0.46370  0.45842  0.27890
 0.55438  0.46198  0.28246
 0.64505  0.46553  0.28601
 0.73572  0.46908  0.28956
 0.82639  0.47263  0.29311
 0.91707  0.47619  0.29667
 0.19866  0.54186  0.27522
 0.28933  0.54541  0.27877
 0.38001  0.54897  0.28233
 0.47068  0.55252  0.28588
 0.56135  0.55607  0.28943
 0.65202  0.55962  0.29298
 0.74269  0.56317  0.29653
 0.83337  0.56673  0.30009
 0.92404  0.57028  0.30364
 0.20564  0.63596  0.28220
 0.29631  0.63951  0.28575
 0.38698  0.64306  0.28930
 0.47765  0.64661  0.29285
 0.56832  0.65016  0.29640
 0.65900  0.65372  0.29996
 0.74967  0.65727  0.30351
 0.84034  0.66082  0.30706
 0.93101  0.66437  0.31061
 0.21261  0.73005  0.28917
 0.30328  0.73360  0.29272
 0.39395  0.73715  0.29627
 0.48463  0.74071  0.29983
 0.57530  0.74426  0.30338
 0.66597  0.74781  0.30693
 0.75664  0.75136  0.31048
 0.84731  0.75491  0.31403
 0.93799  0.75847  0.31759
 0.21958  0.82414  0.29614
 0.31025  0.82769  0.29969
 0.40093  0.83125  0.30325
 0.49160  0.83480  0.30680
 0.58227  0.83835  0.31035
 0.67294  0.84190  0.31390
 0.76362  0.84546  0.31746
 0.85429  0.84901  0.32101
 0.94496  0.85256  0.32456
 0.22656  0.91824  0.30312
 0.31723  0.92179  0.30667
 0.40790  0.92534  0.31022
 0.49857  0.92889  0.31377
 0.58924  0.93244  0.31732
 0.67992  0.93600  0.32088
 0.77059  0.93955  0.32443
 0.86126  0.94310  0.32798
 0.95193  0.94665  0.33153
 0.17212  0.16684  0.33580
 0.26279  0.17039  0.33935
 0.35347  0.17395  0.34291
 0.44414  0.17750  0.34646
 0.53481  0.18105  0.35001
 0.62548  0.18460  0.35356
 0.71615  0.18815  0.35711
 0.80683  0.19171  0.36067
 0.89750  0.19526  0.36422
 0.17910  0.26094  0.34278
 0.26977  0.26449  0.34633
 0.36044  0.26804  0.34988
 0.45111  0.27159  0.35343
 0.54178  0.27514  0.35698
 0.63246  0.27870  0.36054
 0.72313  0.28225  0.36409
 0.81380  0.28580  0.36764
 0.90447  0.28935  0.37119
 0.18607  0.35503  0.34975
 0.27674  0.35858  0.35330
 0.36741  0.36213  0.35685
 0.45809  0.36569  0.36041
 0.54876  0.36924  0.36396
 0.63943  0.37279  0.36751
 0.73010  0.37634  0.37106
 0.82077  0.37989  0.37461
 0.91145  0.38345  0.37817
 0.19304  0.44912  0.35672
 0.28371  0.45267  0.36027
 0.37439  0.45623  0.36383
 0.46506  0.45978  0.36738
 0.55573  0.46333  0.37093
 0.64640  0.46688  0.37448
 0.73708  0.47044  0.37804
 0.82775  0.47399  0.38159
 0.91842  0.47754  0.38514
 0.20002  0.54322  0.36370
 0.29069  0.54677  0.36725
 0.38136  0.55032  0.37080
 0.47203  0.55387  0.37435
 0.56270  0.55742  0.37790
 0.65338  0.56098  0.38146
 0.74405  0.56453  0.38501
 0.83472  0.56808  0.38856
 0.92539  0.57163  0.39211
 0.20699  0.63731  0.37067
 0.29766  0.64086  0.37422
 0.38833  0.64441  0.37777
 0.47901  0.64797  0.38133
 0.56968  0.65152  0.38488
 0.66035  0.65507  0.38843
 0.75102  0.65862  0.39198
 0.84169  0.66217  0.39553
 0.93237  0.66573  0.39909
 0.21396  0.73140  0.37764
 0.30464  0.73496  0.38120
 0.39531  0.73851  0.38475
 0.48598  0.74206  0.38830
 0.57665  0.74561  0.39185
 0.66732  0.74916  0.39540
 0.75800  0.75272  0.39896
 0.84867  0.75627  0.40251
 0.93934  0.75982  0.40606
 0.22094  0.82550  0.38462
 0.31161  0.82905  0.38817
 0.40228  0.83260  0.39172
 0.49295  0.83615  0.39527
 0.58363  0.83971  0.39883
 0.67430  0.84326  0.40238
 0.76497  0.84681  0.40593
 0.85564  0.85036  0.40948
 0.94631  0.85391  0.41303
 0.22791  0.91959  0.39159
 0.31858  0.92314  0.39514
 0.40925  0.92669  0.39869
 0.49993  0.93025  0.40225
 0.59060  0.93380  0.40580
 0.68127  0.93735  0.40935
 0.77194  0.94090  0.41290
 0.86262  0.94446  0.41646
 0.95329  0.94801  0.42001
 0.17348  0.16820  0.42428
 0.26415  0.17175  0.42783
 0.35482  0.17530  0.43138
 0.44549  0.17885  0.43493
 0.53616  0.18240  0.43848
 0.62684  0.18596  0.44204
 0.71751  0.18951  0.44559
 0.80818  0.19306  0.44914
 0.89885  0.19661  0.45269
 0.18045  0.26229  0.43125
 0.27112  0.26584  0.43480
 0.36179  0.26939  0.43835
 0.45247  0.27295  0.44191
 0.54314  0.27650  0.44546
 0.63381  0.28005  0.44901
 0.72448  0.28360  0.45256
 0.81515  0.28715  0.45611
 0.90583  0.29071  0.45967
 0.18742  0.35638  0.43822
 0.27810  0.35994  0.44178
 0.36877  0.36349  0.44533
 0.45944  0.36704  0.44888
 0.55011  0.37059  0.45243
 0.64078  0.37414  0.45598
 0.73146  0.37770  0.45954
 0.82213  0.38125  0.46309
 0.91280  0.38480  0.46664
 0.19440  0.45048  0.44520
 0.28507  0.45403  0.44875
 0.37574  0.45758  0.45230
 0.46641  0.46113  0.45585
 0.55709  0.46469  0.45941
 0.64776  0.46824  0.46296
 0.73843  0.47179  0.46651
 0.82910  0.47534  0.47006
 0.91977  0.47889  0.47361
 0.20137  0.54457  0.45217
 0.29204  0.54812  0.45572
 0.38271  0.55167  0.45927
 0.47339  0.55523  0.46283
 0.56406  0.55878  0.46638
 0.65473  0.56233  0.46993
 0.74540  0.56588  0.47348
 0.83608  0.56944  0.47704
 0.92675  0.57299  0.48059
 0.20834  0.63866  0.45914
 0.29902  0.64222  0.46270
 0.38969  0.64577  0.46625
 0.48036  0.64932  0.46980
 0.57103  0.65287  0.47335
 0.66170  0.65642  0.47690
 0.75238  0.65998  0.48046
 0.84305  0.66353  0.48401
 0.93372  0.66708  0.48756
 0.21532  0.73276  0.46612
 0.30599  0.73631  0.46967
 0.39666  0.73986  0.47322
 0.48733  0.74341  0.47677
 0.57801  0.74697  0.48033
 0.66868  0.75052  0.48388
 0.75935  0.75407  0.48743
 0.85002  0.75762  0.49098
 0.94069  0.76117  0.49453
 0.22229  0.82685  0.47309
 0.31296  0.83040  0.47664
 0.40364  0.83396  0.48020
 0.49431  0.83751  0.48375
 0.58498  0.84106  0.48730
 0.67565  0.84461  0.49085
 0.76632  0.84816  0.49440
 0.85700  0.85172  0.49796
 0.94767  0.85527  0.50151
 0.22926  0.92094  0.48006
 0.31994  0.92450  0.48362
 0.41061  0.92805  0.48717
 0.50128  0.93160  0.49072
 0.59195  0.93515  0.49427
 0.68263  0.93871  0.49783
 0.77330  0.94226  0.50138
 0.86397  0.94581  0.50493
 0.95464  0.94936  0.50848
 0.17483  0.16955  0.51275
 0.26550  0.17310  0.51630
 0.35617  0.17665  0.51985
 0.44685  0.18021  0.52341
 0.53752  0.18376  0.52696
 0.62819  0.18731  0.53051
 0.71886  0.19086  0.53406
 0.80954  0.19442  0.53762
 0.90021  0.19797  0.54117
 0.18180  0.26364  0.51972
 0.27248  0.26720  0.52328
 0.36315  0.27075  0.52683
 0.45382  0.27430  0.53038
 0.54449  0.27785  0.53393
 0.63516  0.28140  0.53748
 0.72584  0.28496  0.54104
 0.81651  0.28851  0.54459
 0.90718  0.29206  0.54814
 0.18878  0.35774  0.52670
 0.27945  0.36129  0.53025
 0.37012  0.36484  0.53380
 0.46079  0.36839  0.53735
 0.55147  0.37195  0.54091
 0.64214  0.37550  0.54446
 0.73281  0.37905  0.54801
 0.82348  0.38260  0.55156
 0.91415  0.38615  0.55511
 0.19575  0.45183  0.53367
 0.28642  0.45538  0.53722
 0.37710  0.45894  0.54078
 0.46777  0.46249  0.54433
 0.55844  0.46604  0.54788
 0.64911  0.46959  0.55143
 0.73978  0.47314  0.55498
 0.83046  0.47670  0.55854
 0.92113  0.48025  0.56209
 0.20272  0.54592  0.54064
 0.29340  0.54948  0.54420
 0.38407  0.55303  0.54775
 0.47474  0.55658  0.55130
 0.56541  0.56013  0.55485
 0.65609  0.56369  0.55841
 0.74676  0.56724  0.56196
 0.83743  0.57079  0.56551
 0.92810  0.57434  0.56906
 0.20970  0.64002  0.54762
 0.30037  0.64357  0.55117
 0.39104  0.64712  0.55472
 0.48171  0.65067  0.55827
 0.57239  0.65423  0.56183
 0.66306  0.65778  0.56538
 0.75373  0.66133  0.56893
 0.84440  0.66488  0.57248
 0.93508  0.66844  0.57604
 0.21667  0.73411  0.55459
 0.30734  0.73766  0.55814
 0.39802  0.74122  0.56170
 0.48869  0.74477  0.56525
 0.57936  0.74832  0.56880
 0.67003  0.75187  0.57235
 0.76070  0.75542  0.57590
 0.85138  0.75898  0.57946
 0.94205  0.76253  0.58301
 0.22365  0.82821  0.56157
 0.31432  0.83176  0.56512
 0.40499  0.83531  0.56867
 0.49566  0.83886  0.57222
 0.58633  0.84241  0.57577
 0.67701  0.84597  0.57933
 0.76768  0.84952  0.58288
 0.85835  0.85307  0.58643
 0.94902  0.85662  0.58998
 0.23062  0.92230  0.56854
 0.32129  0.92585  0.57209
 0.41196  0.92940  0.57564
 0.50264  0.93296  0.57920
 0.59331  0.93651  0.58275
 0.68398  0.94006  0.58630
 0.77465  0.94361  0.58985
 0.86532  0.94716  0.59340
 0.95600  0.95072  0.59696
 0.17618  0.17090  0.60122
 0.26686  0.17446  0.60478
 0.35753  0.17801  0.60833
 0.44820  0.18156  0.61188
 0.53887  0.18511  0.61543
 0.62955  0.18867  0.61899
 0.72022  0.19222  0.62254
 0.81089  0.19577  0.62609
 0.90156  0.19932  0.62964
 0.18316  0.26500  0.60820
 0.27383  0.26855  0.61175
 0.36450  0.27210  0.61530
 0.45517  0.27565  0.61885
 0.54585  0.27921  0.62241
 0.63652  0.28276  0.62596
 0.72719  0.28631  0.62951
 0.81786  0.28986  0.63306
 0.90854  0.29342  0.63662
 0.19013  0.35909  0.61517
 0.28080  0.36264  0.61872
 0.37148  0.36620  0.62228
 0.46215  0.36975  0.62583
 0.55282  0.37330  0.62938
 0.64349  0.37685  0.63293
 0.73416  0.38040  0.63648
 0.82484  0.38396  0.64004
 0.91551  0.38751  0.64359
 0.19711  0.45319  0.62215
 0.28778  0.45674  0.62570
 0.37845  0.46029  0.62925
 0.46912  0.46384  0.63280
 0.55979  0.46739  0.63635
 0.65047  0.47095  0.63991
 0.74114  0.47450  0.64346
 0.83181  0.47805  0.64701
 0.92248  0.48160  0.65056
 0.20408  0.54728  0.62912
 0.29475  0.55083  0.63267
 0.38542  0.55438  0.63622
 0.47610  0.55794  0.63978
 0.56677  0.56149  0.64333
 0.65744  0.56504  0.64688
 0.74811  0.56859  0.65043
 0.83878  0.57214  0.65398
 0.92946  0.57570  0.65754
 0.21105  0.64137  0.63609
 0.30172  0.64492  0.63964
 0.39240  0.64848  0.64320
 0.48307  0.65203  0.64675
 0.57374  0.65558  0.65030
 0.66441  0.65913  0.65385
 0.75509  0.66269  0.65741
 0.84576  0.66624  0.66096
 0.93643  0.66979  0.66451
 0.21803  0.73547  0.64307
 0.30870  0.73902  0.64662
 0.39937  0.74257  0.65017
 0.49004  0.74612  0.65372
 0.58071  0.74967  0.65727
 0.67139  0.75323  0.66083
 0.76206  0.75678  0.66438
 0.85273  0.76033  0.66793
 0.94340  0.76388  0.67148
 0.22500  0.82956  0.65004
 0.31567  0.83311  0.65359
 0.40634  0.83666  0.65714
 0.49702  0.84022  0.66070
 0.58769  0.84377  0.66425
 0.67836  0.84732  0.66780
 0.76903  0.85087  0.67135
 0.85970  0.85442  0.67490
 0.95038  0.85798  0.67846
 0.23197  0.92365  0.65701
 0.32265  0.92721  0.66057
 0.41332  0.93076  0.66412
 0.50399  0.93431  0.66767
 0.59466  0.93786  0.67122
 0.68533  0.94141  0.67477
 0.77601  0.94497  0.67833
 0.86668  0.94852  0.68188
 0.95735  0.95207  0.68543
 0.17754  0.17226  0.68970
 0.26821  0.17581  0.69325
 0.35888  0.17936  0.69680
 0.44956  0.18292  0.70036
 0.54023  0.18647  0.70391
 0.63090  0.19002  0.70746
 0.72157  0.19357  0.71101
 0.81224  0.19712  0.71456
 0.90292  0.20068  0.71812
 0.18451  0.26635  0.69667
 0.27518  0.26990  0.70022
 0.36586  0.27346  0.70378
 0.45653  0.27701  0.70733
 0.54720  0.28056  0.71088
 0.63787  0.28411  0.71443
 0.72855  0.28767  0.71799
 0.81922  0.29122  0.72154
 0.90989  0.29477  0.72509
 0.19149  0.36045  0.70365
 0.28216  0.36400  0.70720
 0.37283  0.36755  0.71075
 0.46350  0.37110  0.71430
 0.55417  0.37465  0.71785
 0.64485  0.37821  0.72141
 0.73552  0.38176  0.72496
 0.82619  0.38531  0.72851
 0.91686  0.38886  0.73206
 0.19846  0.45454  0.71062
 0.28913  0.45809  0.71417
 0.37980  0.46164  0.71772
 0.47048  0.46520  0.72128
 0.56115  0.46875  0.72483
 0.65182  0.47230  0.72838
 0.74249  0.47585  0.73193
 0.83316  0.47940  0.73548
 0.92384  0.48296  0.73904
 0.20543  0.54863  0.71759
 0.29611  0.55219  0.72115
 0.38678  0.55574  0.72470
 0.47745  0.55929  0.72825
 0.56812  0.56284  0.73180
 0.65879  0.56639  0.73535
 0.74947  0.56995  0.73891
 0.84014  0.57350  0.74246
 0.93081  0.57705  0.74601
 0.21241  0.64273  0.72457
 0.30308  0.64628  0.72812
 0.39375  0.64983  0.73167
 0.48442  0.65338  0.73522
 0.57510  0.65694  0.73878
 0.66577  0.66049  0.74233
 0.75644  0.66404  0.74588
 0.84711  0.66759  0.74943
 0.93778  0.67114  0.75298
 0.21938  0.73682  0.73154
 0.31005  0.74037  0.73509
 0.40072  0.74392  0.73864
 0.49140  0.74748  0.74220
 0.58207  0.75103  0.74575
 0.67274  0.75458  0.74930
 0.76341  0.75813  0.75285
 0.85409  0.76169  0.75641
 0.94476  0.76524  0.75996
 0.22635  0.83091  0.73851
 0.31703  0.83447  0.74207
 0.40770  0.83802  0.74562
 0.49837  0.84157  0.74917
 0.58904  0.84512  0.75272
 0.67971  0.84867  0.75627
 0.77039  0.85223  0.75983
 0.86106  0.85578  0.76338
 0.95173  0.85933  0.76693
 0.23333  0.92501  0.74549
 0.32400  0.92856  0.74904
 0.41467  0.93211  0.75259
 0.50534  0.93566  0.75614
 0.59602  0.93922  0.75970
 0.68669  0.94277  0.76325
 0.77736  0.94632  0.76680
 0.86803  0.94987  0.77035
 0.95870  0.95342  0.77390
 0.17889  0.17361  0.77817
 0.26957  0.17717  0.78173
 0.36024  0.18072  0.78528
 0.45091  0.18427  0.78883
 0.54158  0.18782  0.79238
 0.63225  0.19137  0.79593
 0.72293  0.19493  0.79949
 0.81360  0.19848  0.80304
 0.90427  0.20203  0.80659
 0.18587  0.26771  0.78515
 0.27654  0.27126  0.78870
 0.36721  0.27481  0.79225
 0.45788  0.27836  0.79580
 0.54856  0.28192  0.79936
 0.63923  0.28547  0.80291
 0.72990  0.28902  0.80646
 0.82057  0.29257  0.81001
 0.91124  0.29612  0.81356
 0.19284  0.36180  0.79212
 0.28351  0.36535  0.79567
 0.37418  0.36890  0.79922
 0.46486  0.37246  0.80278
 0.55553  0.37601  0.80633
 0.64620  0.37956  0.80988
 0.73687  0.38311  0.81343
 0.82755  0.38667  0.81699
 0.91822  0.39022  0.82054
 0.19981  0.45589  0.79909
 0.29049  0.45945  0.80265
 0.38116  0.46300  0.80620
 0.47183  0.46655  0.80975
 0.56250  0.47010  0.81330
 0.65317  0.47365  0.81685
 0.74385  0.47721  0.82041
 0.83452  0.48076  0.82396
 0.92519  0.48431  0.82751
 0.20679  0.54999  0.80607
 0.29746  0.55354  0.80962
 0.38813  0.55709  0.81317
 0.47880  0.56064  0.81672
 0.56948  0.56420  0.82028
 0.66015  0.56775  0.82383
 0.75082  0.57130  0.82738
 0.84149  0.57485  0.83093
 0.93216  0.57840  0.83448
 0.21376  0.64408  0.81304
 0.30443  0.64763  0.81659
 0.39511  0.65119  0.82015
 0.48578  0.65474  0.82370
 0.57645  0.65829  0.82725
 0.66712  0.66184  0.83080
 0.75779  0.66539  0.83435
 0.84847  0.66895  0.83791
 0.93914  0.67250  0.84146
 0.22073  0.73817  0.82001
 0.31141  0.74173  0.82357
 0.40208  0.74528  0.82712
 0.49275  0.74883  0.83067
 0.58342  0.75238  0.83422
 0.67410  0.75594  0.83778
 0.76477  0.75949  0.84133
 0.85544  0.76304  0.84488
 0.94611  0.76659  0.84843
 0.22771  0.83227  0.82699
 0.31838  0.83582  0.83054
 0.40905  0.83937  0.83409
 0.49972  0.84292  0.83764
 0.59040  0.84648  0.84120
 0.68107  0.85003  0.84475
 0.77174  0.85358  0.84830
 0.86241  0.85713  0.85185
 0.95309  0.86069  0.85541
 0.23468  0.92636  0.83396
 0.32535  0.92991  0.83751
 0.41603  0.93347  0.84107
 0.50670  0.93702  0.84462
 0.59737  0.94057  0.84817
 0.68804  0.94412  0.85172
 0.77871  0.94767  0.85527
 0.86939  0.95123  0.85883
 0.96006  0.95478  0.86238
 0.18025  0.17497  0.86665
 0.27092  0.17852  0.87020
 0.36159  0.18207  0.87375
 0.45226  0.18562  0.87730
 0.54294  0.18918  0.88086
 0.63361  0.19273  0.88441
 0.72428  0.19628  0.88796
 0.81495  0.19983  0.89151
 0.90562  0.20338  0.89506
 0.18722  0.26906  0.87362
 0.27789  0.27261  0.87717
 0.36857  0.27617  0.88073
 0.45924  0.27972  0.88428
 0.54991  0.28327  0.88783
 0.64058  0.28682  0.89138
 0.73125  0.29037  0.89493
 0.82193  0.29393  0.89849
 0.91260  0.29748  0.90204
 0.19419  0.36315  0.88059
 0.28487  0.36671  0.88415
 0.37554  0.37026  0.88770
 0.46621  0.37381  0.89125
 0.55688  0.37736  0.89480
 0.64756  0.38092  0.89836
 0.73823  0.38447  0.90191
 0.82890  0.38802  0.90546
 0.91957  0.39157  0.90901
 0.20117  0.45725  0.88757
 0.29184  0.46080  0.89112
 0.38251  0.46435  0.89467
 0.47318  0.46790  0.89822
 0.56386  0.47146  0.90178
 0.65453  0.47501  0.90533
 0.74520  0.47856  0.90888
 0.83587  0.48211  0.91243
 0.92655  0.48567  0.91599
 0.20814  0.55134  0.89454
 0.29881  0.55489  0.89809
 0.38949  0.55845  0.90165
 0.48016  0.56200  0.90520
 0.57083  0.56555  0.90875
 0.66150  0.56910  0.91230
 0.75217  0.57265  0.91585
 0.84285  0.57621  0.91941
 0.93352  0.57976  0.92296
 0.21512  0.64544  0.90152
 0.30579  0.64899  0.90507
 0.39646  0.65254  0.90862
 0.48713  0.65609  0.91217
 0.57780  0.65964  0.91572
 0.66848  0.66320  0.91928
 0.75915  0.66675  0.92283
 0.84982  0.67030  0.92638
 0.94049  0.67385  0.92993
 0.22209  0.73953  0.90849
 0.31276  0.74308  0.91204
 0.40343  0.74663  0.91559
 0.49411  0.75019  0.91915
 0.58478  0.75374  0.92270
 0.67545  0.75729  0.92625
 0.76612  0.76084  0.92980
 0.85679  0.76439  0.93335
 0.94747  0.76795  0.93691
 0.22906  0.83362  0.91546
 0.31973  0.83717  0.91901
 0.41041  0.84073  0.92257
 0.50108  0.84428  0.92612
 0.59175  0.84783  0.92967
 0.68242  0.85138  0.93322
 0.77310  0.85494  0.93678
 0.86377  0.85849  0.94033
 0.95444  0.86204  0.94388
 0.23604  0.92772  0.92244
 0.32671  0.93127  0.92599
 0.41738  0.93482  0.92954
 0.50805  0.93837  0.93309
 0.59872  0.94192  0.93664
 0.68940  0.94548  0.94020
 0.78007  0.94903  0.94375
 0.87074  0.95258  0.94730
 0.96141  0.95613  0.95085
