src/assets/luts/fuji-3510.cube
TITLE "Fuji 3510"
LUT_3D_SIZE 5
DOMAIN_MIN 0.0 0.0 0.0
DOMAIN_MAX 1.0 1.0 1.0
# LumEdit built-in LUT · 富士胶片，清透微冷
 0.00000  0.00000  0.00000
 0.23221  0.00000  0.00000
 0.48919  0.00000  0.00000
 0.74617  0.00000  0.00000
 1.00000  0.00000  0.00017
 0.00000  0.24418  0.00000
 0.23683  0.24653  0.00000
 0.49381  0.24889  0.00008
 0.75079  0.25124  0.00244
 1.00000  0.25360  0.00479
 0.00000  0.50343  0.00000
 0.24146  0.50578  0.00235
 0.49844  0.50814  0.00471
 0.75541  0.51049  0.00706
 1.00000  0.51284  0.00941
 0.00000  0.76267  0.00462
 0.24608  0.76503  0.00697
 0.50306  0.76738  0.00933
 0.76004  0.76974  0.01168
 1.00000  0.77209  0.01404
 0.00000  1.00000  0.00924
 0.25070  1.00000  0.01160
 0.50768  1.00000  0.01395
 0.76466  1.00000  0.01631
 1.00000  1.00000  0.01866
 0.00000  0.00000  0.24627
 0.23311  0.00000  0.24863
 0.49009  0.00000  0.25098
 0.74707  0.00000  0.25334
 1.00000  0.00000  0.25569
 0.00000  0.24508  0.25090
 0.23773  0.24743  0.25325
 0.49471  0.24979  0.25561
 0.75169  0.25214  0.25796
 1.00000  0.25449  0.26031
 0.00000  0.50432  0.25552
 0.24235  0.50668  0.25787
 0.49933  0.50903  0.26023
 0.75631  0.51139  0.26258
 1.00000  0.51374  0.26494
 0.00000  0.76357  0.26014
 0.24698  0.76593  0.26250
 0.50396  0.76828  0.26485
 0.76094  0.77064  0.26721
 1.00000  0.77299  0.26956
 0.00000  1.00000  0.26476
 0.25160  1.00000  0.26712
 0.50858  1.00000  0.26947
 0.76556  1.00000  0.27183
 1.00000  1.00000  0.27418
 0.00000  0.00000  0.50180
 0.23401  0.00000  0.50415
 0.49099  0.00000  0.50651
 0.74797  0.00000  0.50886
 1.00000  0.00000  0.51121
 0.00000  0.24597  0.50642
 0.23863  0.24833  0.50877
 0.49561  0.25068  0.51113
 0.75259  0.25304  0.51348
 1.00000  0.25539  0.51584
 0.00000  0.50522  0.51104
 0.24325  0.50758  0.51340
 0.50023  0.50993  0.51575
 0.75721  0.51229  0.51811
 1.00000  0.51464  0.52046
 0.00000  0.76447  0.51566
 0.24787  0.76682  0.51802
 0.50485  0.76918  0.52037
 0.76183  0.77153  0.52273
 1.00000  0.77389  0.52508
 0.00000  1.00000  0.52029
 0.25250  1.00000  0.52264
 0.50948  1.00000  0.52500
 0.76646  1.00000  0.52735
 1.00000  1.00000  0.52971
 0.00000  0.00000  0.75732
 0.23490  0.00000  0.75967
 0.49188  0.00000  0.76203
 0.74886  0.00000  0.76438
 1.00000  0.00000  0.76674
 0.00000  0.24687  0.76194
 0.23953  0.24923  0.76430
 0.49651  0.25158  0.76665
 0.75349  0.25394  0.76901
 1.00000  0.25629  0.77136
 0.00000  0.50612  0.76656
 0.24415  0.50847  0.76892
 0.50113  0.51083  0.77127
 0.75811  0.51318  0.77363
 1.00000  0.51554  0.77598
 0.00000  0.76537  0.77119
 0.24877  0.76772  0.77354
 0.50575  0.77008  0.77590
 0.76273  0.77243  0.77825
 1.00000  0.77479  0.78061
 0.00000  1.00000  0.77581
 0.25339  1.00000  0.77816
 0.51037  1.00000  0.78052
 0.76735  1.00000  0.78287
 1.00000  1.00000  0.78523
 0.00000  0.00000  1.00000
 0.23580  0.00000  1.00000
 0.49278  0.00000  1.00000
 0.74976  0.00000  1.00000
 1.00000  0.00000  1.00000
 0.00000  0.24777  1.00000
 0.24042  0.25012  1.00000
 0.49740  0.25248  1.00000
 0.75438  0.25483  1.00000
 1.00000  0.25719  1.00000
 0.00000  0.50702  1.00000
 0.24505  0.50937  1.00000
 0.50203  0.51173  1.00000
 0.75901  0.51408  1.00000
 1.00000  0.51644  1.00000
 0.00000  0.76626  1.00000
 0.24967  0.76862  1.00000
 0.50665  0.77097  1.00000
 0.76363  0.77333  1.00000
 1.00000  0.77568  1.00000
 0.00000  1.00000  1.00000
 0.25429  1.00000  1.00000
 0.51127  1.00000  1.00000
 0.76825  1.00000  1.00000
 1.00000  1.00000  1.00000
