src/assets/luts/fuji-3510.cube
TITLE "Fuji 3510"
LUT_3D_SIZE 9
DOMAIN_MIN 0.0 0.0 0.0
DOMAIN_MAX 1.0 1.0 1.0
# LumEdit built-in LUT · 富士胶片，清透微冷
 0.00000  0.00000  0.00000
 0.10372  0.00000  0.00000
 0.23221  0.00000  0.00000
 0.36070  0.00000  0.00000
 0.48919  0.00000  0.00000
 0.61768  0.00000  0.00000
 0.74617  0.00000  0.00000
 0.87466  0.00000  0.00000
 1.00000  0.00000  0.00017
 0.00000  0.11455  0.00000
 0.10603  0.11573  0.00000
 0.23452  0.11691  0.00000
 0.36301  0.11809  0.00000
 0.49150  0.11926  0.00000
 0.61999  0.12044  0.00000
 0.74848  0.12162  0.00013
 0.87697  0.12280  0.00130
 1.00000  0.12397  0.00248
 0.00000  0.24418  0.00000
 0.10834  0.24536  0.00000
 0.23683  0.24653  0.00000
 0.36532  0.24771  0.00000
 0.49381  0.24889  0.00008
 0.62230  0.25007  0.00126
 0.75079  0.25124  0.00244
 0.87928  0.25242  0.00361
 1.00000  0.25360  0.00479
 0.00000  0.37380  0.00000
 0.11065  0.37498  0.00000
 0.23914  0.37616  0.00004
 0.36763  0.37733  0.00122
 0.49612  0.37851  0.00239
 0.62461  0.37969  0.00357
 0.75310  0.38087  0.00475
 0.88159  0.38204  0.00593
 1.00000  0.38322  0.00710
 0.00000  0.50343  0.00000
 0.11297  0.50460  0.00117
 0.24146  0.50578  0.00235
 0.36995  0.50696  0.00353
 0.49844  0.50814  0.00471
 0.62693  0.50931  0.00588
 0.75541  0.51049  0.00706
 0.88390  0.51167  0.00824
 1.00000  0.51284  0.00941
 0.00000  0.63305  0.00231
 0.11528  0.63423  0.00348
 0.24377  0.63540  0.00466
 0.37226  0.63658  0.00584
 0.50075  0.63776  0.00702
 0.62924  0.63894  0.00819
 0.75773  0.64011  0.00937
 0.88622  0.64129  0.01055
 1.00000  0.64247  0.01173
 0.00000  0.76267  0.00462
 0.11759  0.76385  0.00580
 0.24608  0.76503  0.00697
 0.37457  0.76621  0.00815
 0.50306  0.76738  0.00933
 0.63155  0.76856  0.01051
 0.76004  0.76974  0.01168
 0.88853  0.77091  0.01286
 1.00000  0.77209  0.01404
 0.00000  0.89230  0.00693
 0.11990  0.89347  0.00811
 0.24839  0.89465  0.00928
 0.37688  0.89583  0.01046
 0.50537  0.89701  0.01164
 0.63386  0.89818  0.01282
 0.76235  0.89936  0.01399
 0.89084  0.90054  0.01517
 1.00000  0.90172  0.01635
 0.00000  1.00000  0.00924
 0.12221  1.00000  0.01042
 0.25070  1.00000  0.01160
 0.37919  1.00000  0.01277
 0.50768  1.00000  0.01395
 0.63617  1.00000  0.01513
 0.76466  1.00000  0.01631
 0.89315  1.00000  0.01748
 1.00000  1.00000  0.01866
 0.00000  0.00000  0.11851
 0.10417  0.00000  0.11969
 0.23266  0.00000  0.12087
 0.36115  0.00000  0.12204
 0.48964  0.00000  0.12322
 0.61813  0.00000  0.12440
 0.74662  0.00000  0.12558
 0.87511  0.00000  0.12675
 1.00000  0.00000  0.12793
 0.00000  0.11500  0.12082
 0.10648  0.11618  0.12200
 0.23497  0.11736  0.12318
 0.36346  0.11854  0.12436
 0.49195  0.11971  0.12553
 0.62044  0.12089  0.12671
 0.74893  0.12207  0.12789
 0.87742  0.12324  0.12906
 1.00000  0.12442  0.13024
 0.00000  0.24463  0.12313
 0.10879  0.24580  0.12431
 0.23728  0.24698  0.12549
 0.36577  0.24816  0.12667
 0.49426  0.24934  0.12784
 0.62275  0.25051  0.12902
 0.75124  0.25169  0.13020
 0.87973  0.25287  0.13138
 1.00000  0.25405  0.13255
 0.00000  0.37425  0.12545
 0.11110  0.37543  0.12662
 0.23959  0.37661  0.12780
 0.36808  0.37778  0.12898
 0.49657  0.37896  0.13016
 0.62506  0.38014  0.13133
 0.75355  0.38132  0.13251
 0.88204  0.38249  0.13369
 1.00000  0.38367  0.13486
 0.00000  0.50387  0.12776
 0.11341  0.50505  0.12893
 0.24190  0.50623  0.13011
 0.37039  0.50741  0.13129
 0.49888  0.50858  0.13247
 0.62737  0.50976  0.13364
 0.75586  0.51094  0.13482
 0.88435  0.51212  0.13600
 1.00000  0.51329  0.13718
 0.00000  0.63350  0.13007
 0.11573  0.63468  0.13125
 0.24422  0.63585  0.13242
 0.37271  0.63703  0.13360
 0.50120  0.63821  0.13478
 0.62969  0.63939  0.13596
 0.75818  0.64056  0.13713
 0.88666  0.64174  0.13831
 1.00000  0.64292  0.13949
 0.00000  0.76312  0.13238
 0.11804  0.76430  0.13356
 0.24653  0.76548  0.13473
 0.37502  0.76665  0.13591
 0.50351  0.76783  0.13709
 0.63200  0.76901  0.13827
 0.76049  0.77019  0.13944
 0.88898  0.77136  0.14062
 1.00000  0.77254  0.14180
 0.00000  0.89275  0.13469
 0.12035  0.89392  0.13587
 0.24884  0.89510  0.13705
 0.37733  0.89628  0.13822
 0.50582  0.89746  0.13940
 0.63431  0.89863  0.14058
 0.76280  0.89981  0.14176
 0.89129  0.90099  0.14293
 1.00000  0.90216  0.14411
 0.00000  1.00000  0.13700
 0.12266  1.00000  0.13818
 0.25115  1.00000  0.13936
 0.37964  1.00000  0.14053
 0.50813  1.00000  0.14171
 0.63662  1.00000  0.14289
 0.76511  1.00000  0.14407
 0.89360  1.00000  0.14524
 1.00000  1.00000  0.14642
 0.00000  0.00000  0.24627
 0.10462  0.00000  0.24745
 0.23311  0.00000  0.24863
 0.36160  0.00000  0.24981
 0.49009  0.00000  0.25098
 0.61858  0.00000  0.25216
 0.74707  0.00000  0.25334
 0.87556  0.00000  0.25451
 1.00000  0.00000  0.25569
 0.00000  0.11545  0.24858
 0.10693  0.11663  0.24976
 0.23542  0.11781  0.25094
 0.36391  0.11898  0.25212
 0.49240  0.12016  0.25329
 0.62089  0.12134  0.25447
 0.74938  0.12252  0.25565
 0.87787  0.12369  0.25683
 1.00000  0.12487  0.25800
 0.00000  0.24508  0.25090
 0.10924  0.24625  0.25207
 0.23773  0.24743  0.25325
 0.36622  0.24861  0.25443
 0.49471  0.24979  0.25561
 0.62320  0.25096  0.25678
 0.75169  0.25214  0.25796
 0.88018  0.25332  0.25914
 1.00000  0.25449  0.26031
 0.00000  0.37470  0.25321
 0.11155  0.37588  0.25438
 0.24004  0.37705  0.25556
 0.36853  0.37823  0.25674
 0.49702  0.37941  0.25792
 0.62551  0.38059  0.25909
 0.75400  0.38176  0.26027
 0.88249  0.38294  0.26145
 1.00000  0.38412  0.26263
 0.00000  0.50432  0.25552
 0.11386  0.50550  0.25670
 0.24235  0.50668  0.25787
 0.37084  0.50786  0.25905
 0.49933  0.50903  0.26023
 0.62782  0.51021  0.26141
 0.75631  0.51139  0.26258
 0.88480  0.51257  0.26376
 1.00000  0.51374  0.26494
 0.00000  0.63395  0.25783
 0.11617  0.63512  0.25901
 0.24466  0.63630  0.26018
 0.37315  0.63748  0.26136
 0.50164  0.63866  0.26254
 0.63013  0.63983  0.26372
 0.75862  0.64101  0.26489
 0.88711  0.64219  0.26607
 1.00000  0.64337  0.26725
 0.00000  0.76357  0.26014
 0.11849  0.76475  0.26132
 0.24698  0.76593  0.26250
 0.37547  0.76710  0.26367
 0.50396  0.76828  0.26485
 0.63245  0.76946  0.26603
 0.76094  0.77064  0.26721
 0.88943  0.77181  0.26838
 1.00000  0.77299  0.26956
 0.00000  0.89320  0.26245
 0.12080  0.89437  0.26363
 0.24929  0.89555  0.26481
 0.37778  0.89673  0.26598
 0.50627  0.89790  0.26716
 0.63476  0.89908  0.26834
 0.76325  0.90026  0.26952
 0.89174  0.90144  0.27069
 1.00000  0.90261  0.27187
 0.00000  1.00000  0.26476
 0.12311  1.00000  0.26594
 0.25160  1.00000  0.26712
 0.38009  1.00000  0.26830
 0.50858  1.00000  0.26947
 0.63707  1.00000  0.27065
 0.76556  1.00000  0.27183
 0.89405  1.00000  0.27301
 1.00000  1.00000  0.27418
 0.00000  0.00000  0.37403
 0.10507  0.00000  0.37521
 0.23356  0.00000  0.37639
 0.36205  0.00000  0.37757
 0.49054  0.00000  0.37874
 0.61903  0.00000  0.37992
 0.74752  0.00000  0.38110
 0.87601  0.00000  0.38228
 1.00000  0.00000  0.38345
 0.00000  0.11590  0.37635
 0.10738  0.11708  0.37752
 0.23587  0.11826  0.37870
 0.36436  0.11943  0.37988
 0.49285  0.12061  0.38106
 0.62134  0.12179  0.38223
 0.74983  0.12297  0.38341
 0.87832  0.12414  0.38459
 1.00000  0.12532  0.38576
 0.00000  0.24553  0.37866
 0.10969  0.24670  0.37983
 0.23818  0.24788  0.38101
 0.36667  0.24906  0.38219
 0.49516  0.25023  0.38337
 0.62365  0.25141  0.38454
 0.75214  0.25259  0.38572
 0.88063  0.25377  0.38690
 1.00000  0.25494  0.38808
 0.00000  0.37515  0.38097
 0.11200  0.37633  0.38215
 0.24049  0.37750  0.38332
 0.36898  0.37868  0.38450
 0.49747  0.37986  0.38568
 0.62596  0.38104  0.38686
 0.75445  0.38221  0.38803
 0.88294  0.38339  0.38921
 1.00000  0.38457  0.39039
 0.00000  0.50477  0.38328
 0.11431  0.50595  0.38446
 0.24280  0.50713  0.38563
 0.37129  0.50830  0.38681
 0.49978  0.50948  0.38799
 0.62827  0.51066  0.38917
 0.75676  0.51184  0.39034
 0.88525  0.51301  0.39152
 1.00000  0.51419  0.39270
 0.00000  0.63440  0.38559
 0.11662  0.63557  0.38677
 0.24511  0.63675  0.38795
 0.37360  0.63793  0.38912
 0.50209  0.63911  0.39030
 0.63058  0.64028  0.39148
 0.75907  0.64146  0.39266
 0.88756  0.64264  0.39383
 1.00000  0.64382  0.39501
 0.00000  0.76402  0.38790
 0.11894  0.76520  0.38908
 0.24742  0.76637  0.39026
 0.37591  0.76755  0.39143
 0.50440  0.76873  0.39261
 0.63289  0.76991  0.39379
 0.76138  0.77108  0.39497
 0.88987  0.77226  0.39614
 1.00000  0.77344  0.39732
 0.00000  0.89364  0.39021
 0.12125  0.89482  0.39139
 0.24974  0.89600  0.39257
 0.37823  0.89718  0.39375
 0.50672  0.89835  0.39492
 0.63521  0.89953  0.39610
 0.76370  0.90071  0.39728
 0.89219  0.90189  0.39846
 1.00000  0.90306  0.39963
 0.00000  1.00000  0.39253
 0.12356  1.00000  0.39370
 0.25205  1.00000  0.39488
 0.38054  1.00000  0.39606
 0.50903  1.00000  0.39723
 0.63752  1.00000  0.39841
 0.76601  1.00000  0.39959
 0.89450  1.00000  0.40077
 1.00000  1.00000  0.40194
 0.00000  0.00000  0.50180
 0.10552  0.00000  0.50297
 0.23401  0.00000  0.50415
 0.36250  0.00000  0.50533
 0.49099  0.00000  0.50651
 0.61948  0.00000  0.50768
 0.74797  0.00000  0.50886
 0.87646  0.00000  0.51004
 1.00000  0.00000  0.51121
 0.00000  0.11635  0.50411
 0.10783  0.11753  0.50528
 0.23632  0.11870  0.50646
 0.36481  0.11988  0.50764
 0.49330  0.12106  0.50882
 0.62179  0.12224  0.50999
 0.75028  0.12341  0.51117
 0.87877  0.12459  0.51235
 1.00000  0.12577  0.51353
 0.00000  0.24597  0.50642
 0.11014  0.24715  0.50760
 0.23863  0.24833  0.50877
 0.36712  0.24951  0.50995
 0.49561  0.25068  0.51113
 0.62410  0.25186  0.51231
 0.75259  0.25304  0.51348
 0.88108  0.25422  0.51466
 1.00000  0.25539  0.51584
 0.00000  0.37560  0.50873
 0.11245  0.37678  0.50991
 0.24094  0.37795  0.51108
 0.36943  0.37913  0.51226
 0.49792  0.38031  0.51344
 0.62641  0.38148  0.51462
 0.75490  0.38266  0.51579
 0.88339  0.38384  0.51697
 1.00000  0.38502  0.51815
 0.00000  0.50522  0.51104
 0.11476  0.50640  0.51222
 0.24325  0.50758  0.51340
 0.37174  0.50875  0.51457
 0.50023  0.50993  0.51575
 0.62872  0.51111  0.51693
 0.75721  0.51229  0.51811
 0.88570  0.51346  0.51928
 1.00000  0.51464  0.52046
 0.00000  0.63485  0.51335
 0.11707  0.63602  0.51453
 0.24556  0.63720  0.51571
 0.37405  0.63838  0.51688
 0.50254  0.63955  0.51806
 0.63103  0.64073  0.51924
 0.75952  0.64191  0.52042
 0.88801  0.64309  0.52159
 1.00000  0.64426  0.52277
 0.00000  0.76447  0.51566
 0.11938  0.76565  0.51684
 0.24787  0.76682  0.51802
 0.37636  0.76800  0.51920
 0.50485  0.76918  0.52037
 0.63334  0.77036  0.52155
 0.76183  0.77153  0.52273
 0.89032  0.77271  0.52391
 1.00000  0.77389  0.52508
 0.00000  0.89409  0.51798
 0.12170  0.89527  0.51915
 0.25019  0.89645  0.52033
 0.37867  0.89762  0.52151
 0.50716  0.89880  0.52268
 0.63565  0.89998  0.52386
 0.76414  0.90116  0.52504
 0.89263  0.90233  0.52622
 1.00000  0.90351  0.52739
 0.00000  1.00000  0.52029
 0.12401  1.00000  0.52146
 0.25250  1.00000  0.52264
 0.38099  1.00000  0.52382
 0.50948  1.00000  0.52500
 0.63797  1.00000  0.52617
 0.76646  1.00000  0.52735
 0.89495  1.00000  0.52853
 1.00000  1.00000  0.52971
 0.00000  0.00000  0.62956
 0.10597  0.00000  0.63074
 0.23445  0.00000  0.63191
 0.36294  0.00000  0.63309
 0.49143  0.00000  0.63427
 0.61992  0.00000  0.63544
 0.74841  0.00000  0.63662
 0.87690  0.00000  0.63780
 1.00000  0.00000  0.63898
 0.00000  0.11680  0.63187
 0.10828  0.11798  0.63305
 0.23677  0.11915  0.63422
 0.36526  0.12033  0.63540
 0.49375  0.12151  0.63658
 0.62224  0.12269  0.63776
 0.75073  0.12386  0.63893
 0.87922  0.12504  0.64011
 1.00000  0.12622  0.64129
 0.00000  0.24642  0.63418
 0.11059  0.24760  0.63536
 0.23908  0.24878  0.63653
 0.36757  0.24995  0.63771
 0.49606  0.25113  0.63889
 0.62455  0.25231  0.64007
 0.75304  0.25349  0.64124
 0.88153  0.25466  0.64242
 1.00000  0.25584  0.64360
 0.00000  0.37605  0.63649
 0.11290  0.37722  0.63767
 0.24139  0.37840  0.63885
 0.36988  0.37958  0.64002
 0.49837  0.38076  0.64120
 0.62686  0.38193  0.64238
 0.75535  0.38311  0.64356
 0.88384  0.38429  0.64473
 1.00000  0.38547  0.64591
 0.00000  0.50567  0.63880
 0.11521  0.50685  0.63998
 0.24370  0.50803  0.64116
 0.37219  0.50920  0.64233
 0.50068  0.51038  0.64351
 0.62917  0.51156  0.64469
 0.75766  0.51273  0.64587
 0.88615  0.51391  0.64704
 1.00000  0.51509  0.64822
 0.00000  0.63529  0.64111
 0.11752  0.63647  0.64229
 0.24601  0.63765  0.64347
 0.37450  0.63883  0.64465
 0.50299  0.64000  0.64582
 0.63148  0.64118  0.64700
 0.75997  0.64236  0.64818
 0.88846  0.64354  0.64936
 1.00000  0.64471  0.65053
 0.00000  0.76492  0.64343
 0.11983  0.76610  0.64460
 0.24832  0.76727  0.64578
 0.37681  0.76845  0.64696
 0.50530  0.76963  0.64813
 0.63379  0.77080  0.64931
 0.76228  0.77198  0.65049
 0.89077  0.77316  0.65167
 1.00000  0.77434  0.65284
 0.00000  0.89454  0.64574
 0.12214  0.89572  0.64691
 0.25063  0.89690  0.64809
 0.37912  0.89807  0.64927
 0.50761  0.89925  0.65045
 0.63610  0.90043  0.65162
 0.76459  0.90161  0.65280
 0.89308  0.90278  0.65398
 1.00000  0.90396  0.65516
 0.00000  1.00000  0.64805
 0.12446  1.00000  0.64923
 0.25295  1.00000  0.65040
 0.38144  1.00000  0.65158
 0.50992  1.00000  0.65276
 0.63841  1.00000  0.65393
 0.76690  1.00000  0.65511
 0.89539  1.00000  0.65629
 1.00000  1.00000  0.65747
 0.00000  0.00000  0.75732
 0.10641  0.00000  0.75850
 0.23490  0.00000  0.75967
 0.36339  0.00000  0.76085
 0.49188  0.00000  0.76203
 0.62037  0.00000  0.76321
 0.74886  0.00000  0.76438
 0.87735  0.00000  0.76556
 1.00000  0.00000  0.76674
 0.00000  0.11725  0.75963
 0.10873  0.11843  0.76081
 0.23722  0.11960  0.76199
 0.36570  0.12078  0.76316
 0.49419  0.12196  0.76434
 0.62268  0.12313  0.76552
 0.75117  0.12431  0.76669
 0.87966  0.12549  0.76787
 1.00000  0.12667  0.76905
 0.00000  0.24687  0.76194
 0.11104  0.24805  0.76312
 0.23953  0.24923  0.76430
 0.36802  0.25040  0.76547
 0.49651  0.25158  0.76665
 0.62500  0.25276  0.76783
 0.75349  0.25394  0.76901
 0.88198  0.25511  0.77018
 1.00000  0.25629  0.77136
 0.00000  0.37650  0.76425
 0.11335  0.37767  0.76543
 0.24184  0.37885  0.76661
 0.37033  0.38003  0.76778
 0.49882  0.38120  0.76896
 0.62731  0.38238  0.77014
 0.75580  0.38356  0.77132
 0.88429  0.38474  0.77249
 1.00000  0.38591  0.77367
 0.00000  0.50612  0.76656
 0.11566  0.50730  0.76774
 0.24415  0.50847  0.76892
 0.37264  0.50965  0.77010
 0.50113  0.51083  0.77127
 0.62962  0.51201  0.77245
 0.75811  0.51318  0.77363
 0.88660  0.51436  0.77481
 1.00000  0.51554  0.77598
 0.00000  0.63574  0.76888
 0.11797  0.63692  0.77005
 0.24646  0.63810  0.77123
 0.37495  0.63928  0.77241
 0.50344  0.64045  0.77358
 0.63193  0.64163  0.77476
 0.76042  0.64281  0.77594
 0.88891  0.64398  0.77712
 1.00000  0.64516  0.77829
 0.00000  0.76537  0.77119
 0.12028  0.76654  0.77236
 0.24877  0.76772  0.77354
 0.37726  0.76890  0.77472
 0.50575  0.77008  0.77590
 0.63424  0.77125  0.77707
 0.76273  0.77243  0.77825
 0.89122  0.77361  0.77943
 1.00000  0.77479  0.78061
 0.00000  0.89499  0.77350
 0.12259  0.89617  0.77468
 0.25108  0.89735  0.77585
 0.37957  0.89852  0.77703
 0.50806  0.89970  0.77821
 0.63655  0.90088  0.77938
 0.76504  0.90205  0.78056
 0.89353  0.90323  0.78174
 1.00000  0.90441  0.78292
 0.00000  1.00000  0.77581
 0.12490  1.00000  0.77699
 0.25339  1.00000  0.77816
 0.38188  1.00000  0.77934
 0.51037  1.00000  0.78052
 0.63886  1.00000  0.78170
 0.76735  1.00000  0.78287
 0.89584  1.00000  0.78405
 1.00000  1.00000  0.78523
 0.00000  0.00000  0.88508
 0.10686  0.00000  0.88626
 0.23535  0.00000  0.88744
 0.36384  0.00000  0.88861
 0.49233  0.00000  0.88979
 0.62082  0.00000  0.89097
 0.74931  0.00000  0.89214
 0.87780  0.00000  0.89332
 1.00000  0.00000  0.89450
 0.00000  0.11770  0.88739
 0.10917  0.11887  0.88857
 0.23766  0.12005  0.88975
 0.36615  0.12123  0.89092
 0.49464  0.12241  0.89210
 0.62313  0.12358  0.89328
 0.75162  0.12476  0.89446
 0.88011  0.12594  0.89563
 1.00000  0.12712  0.89681
 0.00000  0.24732  0.88970
 0.11149  0.24850  0.89088
 0.23998  0.24968  0.89206
 0.36847  0.25085  0.89324
 0.49695  0.25203  0.89441
 0.62544  0.25321  0.89559
 0.75393  0.25438  0.89677
 0.88242  0.25556  0.89794
 1.00000  0.25674  0.89912
 0.00000  0.37694  0.89201
 0.11380  0.37812  0.89319
 0.24229  0.37930  0.89437
 0.37078  0.38048  0.89555
 0.49927  0.38165  0.89672
 0.62776  0.38283  0.89790
 0.75625  0.38401  0.89908
 0.88474  0.38519  0.90026
 1.00000  0.38636  0.90143
 0.00000  0.50657  0.89433
 0.11611  0.50775  0.89550
 0.24460  0.50892  0.89668
 0.37309  0.51010  0.89786
 0.50158  0.51128  0.89903
 0.63007  0.51245  0.90021
 0.75856  0.51363  0.90139
 0.88705  0.51481  0.90257
 1.00000  0.51599  0.90374
 0.00000  0.63619  0.89664
 0.11842  0.63737  0.89781
 0.24691  0.63855  0.89899
 0.37540  0.63972  0.90017
 0.50389  0.64090  0.90135
 0.63238  0.64208  0.90252
 0.76087  0.64326  0.90370
 0.88936  0.64443  0.90488
 1.00000  0.64561  0.90606
 0.00000  0.76582  0.89895
 0.12073  0.76699  0.90013
 0.24922  0.76817  0.90130
 0.37771  0.76935  0.90248
 0.50620  0.77053  0.90366
 0.63469  0.77170  0.90483
 0.76318  0.77288  0.90601
 0.89167  0.77406  0.90719
 1.00000  0.77523  0.90837
 0.00000  0.89544  0.90126
 0.12304  0.89662  0.90244
 0.25153  0.89779  0.90361
 0.38002  0.89897  0.90479
 0.50851  0.90015  0.90597
 0.63700  0.90133  0.90715
 0.76549  0.90250  0.90832
 0.89398  0.90368  0.90950
 1.00000  0.90486  0.91068
 0.00000  1.00000  0.90357
 0.12535  1.00000  0.90475
 0.25384  1.00000  0.90593
 0.38233  1.00000  0.90710
 0.51082  1.00000  0.90828
 0.63931  1.00000  0.90946
 0.76780  1.00000  0.91063
 0.89629  1.00000  0.91181
 1.00000  1.00000  0.91299
 0.00000  0.00000  1.00000
 0.10731  0.00000  1.00000
 0.23580  0.00000  1.00000
 0.36429  0.00000  1.00000
 0.49278  0.00000  1.00000
 0.62127  0.00000  1.00000
 0.74976  0.00000  1.00000
 0.87825  0.00000  1.00000
 1.00000  0.00000  1.00000
 0.00000  0.11815  1.00000
 0.10962  0.11932  1.00000
 0.23811  0.12050  1.00000
 0.36660  0.12168  1.00000
 0.49509  0.12285  1.00000
 0.62358  0.12403  1.00000
 0.75207  0.12521  1.00000
 0.88056  0.12639  1.00000
 1.00000  0.12756  1.00000
 0.00000  0.24777  1.00000
 0.11193  0.24895  1.00000
 0.24042  0.25012  1.00000
 0.36891  0.25130  1.00000
 0.49740  0.25248  1.00000
 0.62589  0.25366  1.00000
 0.75438  0.25483  1.00000
 0.88287  0.25601  1.00000
 1.00000  0.25719  1.00000
 0.00000  0.37739  1.00000
 0.11425  0.37857  1.00000
 0.24274  0.37975  1.00000
 0.37123  0.38093  1.00000
 0.49972  0.38210  1.00000
 0.62820  0.38328  1.00000
 0.75669  0.38446  1.00000
 0.88518  0.38563  1.00000
 1.00000  0.38681  1.00000
 0.00000  0.50702  1.00000
 0.11656  0.50819  1.00000
 0.24505  0.50937  1.00000
 0.37354  0.51055  1.00000
 0.50203  0.51173  1.00000
 0.63052  0.51290  1.00000
 0.75901  0.51408  1.00000
 0.88750  0.51526  1.00000
 1.00000  0.51644  1.00000
 0.00000  0.63664  1.00000
 0.11887  0.63782  1.00000
 0.24736  0.63900  1.00000
 0.37585  0.64017  1.00000
 0.50434  0.64135  1.00000
 0.63283  0.64253  1.00000
 0.76132  0.64370  1.00000
 0.88981  0.64488  1.00000
 1.00000  0.64606  1.00000
 0.00000  0.76626  1.00000
 0.12118  0.76744  1.00000
 0.24967  0.76862  1.00000
 0.37816  0.76980  1.00000
 0.50665  0.77097  1.00000
 0.63514  0.77215  1.00000
 0.76363  0.77333  1.00000
 0.89212  0.77451  1.00000
 1.00000  0.77568  1.00000
 0.00000  0.89589  1.00000
 0.12349  0.89707  1.00000
 0.25198  0.89824  1.00000
 0.38047  0.89942  1.00000
 0.50896  0.90060  1.00000
 0.63745  0.90178  1.00000
 0.76594  0.90295  1.00000
 0.89443  0.90413  1.00000
 1.00000  0.90531  1.00000
 0.00000  1.00000  1.00000
 0.12580  1.00000  1.00000
 0.25429  1.00000  1.00000
 0.38278  1.00000  1.00000
 0.51127  1.00000  1.00000
 0.63976  1.00000  1.00000
 0.76825  1.00000  1.00000
 0.89674  1.00000  1.00000
 1.00000  1.00000  1.00000
