src/assets/luts/fuji-3510.cube
TITLE "Fuji 3510"
LUT_3D_SIZE 17
DOMAIN_MIN 0.0 0.0 0.0
DOMAIN_MAX 1.0 1.0 1.0
# LumEdit built-in LUT · 富士胶片，清透微冷
 0.00000  0.00000  0.00000
 0.03948  0.00000  0.00000
 0.10372  0.00000  0.00000
 0.16797  0.00000  0.00000
 0.23221  0.00000  0.00000
 0.29646  0.00000  0.00000
 0.36070  0.00000  0.00000
 0.42495  0.00000  0.00000
 0.48919  0.00000  0.00000
 0.55343  0.00000  0.00000
 0.61768  0.00000  0.00000
 0.68192  0.00000  0.00000
 0.74617  0.00000  0.00000
 0.81041  0.00000  0.00000
 0.87466  0.00000  0.00000
 0.93890  0.00000  0.00000
 1.00000  0.00000  0.00017
 0.00000  0.04974  0.00000
 0.04063  0.05033  0.00000
 0.10488  0.05092  0.00000
 0.16912  0.05151  0.00000
 0.23337  0.05210  0.00000
 0.29761  0.05269  0.00000
 0.36186  0.05327  0.00000
 0.42610  0.05386  0.00000
 0.49035  0.05445  0.00000
 0.55459  0.05504  0.00000
 0.61884  0.05563  0.00000
 0.68308  0.05622  0.00000
 0.74733  0.05681  0.00000
 0.81157  0.05740  0.00000
 0.87582  0.05798  0.00015
 0.94006  0.05857  0.00074
 1.00000  0.05916  0.00132
 0.00000  0.11455  0.00000
 0.04179  0.11514  0.00000
 0.10603  0.11573  0.00000
 0.17028  0.11632  0.00000
 0.23452  0.11691  0.00000
 0.29877  0.11750  0.00000
 0.36301  0.11809  0.00000
 0.42726  0.11868  0.00000
 0.49150  0.11926  0.00000
 0.55575  0.11985  0.00000
 0.61999  0.12044  0.00000
 0.68424  0.12103  0.00000
 0.74848  0.12162  0.00013
 0.81273  0.12221  0.00071
 0.87697  0.12280  0.00130
 0.94122  0.12338  0.00189
 1.00000  0.12397  0.00248
 0.00000  0.17937  0.00000
 0.04294  0.17996  0.00000
 0.10719  0.18054  0.00000
 0.17143  0.18113  0.00000
 0.23568  0.18172  0.00000
 0.29992  0.18231  0.00000
 0.36417  0.18290  0.00000
 0.42841  0.18349  0.00000
 0.49266  0.18408  0.00000
 0.55690  0.18466  0.00000
 0.62115  0.18525  0.00010
 0.68539  0.18584  0.00069
 0.74964  0.18643  0.00128
 0.81388  0.18702  0.00187
 0.87813  0.18761  0.00246
 0.94237  0.18820  0.00305
 1.00000  0.18879  0.00364
 0.00000  0.24418  0.00000
 0.04410  0.24477  0.00000
 0.10834  0.24536  0.00000
 0.17259  0.24594  0.00000
 0.23683  0.24653  0.00000
 0.30108  0.24712  0.00000
 0.36532  0.24771  0.00000
 0.42957  0.24830  0.00000
 0.49381  0.24889  0.00008
 0.55806  0.24948  0.00067
 0.62230  0.25007  0.00126
 0.68655  0.25065  0.00185
 0.75079  0.25124  0.00244
 0.81504  0.25183  0.00303
 0.87928  0.25242  0.00361
 0.94353  0.25301  0.00420
 1.00000  0.25360  0.00479
 0.00000  0.30899  0.00000
 0.04525  0.30958  0.00000
 0.10950  0.31017  0.00000
 0.17374  0.31076  0.00000
 0.23799  0.31134  0.00000
 0.30223  0.31193  0.00000
 0.36648  0.31252  0.00006
 0.43072  0.31311  0.00065
 0.49497  0.31370  0.00124
 0.55921  0.31429  0.00183
 0.62346  0.31488  0.00242
 0.68770  0.31547  0.00300
 0.75195  0.31605  0.00359
 0.81619  0.31664  0.00418
 0.88044  0.31723  0.00477
 0.94468  0.31782  0.00536
 1.00000  0.31841  0.00595
 0.00000  0.37380  0.00000
 0.04641  0.37439  0.00000
 0.11065  0.37498  0.00000
 0.17490  0.37557  0.00000
 0.23914  0.37616  0.00004
 0.30339  0.37675  0.00063
 0.36763  0.37733  0.00122
 0.43188  0.37792  0.00181
 0.49612  0.37851  0.00239
 0.56037  0.37910  0.00298
 0.62461  0.37969  0.00357
 0.68886  0.38028  0.00416
 0.75310  0.38087  0.00475
 0.81735  0.38145  0.00534
 0.88159  0.38204  0.00593
 0.94584  0.38263  0.00651
 1.00000  0.38322  0.00710
 0.00000  0.43861  0.00000
 0.04757  0.43920  0.00000
 0.11181  0.43979  0.00002
 0.17606  0.44038  0.00061
 0.24030  0.44097  0.00120
 0.30454  0.44156  0.00178
 0.36879  0.44215  0.00237
 0.43303  0.44273  0.00296
 0.49728  0.44332  0.00355
 0.56152  0.44391  0.00414
 0.62577  0.44450  0.00473
 0.69001  0.44509  0.00532
 0.75426  0.44568  0.00590
 0.81850  0.44627  0.00649
 0.88275  0.44686  0.00708
 0.94699  0.44744  0.00767
 1.00000  0.44803  0.00826
 0.00000  0.50343  0.00000
 0.04872  0.50401  0.00058
 0.11297  0.50460  0.00117
 0.17721  0.50519  0.00176
 0.24146  0.50578  0.00235
 0.30570  0.50637  0.00294
 0.36995  0.50696  0.00353
 0.43419  0.50755  0.00412
 0.49844  0.50814  0.00471
 0.56268  0.50872  0.00529
 0.62693  0.50931  0.00588
 0.69117  0.50990  0.00647
 0.75541  0.51049  0.00706
 0.81966  0.51108  0.00765
 0.88390  0.51167  0.00824
 0.94815  0.51226  0.00883
 1.00000  0.51284  0.00941
 0.00000  0.56824  0.00115
 0.04988  0.56883  0.00174
 0.11412  0.56942  0.00233
 0.17837  0.57000  0.00292
 0.24261  0.57059  0.00351
 0.30686  0.57118  0.00410
 0.37110  0.57177  0.00468
 0.43535  0.57236  0.00527
 0.49959  0.57295  0.00586
 0.56384  0.57354  0.00645
 0.62808  0.57412  0.00704
 0.69233  0.57471  0.00763
 0.75657  0.57530  0.00822
 0.82082  0.57589  0.00880
 0.88506  0.57648  0.00939
 0.94931  0.57707  0.00998
 1.00000  0.57766  0.01057
 0.00000  0.63305  0.00231
 0.05103  0.63364  0.00290
 0.11528  0.63423  0.00348
 0.17952  0.63482  0.00407
 0.24377  0.63540  0.00466
 0.30801  0.63599  0.00525
 0.37226  0.63658  0.00584
 0.43650  0.63717  0.00643
 0.50075  0.63776  0.00702
 0.56499  0.63835  0.00761
 0.62924  0.63894  0.00819
 0.69348  0.63953  0.00878
 0.75773  0.64011  0.00937
 0.82197  0.64070  0.00996
 0.88622  0.64129  0.01055
 0.95046  0.64188  0.01114
 1.00000  0.64247  0.01173
 0.00000  0.69786  0.00346
 0.05219  0.69845  0.00405
 0.11643  0.69904  0.00464
 0.18068  0.69963  0.00523
 0.24492  0.70022  0.00582
 0.30917  0.70081  0.00641
 0.37341  0.70139  0.00699
 0.43766  0.70198  0.00758
 0.50190  0.70257  0.00817
 0.56615  0.70316  0.00876
 0.63039  0.70375  0.00935
 0.69464  0.70434  0.00994
 0.75888  0.70493  0.01053
 0.82313  0.70551  0.01112
 0.88737  0.70610  0.01170
 0.95162  0.70669  0.01229
 1.00000  0.70728  0.01288
 0.00000  0.76267  0.00462
 0.05334  0.76326  0.00521
 0.11759  0.76385  0.00580
 0.18183  0.76444  0.00638
 0.24608  0.76503  0.00697
 0.31032  0.76562  0.00756
 0.37457  0.76621  0.00815
 0.43881  0.76679  0.00874
 0.50306  0.76738  0.00933
 0.56730  0.76797  0.00992
 0.63155  0.76856  0.01051
 0.69579  0.76915  0.01109
 0.76004  0.76974  0.01168
 0.82428  0.77033  0.01227
 0.88853  0.77091  0.01286
 0.95277  0.77150  0.01345
 1.00000  0.77209  0.01404
 0.00000  0.82749  0.00577
 0.05450  0.82807  0.00636
 0.11874  0.82866  0.00695
 0.18299  0.82925  0.00754
 0.24723  0.82984  0.00813
 0.31148  0.83043  0.00872
 0.37572  0.83102  0.00931
 0.43997  0.83161  0.00989
 0.50421  0.83219  0.01048
 0.56846  0.83278  0.01107
 0.63270  0.83337  0.01166
 0.69695  0.83396  0.01225
 0.76119  0.83455  0.01284
 0.82544  0.83514  0.01343
 0.88968  0.83573  0.01402
 0.95393  0.83632  0.01460
 1.00000  0.83690  0.01519
 0.00000  0.89230  0.00693
 0.05565  0.89289  0.00752
 0.11990  0.89347  0.00811
 0.18414  0.89406  0.00870
 0.24839  0.89465  0.00928
 0.31263  0.89524  0.00987
 0.37688  0.89583  0.01046
 0.44112  0.89642  0.01105
 0.50537  0.89701  0.01164
 0.56961  0.89760  0.01223
 0.63386  0.89818  0.01282
 0.69810  0.89877  0.01341
 0.76235  0.89936  0.01399
 0.82659  0.89995  0.01458
 0.89084  0.90054  0.01517
 0.95508  0.90113  0.01576
 1.00000  0.90172  0.01635
 0.00000  0.95711  0.00809
 0.05681  0.95770  0.00867
 0.12106  0.95829  0.00926
 0.18530  0.95888  0.00985
 0.24955  0.95946  0.01044
 0.31379  0.96005  0.01103
 0.37804  0.96064  0.01162
 0.44228  0.96123  0.01221
 0.50652  0.96182  0.01279
 0.57077  0.96241  0.01338
 0.63501  0.96300  0.01397
 0.69926  0.96358  0.01456
 0.76350  0.96417  0.01515
 0.82775  0.96476  0.01574
 0.89199  0.96535  0.01633
 0.95624  0.96594  0.01692
 1.00000  0.96653  0.01750
 0.00000  1.00000  0.00924
 0.05797  1.00000  0.00983
 0.12221  1.00000  0.01042
 0.18646  1.00000  0.01101
 0.25070  1.00000  0.01160
 0.31495  1.00000  0.01218
 0.37919  1.00000  0.01277
 0.44344  1.00000  0.01336
 0.50768  1.00000  0.01395
 0.57193  1.00000  0.01454
 0.63617  1.00000  0.01513
 0.70042  1.00000  0.01572
 0.76466  1.00000  0.01631
 0.82891  1.00000  0.01689
 0.89315  1.00000  0.01748
 0.95739  1.00000  0.01807
 1.00000  1.00000  0.01866
 0.00000  0.00000  0.05463
 0.03970  0.00000  0.05522
 0.10395  0.00000  0.05581
 0.16819  0.00000  0.05640
 0.23243  0.00000  0.05699
 0.29668  0.00000  0.05757
 0.36092  0.00000  0.05816
 0.42517  0.00000  0.05875
 0.48941  0.00000  0.05934
 0.55366  0.00000  0.05993
 0.61790  0.00000  0.06052
 0.68215  0.00000  0.06111
 0.74639  0.00000  0.06170
 0.81064  0.00000  0.06228
 0.87488  0.00000  0.06287
 0.93913  0.00000  0.06346
 1.00000  0.00000  0.06405
 0.00000  0.04997  0.05579
 0.04086  0.05056  0.05638
 0.10510  0.05114  0.05696
 0.16935  0.05173  0.05755
 0.23359  0.05232  0.05814
 0.29784  0.05291  0.05873
 0.36208  0.05350  0.05932
 0.42633  0.05409  0.05991
 0.49057  0.05468  0.06050
 0.55482  0.05527  0.06109
 0.61906  0.05585  0.06167
 0.68330  0.05644  0.06226
 0.74755  0.05703  0.06285
 0.81179  0.05762  0.06344
 0.87604  0.05821  0.06403
 0.94028  0.05880  0.06462
 1.00000  0.05939  0.06521
 0.00000  0.11478  0.05694
 0.04201  0.11537  0.05753
 0.10626  0.11596  0.05812
 0.17050  0.11655  0.05871
 0.23475  0.11713  0.05930
 0.29899  0.11772  0.05989
 0.36324  0.11831  0.06047
 0.42748  0.11890  0.06106
 0.49173  0.11949  0.06165
 0.55597  0.12008  0.06224
 0.62022  0.12067  0.06283
 0.68446  0.12125  0.06342
 0.74871  0.12184  0.06401
 0.81295  0.12243  0.06460
 0.87720  0.12302  0.06518
 0.94144  0.12361  0.06577
 1.00000  0.12420  0.06636
 0.00000  0.17959  0.05810
 0.04317  0.18018  0.05869
 0.10741  0.18077  0.05928
 0.17166  0.18136  0.05986
 0.23590  0.18195  0.06045
 0.30015  0.18253  0.06104
 0.36439  0.18312  0.06163
 0.42864  0.18371  0.06222
 0.49288  0.18430  0.06281
 0.55713  0.18489  0.06340
 0.62137  0.18548  0.06399
 0.68562  0.18607  0.06457
 0.74986  0.18665  0.06516
 0.81411  0.18724  0.06575
 0.87835  0.18783  0.06634
 0.94260  0.18842  0.06693
 1.00000  0.18901  0.06752
 0.00000  0.24440  0.05925
 0.04432  0.24499  0.05984
 0.10857  0.24558  0.06043
 0.17281  0.24617  0.06102
 0.23706  0.24676  0.06161
 0.30130  0.24735  0.06220
 0.36555  0.24793  0.06279
 0.42979  0.24852  0.06337
 0.49404  0.24911  0.06396
 0.55828  0.24970  0.06455
 0.62253  0.25029  0.06514
 0.68677  0.25088  0.06573
 0.75102  0.25147  0.06632
 0.81526  0.25206  0.06691
 0.87951  0.25264  0.06750
 0.94375  0.25323  0.06808
 1.00000  0.25382  0.06867
 0.00000  0.30921  0.06041
 0.04548  0.30980  0.06100
 0.10972  0.31039  0.06159
 0.17397  0.31098  0.06218
 0.23821  0.31157  0.06276
 0.30246  0.31216  0.06335
 0.36670  0.31275  0.06394
 0.43095  0.31334  0.06453
 0.49519  0.31392  0.06512
 0.55944  0.31451  0.06571
 0.62368  0.31510  0.06630
 0.68793  0.31569  0.06689
 0.75217  0.31628  0.06747
 0.81642  0.31687  0.06806
 0.88066  0.31746  0.06865
 0.94491  0.31804  0.06924
 1.00000  0.31863  0.06983
 0.00000  0.37403  0.06157
 0.04663  0.37462  0.06215
 0.11088  0.37520  0.06274
 0.17512  0.37579  0.06333
 0.23937  0.37638  0.06392
 0.30361  0.37697  0.06451
 0.36786  0.37756  0.06510
 0.43210  0.37815  0.06569
 0.49635  0.37874  0.06627
 0.56059  0.37932  0.06686
 0.62484  0.37991  0.06745
 0.68908  0.38050  0.06804
 0.75333  0.38109  0.06863
 0.81757  0.38168  0.06922
 0.88182  0.38227  0.06981
 0.94606  0.38286  0.07040
 1.00000  0.38345  0.07098
 0.00000  0.43884  0.06272
 0.04779  0.43943  0.06331
 0.11203  0.44002  0.06390
 0.17628  0.44060  0.06449
 0.24052  0.44119  0.06508
 0.30477  0.44178  0.06566
 0.36901  0.44237  0.06625
 0.43326  0.44296  0.06684
 0.49750  0.44355  0.06743
 0.56175  0.44414  0.06802
 0.62599  0.44473  0.06861
 0.69024  0.44531  0.06920
 0.75448  0.44590  0.06978
 0.81873  0.44649  0.07037
 0.88297  0.44708  0.07096
 0.94722  0.44767  0.07155
 1.00000  0.44826  0.07214
 0.00000  0.50365  0.06388
 0.04895  0.50424  0.06447
 0.11319  0.50483  0.06505
 0.17744  0.50542  0.06564
 0.24168  0.50601  0.06623
 0.30593  0.50659  0.06682
 0.37017  0.50718  0.06741
 0.43441  0.50777  0.06800
 0.49866  0.50836  0.06859
 0.56290  0.50895  0.06917
 0.62715  0.50954  0.06976
 0.69139  0.51013  0.07035
 0.75564  0.51071  0.07094
 0.81988  0.51130  0.07153
 0.88413  0.51189  0.07212
 0.94837  0.51248  0.07271
 1.00000  0.51307  0.07330
 0.00000  0.56846  0.06503
 0.05010  0.56905  0.06562
 0.11435  0.56964  0.06621
 0.17859  0.57023  0.06680
 0.24284  0.57082  0.06739
 0.30708  0.57141  0.06798
 0.37133  0.57199  0.06856
 0.43557  0.57258  0.06915
 0.49982  0.57317  0.06974
 0.56406  0.57376  0.07033
 0.62831  0.57435  0.07092
 0.69255  0.57494  0.07151
 0.75680  0.57553  0.07210
 0.82104  0.57611  0.07268
 0.88528  0.57670  0.07327
 0.94953  0.57729  0.07386
 1.00000  0.57788  0.07445
 0.00000  0.63327  0.06619
 0.05126  0.63386  0.06678
 0.11550  0.63445  0.06737
 0.17975  0.63504  0.06795
 0.24399  0.63563  0.06854
 0.30824  0.63622  0.06913
 0.37248  0.63681  0.06972
 0.43673  0.63739  0.07031
 0.50097  0.63798  0.07090
 0.56522  0.63857  0.07149
 0.62946  0.63916  0.07207
 0.69371  0.63975  0.07266
 0.75795  0.64034  0.07325
 0.82220  0.64093  0.07384
 0.88644  0.64152  0.07443
 0.95069  0.64210  0.07502
 1.00000  0.64269  0.07561
 0.00000  0.69809  0.06734
 0.05241  0.69867  0.06793
 0.11666  0.69926  0.06852
 0.18090  0.69985  0.06911
 0.24515  0.70044  0.06970
 0.30939  0.70103  0.07029
 0.37364  0.70162  0.07088
 0.43788  0.70221  0.07146
 0.50213  0.70280  0.07205
 0.56637  0.70338  0.07264
 0.63062  0.70397  0.07323
 0.69486  0.70456  0.07382
 0.75911  0.70515  0.07441
 0.82335  0.70574  0.07500
 0.88760  0.70633  0.07558
 0.95184  0.70692  0.07617
 1.00000  0.70750  0.07676
 0.00000  0.76290  0.06850
 0.05357  0.76349  0.06909
 0.11781  0.76408  0.06968
 0.18206  0.76466  0.07027
 0.24630  0.76525  0.07085
 0.31055  0.76584  0.07144
 0.37479  0.76643  0.07203
 0.43904  0.76702  0.07262
 0.50328  0.76761  0.07321
 0.56753  0.76820  0.07380
 0.63177  0.76878  0.07439
 0.69602  0.76937  0.07497
 0.76026  0.76996  0.07556
 0.82451  0.77055  0.07615
 0.88875  0.77114  0.07674
 0.95300  0.77173  0.07733
 1.00000  0.77232  0.07792
 0.00000  0.82771  0.06966
 0.05472  0.82830  0.07024
 0.11897  0.82889  0.07083
 0.18321  0.82948  0.07142
 0.24746  0.83006  0.07201
 0.31170  0.83065  0.07260
 0.37595  0.83124  0.07319
 0.44019  0.83183  0.07378
 0.50444  0.83242  0.07436
 0.56868  0.83301  0.07495
 0.63293  0.83360  0.07554
 0.69717  0.83419  0.07613
 0.76142  0.83477  0.07672
 0.82566  0.83536  0.07731
 0.88991  0.83595  0.07790
 0.95415  0.83654  0.07848
 1.00000  0.83713  0.07907
 0.00000  0.89252  0.07081
 0.05588  0.89311  0.07140
 0.12012  0.89370  0.07199
 0.18437  0.89429  0.07258
 0.24861  0.89488  0.07317
 0.31286  0.89547  0.07375
 0.37710  0.89605  0.07434
 0.44135  0.89664  0.07493
 0.50559  0.89723  0.07552
 0.56984  0.89782  0.07611
 0.63408  0.89841  0.07670
 0.69833  0.89900  0.07729
 0.76257  0.89959  0.07787
 0.82682  0.90017  0.07846
 0.89106  0.90076  0.07905
 0.95531  0.90135  0.07964
 1.00000  0.90194  0.08023
 0.00000  0.95733  0.07197
 0.05704  0.95792  0.07256
 0.12128  0.95851  0.07314
 0.18552  0.95910  0.07373
 0.24977  0.95969  0.07432
 0.31401  0.96028  0.07491
 0.37826  0.96087  0.07550
 0.44250  0.96145  0.07609
 0.50675  0.96204  0.07668
 0.57099  0.96263  0.07726
 0.63524  0.96322  0.07785
 0.69948  0.96381  0.07844
 0.76373  0.96440  0.07903
 0.82797  0.96499  0.07962
 0.89222  0.96558  0.08021
 0.95646  0.96616  0.08080
 1.00000  0.96675  0.08138
 0.00000  1.00000  0.07312
 0.05819  1.00000  0.07371
 0.12244  1.00000  0.07430
 0.18668  1.00000  0.07489
 0.25093  1.00000  0.07548
 0.31517  1.00000  0.07607
 0.37942  1.00000  0.07665
 0.44366  1.00000  0.07724
 0.50791  1.00000  0.07783
 0.57215  1.00000  0.07842
 0.63639  1.00000  0.07901
 0.70064  1.00000  0.07960
 0.76488  1.00000  0.08019
 0.82913  1.00000  0.08077
 0.89337  1.00000  0.08136
 0.95762  1.00000  0.08195
 1.00000  1.00000  0.08254
 0.00000  0.00000  0.11851
 0.03992  0.00000  0.11910
 0.10417  0.00000  0.11969
 0.16841  0.00000  0.12028
 0.23266  0.00000  0.12087
 0.29690  0.00000  0.12146
 0.36115  0.00000  0.12204
 0.42539  0.00000  0.12263
 0.48964  0.00000  0.12322
 0.55388  0.00000  0.12381
 0.61813  0.00000  0.12440
 0.68237  0.00000  0.12499
 0.74662  0.00000  0.12558
 0.81086  0.00000  0.12616
 0.87511  0.00000  0.12675
 0.93935  0.00000  0.12734
 1.00000  0.00000  0.12793
 0.00000  0.05019  0.11967
 0.04108  0.05078  0.12026
 0.10533  0.05137  0.12085
 0.16957  0.05196  0.12143
 0.23381  0.05255  0.12202
 0.29806  0.05313  0.12261
 0.36230  0.05372  0.12320
 0.42655  0.05431  0.12379
 0.49079  0.05490  0.12438
 0.55504  0.05549  0.12497
 0.61928  0.05608  0.12555
 0.68353  0.05667  0.12614
 0.74777  0.05726  0.12673
 0.81202  0.05784  0.12732
 0.87626  0.05843  0.12791
 0.94051  0.05902  0.12850
 1.00000  0.05961  0.12909
 0.00000  0.11500  0.12082
 0.04224  0.11559  0.12141
 0.10648  0.11618  0.12200
 0.17073  0.11677  0.12259
 0.23497  0.11736  0.12318
 0.29922  0.11795  0.12377
 0.36346  0.11854  0.12436
 0.42771  0.11912  0.12494
 0.49195  0.11971  0.12553
 0.55620  0.12030  0.12612
 0.62044  0.12089  0.12671
 0.68468  0.12148  0.12730
 0.74893  0.12207  0.12789
 0.81317  0.12266  0.12848
 0.87742  0.12324  0.12906
 0.94166  0.12383  0.12965
 1.00000  0.12442  0.13024
 0.00000  0.17982  0.12198
 0.04339  0.18040  0.12257
 0.10764  0.18099  0.12316
 0.17188  0.18158  0.12375
 0.23613  0.18217  0.12433
 0.30037  0.18276  0.12492
 0.36462  0.18335  0.12551
 0.42886  0.18394  0.12610
 0.49311  0.18452  0.12669
 0.55735  0.18511  0.12728
 0.62160  0.18570  0.12787
 0.68584  0.18629  0.12845
 0.75009  0.18688  0.12904
 0.81433  0.18747  0.12963
 0.87858  0.18806  0.13022
 0.94282  0.18865  0.13081
 1.00000  0.18923  0.13140
 0.00000  0.24463  0.12313
 0.04455  0.24522  0.12372
 0.10879  0.24580  0.12431
 0.17304  0.24639  0.12490
 0.23728  0.24698  0.12549
 0.30153  0.24757  0.12608
 0.36577  0.24816  0.12667
 0.43002  0.24875  0.12726
 0.49426  0.24934  0.12784
 0.55851  0.24993  0.12843
 0.62275  0.25051  0.12902
 0.68700  0.25110  0.12961
 0.75124  0.25169  0.13020
 0.81549  0.25228  0.13079
 0.87973  0.25287  0.13138
 0.94398  0.25346  0.13196
 1.00000  0.25405  0.13255
 0.00000  0.30944  0.12429
 0.04570  0.31003  0.12488
 0.10995  0.31062  0.12547
 0.17419  0.31121  0.12606
 0.23844  0.31179  0.12665
 0.30268  0.31238  0.12723
 0.36693  0.31297  0.12782
 0.43117  0.31356  0.12841
 0.49542  0.31415  0.12900
 0.55966  0.31474  0.12959
 0.62391  0.31533  0.13018
 0.68815  0.31591  0.13077
 0.75240  0.31650  0.13135
 0.81664  0.31709  0.13194
 0.88089  0.31768  0.13253
 0.94513  0.31827  0.13312
 1.00000  0.31886  0.13371
 0.00000  0.37425  0.12545
 0.04686  0.37484  0.12603
 0.11110  0.37543  0.12662
 0.17535  0.37602  0.12721
 0.23959  0.37661  0.12780
 0.30384  0.37719  0.12839
 0.36808  0.37778  0.12898
 0.43233  0.37837  0.12957
 0.49657  0.37896  0.13016
 0.56082  0.37955  0.13074
 0.62506  0.38014  0.13133
 0.68931  0.38073  0.13192
 0.75355  0.38132  0.13251
 0.81780  0.38190  0.13310
 0.88204  0.38249  0.13369
 0.94629  0.38308  0.13428
 1.00000  0.38367  0.13486
 0.00000  0.43906  0.12660
 0.04801  0.43965  0.12719
 0.11226  0.44024  0.12778
 0.17650  0.44083  0.12837
 0.24075  0.44142  0.12896
 0.30499  0.44201  0.12955
 0.36924  0.44259  0.13013
 0.43348  0.44318  0.13072
 0.49773  0.44377  0.13131
 0.56197  0.44436  0.13190
 0.62622  0.44495  0.13249
 0.69046  0.44554  0.13308
 0.75471  0.44613  0.13367
 0.81895  0.44672  0.13425
 0.88320  0.44730  0.13484
 0.94744  0.44789  0.13543
 1.00000  0.44848  0.13602
 0.00000  0.50387  0.12776
 0.04917  0.50446  0.12835
 0.11341  0.50505  0.12893
 0.17766  0.50564  0.12952
 0.24190  0.50623  0.13011
 0.30615  0.50682  0.13070
 0.37039  0.50741  0.13129
 0.43464  0.50800  0.13188
 0.49888  0.50858  0.13247
 0.56313  0.50917  0.13306
 0.62737  0.50976  0.13364
 0.69162  0.51035  0.13423
 0.75586  0.51094  0.13482
 0.82011  0.51153  0.13541
 0.88435  0.51212  0.13600
 0.94860  0.51270  0.13659
 1.00000  0.51329  0.13718
 0.00000  0.56869  0.12891
 0.05033  0.56928  0.12950
 0.11457  0.56986  0.13009
 0.17882  0.57045  0.13068
 0.24306  0.57104  0.13127
 0.30731  0.57163  0.13186
 0.37155  0.57222  0.13245
 0.43579  0.57281  0.13303
 0.50004  0.57340  0.13362
 0.56428  0.57398  0.13421
 0.62853  0.57457  0.13480
 0.69277  0.57516  0.13539
 0.75702  0.57575  0.13598
 0.82126  0.57634  0.13657
 0.88551  0.57693  0.13715
 0.94975  0.57752  0.13774
 1.00000  0.57811  0.13833
 0.00000  0.63350  0.13007
 0.05148  0.63409  0.13066
 0.11573  0.63468  0.13125
 0.17997  0.63526  0.13183
 0.24422  0.63585  0.13242
 0.30846  0.63644  0.13301
 0.37271  0.63703  0.13360
 0.43695  0.63762  0.13419
 0.50120  0.63821  0.13478
 0.56544  0.63880  0.13537
 0.62969  0.63939  0.13596
 0.69393  0.63997  0.13654
 0.75818  0.64056  0.13713
 0.82242  0.64115  0.13772
 0.88666  0.64174  0.13831
 0.95091  0.64233  0.13890
 1.00000  0.64292  0.13949
 0.00000  0.69831  0.13122
 0.05264  0.69890  0.13181
 0.11688  0.69949  0.13240
 0.18113  0.70008  0.13299
 0.24537  0.70067  0.13358
 0.30962  0.70125  0.13417
 0.37386  0.70184  0.13476
 0.43811  0.70243  0.13535
 0.50235  0.70302  0.13593
 0.56660  0.70361  0.13652
 0.63084  0.70420  0.13711
 0.69509  0.70479  0.13770
 0.75933  0.70537  0.13829
 0.82358  0.70596  0.13888
 0.88782  0.70655  0.13947
 0.95207  0.70714  0.14005
 1.00000  0.70773  0.14064
 0.00000  0.76312  0.13238
 0.05379  0.76371  0.13297
 0.11804  0.76430  0.13356
 0.18228  0.76489  0.13415
 0.24653  0.76548  0.13473
 0.31077  0.76607  0.13532
 0.37502  0.76665  0.13591
 0.43926  0.76724  0.13650
 0.50351  0.76783  0.13709
 0.56775  0.76842  0.13768
 0.63200  0.76901  0.13827
 0.69624  0.76960  0.13886
 0.76049  0.77019  0.13944
 0.82473  0.77078  0.14003
 0.88898  0.77136  0.14062
 0.95322  0.77195  0.14121
 1.00000  0.77254  0.14180
 0.00000  0.82793  0.13354
 0.05495  0.82852  0.13412
 0.11919  0.82911  0.13471
 0.18344  0.82970  0.13530
 0.24768  0.83029  0.13589
 0.31193  0.83088  0.13648
 0.37617  0.83147  0.13707
 0.44042  0.83206  0.13766
 0.50466  0.83264  0.13824
 0.56891  0.83323  0.13883
 0.63315  0.83382  0.13942
 0.69740  0.83441  0.14001
 0.76164  0.83500  0.14060
 0.82589  0.83559  0.14119
 0.89013  0.83618  0.14178
 0.95438  0.83676  0.14237
 1.00000  0.83735  0.14295
 0.00000  0.89275  0.13469
 0.05610  0.89334  0.13528
 0.12035  0.89392  0.13587
 0.18459  0.89451  0.13646
 0.24884  0.89510  0.13705
 0.31308  0.89569  0.13763
 0.37733  0.89628  0.13822
 0.44157  0.89687  0.13881
 0.50582  0.89746  0.13940
 0.57006  0.89804  0.13999
 0.63431  0.89863  0.14058
 0.69855  0.89922  0.14117
 0.76280  0.89981  0.14176
 0.82704  0.90040  0.14234
 0.89129  0.90099  0.14293
 0.95553  0.90158  0.14352
 1.00000  0.90216  0.14411
 0.00000  0.95756  0.13585
 0.05726  0.95815  0.13644
 0.12150  0.95874  0.13702
 0.18575  0.95932  0.13761
 0.24999  0.95991  0.13820
 0.31424  0.96050  0.13879
 0.37848  0.96109  0.13938
 0.44273  0.96168  0.13997
 0.50697  0.96227  0.14056
 0.57122  0.96286  0.14114
 0.63546  0.96344  0.14173
 0.69971  0.96403  0.14232
 0.76395  0.96462  0.14291
 0.82820  0.96521  0.14350
 0.89244  0.96580  0.14409
 0.95669  0.96639  0.14468
 1.00000  0.96698  0.14527
 0.00000  1.00000  0.13700
 0.05842  1.00000  0.13759
 0.12266  1.00000  0.13818
 0.18690  1.00000  0.13877
 0.25115  1.00000  0.13936
 0.31539  1.00000  0.13995
 0.37964  1.00000  0.14053
 0.44388  1.00000  0.14112
 0.50813  1.00000  0.14171
 0.57237  1.00000  0.14230
 0.63662  1.00000  0.14289
 0.70086  1.00000  0.14348
 0.76511  1.00000  0.14407
 0.82935  1.00000  0.14466
 0.89360  1.00000  0.14524
 0.95784  1.00000  0.14583
 1.00000  1.00000  0.14642
 0.00000  0.00000  0.18239
 0.04015  0.00000  0.18298
 0.10439  0.00000  0.18357
 0.16864  0.00000  0.18416
 0.23288  0.00000  0.18475
 0.29713  0.00000  0.18534
 0.36137  0.00000  0.18592
 0.42562  0.00000  0.18651
 0.48986  0.00000  0.18710
 0.55411  0.00000  0.18769
 0.61835  0.00000  0.18828
 0.68260  0.00000  0.18887
 0.74684  0.00000  0.18946
 0.81109  0.00000  0.19005
 0.87533  0.00000  0.19063
 0.93958  0.00000  0.19122
 1.00000  0.00000  0.19181
