src/assets/luts/ilford-hp5.cube
TITLE "Ilford HP5"
LUT_3D_SIZE 9
DOMAIN_MIN 0.0 0.0 0.0
DOMAIN_MAX 1.0 1.0 1.0
# LumEdit built-in LUT · 高反差黑白
 0.00000  0.00000  0.00000
 0.00000  0.00000  0.00000
 0.00000  0.00000  0.00000
 0.00000  0.00000  0.00000
 0.03734  0.03734  0.03734
 0.08668  0.08668  0.08668
 0.13601  0.13601  0.13601
 0.18534  0.18534  0.18534
 0.23468  0.23468  0.23468
 0.00000  0.00000  0.00000
 0.00000  0.00000  0.00000
 0.03552  0.03552  0.03552
 0.08486  0.08486  0.08486
 0.13419  0.13419  0.13419
 0.18353  0.18353  0.18353
 0.23287  0.23287  0.23287
 0.28220  0.28220  0.28220
 0.33154  0.33154  0.33154
 0.03371  0.03371  0.03371
 0.08304  0.08304  0.08304
 0.13238  0.13238  0.13238
 0.18171  0.18171  0.18171
 0.23105  0.23105  0.23105
 0.28038  0.28038  0.28038
 0.32972  0.32972  0.32972
 0.37905  0.37905  0.37905
 0.42839  0.42839  0.42839
 0.13056  0.13056  0.13056
 0.17990  0.17990  0.17990
 0.22923  0.22923  0.22923
 0.27857  0.27857  0.27857
 0.32791  0.32791  0.32791
 0.37724  0.37724  0.37724
 0.42657  0.42657  0.42657
 0.47591  0.47591  0.47591
 0.52524  0.52524  0.52524
 0.22742  0.22742  0.22742
 0.27675  0.27675  0.27675
 0.32609  0.32609  0.32609
 0.37543  0.37543  0.37543
 0.42476  0.42476  0.42476
 0.47409  0.47409  0.47409
 0.52343  0.52343  0.52343
 0.57276  0.57276  0.57276
 0.62210  0.62210  0.62210
 0.32427  0.32427  0.32427
 0.37361  0.37361  0.37361
 0.42294  0.42294  0.42294
 0.47228  0.47228  0.47228
 0.52161  0.52161  0.52161
 0.57095  0.57095  0.57095
 0.62028  0.62028  0.62028
 0.66962  0.66962  0.66962
 0.71896  0.71896  0.71896
 0.42113  0.42113  0.42113
 0.47046  0.47046  0.47046
 0.51980  0.51980  0.51980
 0.56913  0.56913  0.56913
 0.61847  0.61847  0.61847
 0.66780  0.66780  0.66780
 0.71714  0.71714  0.71714
 0.76648  0.76648  0.76648
 0.81581  0.81581  0.81581
 0.51799  0.51799  0.51799
 0.56732  0.56732  0.56732
 0.61665  0.61665  0.61665
 0.66599  0.66599  0.66599
 0.71532  0.71532  0.71532
 0.76466  0.76466  0.76466
 0.81400  0.81400  0.81400
 0.86333  0.86333  0.86333
 0.91266  0.91266  0.91266
 0.61484  0.61484  0.61484
 0.66417  0.66417  0.66417
 0.71351  0.71351  0.71351
 0.76284  0.76284  0.76284
 0.81218  0.81218  0.81218
 0.86152  0.86152  0.86152
 0.91085  0.91085  0.91085
 0.96018  0.96018  0.96018
 1.00000  1.00000  1.00000
 0.00000  0.00000  0.00000
 0.00000  0.00000  0.00000
 0.00000  0.00000  0.00000
 0.00682  0.00682  0.00682
 0.05615  0.05615  0.05615
 0.10548  0.10548  0.10548
 0.15482  0.15482  0.15482
 0.20415  0.20415  0.20415
 0.25349  0.25349  0.25349
 0.00000  0.00000  0.00000
 0.00500  0.00500  0.00500
 0.05434  0.05434  0.05434
 0.10367  0.10367  0.10367
 0.15301  0.15301  0.15301
 0.20234  0.20234  0.20234
 0.25167  0.25167  0.25167
 0.30101  0.30101  0.30101
 0.35035  0.35035  0.35035
 0.05252  0.05252  0.05252
 0.10185  0.10185  0.10185
 0.15119  0.15119  0.15119
 0.20052  0.20052  0.20052
 0.24986  0.24986  0.24986
 0.29919  0.29919  0.29919
 0.34853  0.34853  0.34853
 0.39786  0.39786  0.39786
 0.44720  0.44720  0.44720
 0.14937  0.14937  0.14937
 0.19871  0.19871  0.19871
 0.24804  0.24804  0.24804
 0.29738  0.29738  0.29738
 0.34671  0.34671  0.34671
 0.39605  0.39605  0.39605
 0.44538  0.44538  0.44538
 0.49472  0.49472  0.49472
 0.54405  0.54405  0.54405
 0.24623  0.24623  0.24623
 0.29556  0.29556  0.29556
 0.34490  0.34490  0.34490
 0.39424  0.39424  0.39424
 0.44357  0.44357  0.44357
 0.49290  0.49290  0.49290
 0.54224  0.54224  0.54224
 0.59157  0.59157  0.59157
 0.64091  0.64091  0.64091
 0.34308  0.34308  0.34308
 0.39242  0.39242  0.39242
 0.44175  0.44175  0.44175
 0.49109  0.49109  0.49109
 0.54042  0.54042  0.54042
 0.58976  0.58976  0.58976
 0.63909  0.63909  0.63909
 0.68843  0.68843  0.68843
 0.73777  0.73777  0.73777
 0.43994  0.43994  0.43994
 0.48927  0.48927  0.48927
 0.53861  0.53861  0.53861
 0.58794  0.58794  0.58794
 0.63728  0.63728  0.63728
 0.68661  0.68661  0.68661
 0.73595  0.73595  0.73595
 0.78529  0.78529  0.78529
 0.83462  0.83462  0.83462
 0.53680  0.53680  0.53680
 0.58613  0.58613  0.58613
 0.63546  0.63546  0.63546
 0.68480  0.68480  0.68480
 0.73413  0.73413  0.73413
 0.78347  0.78347  0.78347
 0.83281  0.83281  0.83281
 0.88214  0.88214  0.88214
 0.93147  0.93147  0.93147
 0.63365  0.63365  0.63365
 0.68298  0.68298  0.68298
 0.73232  0.73232  0.73232
 0.78165  0.78165  0.78165
 0.83099  0.83099  0.83099
 0.88033  0.88033  0.88033
 0.92966  0.92966  0.92966
 0.97899  0.97899  0.97899
 1.00000  1.00000  1.00000
 0.00000  0.00000  0.00000
 0.00000  0.00000  0.00000
 0.00000  0.00000  0.00000
 0.02562  0.02562  0.02562
 0.07496  0.07496  0.07496
 0.12429  0.12429  0.12429
 0.17363  0.17363  0.17363
 0.22297  0.22297  0.22297
 0.27230  0.27230  0.27230
 0.00000  0.00000  0.00000
 0.02381  0.02381  0.02381
 0.07315  0.07315  0.07315
 0.12248  0.12248  0.12248
 0.17181  0.17181  0.17181
 0.22115  0.22115  0.22115
 0.27049  0.27049  0.27049
 0.31982  0.31982  0.31982
 0.36916  0.36916  0.36916
 0.07133  0.07133  0.07133
 0.12066  0.12066  0.12066
 0.17000  0.17000  0.17000
 0.21934  0.21934  0.21934
 0.26867  0.26867  0.26867
 0.31800  0.31800  0.31800
 0.36734  0.36734  0.36734
 0.41668  0.41668  0.41668
 0.46601  0.46601  0.46601
 0.16818  0.16818  0.16818
 0.21752  0.21752  0.21752
 0.26686  0.26686  0.26686
 0.31619  0.31619  0.31619
 0.36552  0.36552  0.36552
 0.41486  0.41486  0.41486
 0.46419  0.46419  0.46419
 0.51353  0.51353  0.51353
 0.56286  0.56286  0.56286
 0.26504  0.26504  0.26504
 0.31437  0.31437  0.31437
 0.36371  0.36371  0.36371
 0.41305  0.41305  0.41305
 0.46238  0.46238  0.46238
 0.51171  0.51171  0.51171
 0.56105  0.56105  0.56105
 0.61038  0.61038  0.61038
 0.65972  0.65972  0.65972
 0.36189  0.36189  0.36189
 0.41123  0.41123  0.41123
 0.46056  0.46056  0.46056
 0.50990  0.50990  0.50990
 0.55923  0.55923  0.55923
 0.60857  0.60857  0.60857
 0.65790  0.65790  0.65790
 0.70724  0.70724  0.70724
 0.75657  0.75657  0.75657
 0.45875  0.45875  0.45875
 0.50808  0.50808  0.50808
 0.55742  0.55742  0.55742
 0.60675  0.60675  0.60675
 0.65609  0.65609  0.65609
 0.70542  0.70542  0.70542
 0.75476  0.75476  0.75476
 0.80410  0.80410  0.80410
 0.85343  0.85343  0.85343
 0.55560  0.55560  0.55560
 0.60494  0.60494  0.60494
 0.65427  0.65427  0.65427
 0.70361  0.70361  0.70361
 0.75294  0.75294  0.75294
 0.80228  0.80228  0.80228
 0.85162  0.85162  0.85162
 0.90095  0.90095  0.90095
 0.95028  0.95028  0.95028
 0.65246  0.65246  0.65246
 0.70179  0.70179  0.70179
 0.75113  0.75113  0.75113
 0.80046  0.80046  0.80046
 0.84980  0.84980  0.84980
 0.89914  0.89914  0.89914
 0.94847  0.94847  0.94847
 0.99780  0.99780  0.99780
 1.00000  1.00000  1.00000
 0.00000  0.00000  0.00000
 0.00000  0.00000  0.00000
 0.00000  0.00000  0.00000
 0.04443  0.04443  0.04443
 0.09377  0.09377  0.09377
 0.14310  0.14310  0.14310
 0.19244  0.19244  0.19244
 0.24178  0.24178  0.24178
 0.29111  0.29111  0.29111
 0.00000  0.00000  0.00000
 0.04262  0.04262  0.04262
 0.09196  0.09196  0.09196
 0.14129  0.14129  0.14129
 0.19062  0.19062  0.19062
 0.23996  0.23996  0.23996
 0.28930  0.28930  0.28930
 0.33863  0.33863  0.33863
 0.38797  0.38797  0.38797
 0.09014  0.09014  0.09014
 0.13947  0.13947  0.13947
 0.18881  0.18881  0.18881
 0.23814  0.23814  0.23814
 0.28748  0.28748  0.28748
 0.33681  0.33681  0.33681
 0.38615  0.38615  0.38615
 0.43549  0.43549  0.43549
 0.48482  0.48482  0.48482
 0.18699  0.18699  0.18699
 0.23633  0.23633  0.23633
 0.28567  0.28567  0.28567
 0.33500  0.33500  0.33500
 0.38433  0.38433  0.38433
 0.43367  0.43367  0.43367
 0.48300  0.48300  0.48300
 0.53234  0.53234  0.53234
 0.58167  0.58167  0.58167
 0.28385  0.28385  0.28385
 0.33318  0.33318  0.33318
 0.38252  0.38252  0.38252
 0.43186  0.43186  0.43186
 0.48119  0.48119  0.48119
 0.53052  0.53052  0.53052
 0.57986  0.57986  0.57986
 0.62919  0.62919  0.62919
 0.67853  0.67853  0.67853
 0.38070  0.38070  0.38070
 0.43004  0.43004  0.43004
 0.47937  0.47937  0.47937
 0.52871  0.52871  0.52871
 0.57804  0.57804  0.57804
 0.62738  0.62738  0.62738
 0.67671  0.67671  0.67671
 0.72605  0.72605  0.72605
 0.77538  0.77538  0.77538
 0.47756  0.47756  0.47756
 0.52689  0.52689  0.52689
 0.57623  0.57623  0.57623
 0.62556  0.62556  0.62556
 0.67490  0.67490  0.67490
 0.72423  0.72423  0.72423
 0.77357  0.77357  0.77357
 0.82290  0.82290  0.82290
 0.87224  0.87224  0.87224
 0.57441  0.57441  0.57441
 0.62375  0.62375  0.62375
 0.67308  0.67308  0.67308
 0.72242  0.72242  0.72242
 0.77175  0.77175  0.77175
 0.82109  0.82109  0.82109
 0.87043  0.87043  0.87043
 0.91976  0.91976  0.91976
 0.96909  0.96909  0.96909
 0.67127  0.67127  0.67127
 0.72060  0.72060  0.72060
 0.76994  0.76994  0.76994
 0.81927  0.81927  0.81927
 0.86861  0.86861  0.86861
 0.91795  0.91795  0.91795
 0.96728  0.96728  0.96728
 1.00000  1.00000  1.00000
 1.00000  1.00000  1.00000
 0.00000  0.00000  0.00000
 0.00000  0.00000  0.00000
 0.01391  0.01391  0.01391
 0.06324  0.06324  0.06324
 0.11258  0.11258  0.11258
 0.16191  0.16191  0.16191
 0.21125  0.21125  0.21125
 0.26058  0.26058  0.26058
 0.30992  0.30992  0.30992
 0.01210  0.01210  0.01210
 0.06143  0.06143  0.06143
 0.11077  0.11077  0.11077
 0.16010  0.16010  0.16010
 0.20943  0.20943  0.20943
 0.25877  0.25877  0.25877
 0.30811  0.30811  0.30811
 0.35744  0.35744  0.35744
 0.40677  0.40677  0.40677
 0.10895  0.10895  0.10895
 0.15828  0.15828  0.15828
 0.20762  0.20762  0.20762
 0.25695  0.25695  0.25695
 0.30629  0.30629  0.30629
 0.35562  0.35562  0.35562
 0.40496  0.40496  0.40496
 0.45430  0.45430  0.45430
 0.50363  0.50363  0.50363
 0.20581  0.20581  0.20581
 0.25514  0.25514  0.25514
 0.30447  0.30447  0.30447
 0.35381  0.35381  0.35381
 0.40314  0.40314  0.40314
 0.45248  0.45248  0.45248
 0.50182  0.50182  0.50182
 0.55115  0.55115  0.55115
 0.60049  0.60049  0.60049
 0.30266  0.30266  0.30266
 0.35199  0.35199  0.35199
 0.40133  0.40133  0.40133
 0.45066  0.45066  0.45066
 0.50000  0.50000  0.50000
 0.54934  0.54934  0.54934
 0.59867  0.59867  0.59867
 0.64801  0.64801  0.64801
 0.69734  0.69734  0.69734
 0.39951  0.39951  0.39951
 0.44885  0.44885  0.44885
 0.49818  0.49818  0.49818
 0.54752  0.54752  0.54752
 0.59685  0.59685  0.59685
 0.64619  0.64619  0.64619
 0.69552  0.69552  0.69552
 0.74486  0.74486  0.74486
 0.79420  0.79420  0.79420
 0.49637  0.49637  0.49637
 0.54570  0.54570  0.54570
 0.59504  0.59504  0.59504
 0.64438  0.64438  0.64438
 0.69371  0.69371  0.69371
 0.74304  0.74304  0.74304
 0.79238  0.79238  0.79238
 0.84172  0.84172  0.84172
 0.89105  0.89105  0.89105
 0.59323  0.59323  0.59323
 0.64256  0.64256  0.64256
 0.69190  0.69190  0.69190
 0.74123  0.74123  0.74123
 0.79056  0.79056  0.79056
 0.83990  0.83990  0.83990
 0.88924  0.88924  0.88924
 0.93857  0.93857  0.93857
 0.98791  0.98791  0.98791
 0.69008  0.69008  0.69008
 0.73942  0.73942  0.73942
 0.78875  0.78875  0.78875
 0.83809  0.83809  0.83809
 0.88742  0.88742  0.88742
 0.93676  0.93676  0.93676
 0.98609  0.98609  0.98609
 1.00000  1.00000  1.00000
 1.00000  1.00000  1.00000
 0.00000  0.00000  0.00000
 0.00000  0.00000  0.00000
 0.03272  0.03272  0.03272
 0.08205  0.08205  0.08205
 0.13139  0.13139  0.13139
 0.18072  0.18072  0.18072
 0.23006  0.23006  0.23006
 0.27940  0.27940  0.27940
 0.32873  0.32873  0.32873
 0.03090  0.03090  0.03090
 0.08024  0.08024  0.08024
 0.12957  0.12957  0.12957
 0.17891  0.17891  0.17891
 0.22824  0.22824  0.22824
 0.27758  0.27758  0.27758
 0.32692  0.32692  0.32692
 0.37625  0.37625  0.37625
 0.42559  0.42559  0.42559
 0.12776  0.12776  0.12776
 0.17710  0.17710  0.17710
 0.22643  0.22643  0.22643
 0.27576  0.27576  0.27576
 0.32510  0.32510  0.32510
 0.37443  0.37443  0.37443
 0.42377  0.42377  0.42377
 0.47310  0.47310  0.47310
 0.52244  0.52244  0.52244
 0.22461  0.22461  0.22461
 0.27395  0.27395  0.27395
 0.32329  0.32329  0.32329
 0.37262  0.37262  0.37262
 0.42196  0.42196  0.42196
 0.47129  0.47129  0.47129
 0.52063  0.52063  0.52063
 0.56996  0.56996  0.56996
 0.61929  0.61929  0.61929
 0.32147  0.32147  0.32147
 0.37080  0.37080  0.37080
 0.42014  0.42014  0.42014
 0.46948  0.46948  0.46948
 0.51881  0.51881  0.51881
 0.56815  0.56815  0.56815
 0.61748  0.61748  0.61748
 0.66682  0.66682  0.66682
 0.71615  0.71615  0.71615
 0.41832  0.41832  0.41832
 0.46766  0.46766  0.46766
 0.51699  0.51699  0.51699
 0.56633  0.56633  0.56633
 0.61566  0.61566  0.61566
 0.66500  0.66500  0.66500
 0.71433  0.71433  0.71433
 0.76367  0.76367  0.76367
 0.81300  0.81300  0.81300
 0.51518  0.51518  0.51518
 0.56451  0.56451  0.56451
 0.61385  0.61385  0.61385
 0.66319  0.66319  0.66319
 0.71252  0.71252  0.71252
 0.76185  0.76185  0.76185
 0.81119  0.81119  0.81119
 0.86053  0.86053  0.86053
 0.90986  0.90986  0.90986
 0.61204  0.61204  0.61204
 0.66137  0.66137  0.66137
 0.71071  0.71071  0.71071
 0.76004  0.76004  0.76004
 0.80937  0.80937  0.80937
 0.85871  0.85871  0.85871
 0.90805  0.90805  0.90805
 0.95738  0.95738  0.95738
 1.00000  1.00000  1.00000
 0.70889  0.70889  0.70889
 0.75823  0.75823  0.75823
 0.80756  0.80756  0.80756
 0.85690  0.85690  0.85690
 0.90623  0.90623  0.90623
 0.95556  0.95556  0.95556
 1.00000  1.00000  1.00000
 1.00000  1.00000  1.00000
 1.00000  1.00000  1.00000
 0.00000  0.00000  0.00000
 0.00220  0.00220  0.00220
 0.05153  0.05153  0.05153
 0.10086  0.10086  0.10086
 0.15020  0.15020  0.15020
 0.19953  0.19953  0.19953
 0.24887  0.24887  0.24887
 0.29821  0.29821  0.29821
 0.34754  0.34754  0.34754
 0.04971  0.04971  0.04971
 0.09905  0.09905  0.09905
 0.14839  0.14839  0.14839
 0.19772  0.19772  0.19772
 0.24706  0.24706  0.24706
 0.29639  0.29639  0.29639
 0.34573  0.34573  0.34573
 0.39506  0.39506  0.39506
 0.44440  0.44440  0.44440
 0.14657  0.14657  0.14657
 0.19590  0.19590  0.19590
 0.24524  0.24524  0.24524
 0.29457  0.29457  0.29457
 0.34391  0.34391  0.34391
 0.39324  0.39324  0.39324
 0.44258  0.44258  0.44258
 0.49191  0.49191  0.49191
 0.54125  0.54125  0.54125
 0.24342  0.24342  0.24342
 0.29276  0.29276  0.29276
 0.34210  0.34210  0.34210
 0.39143  0.39143  0.39143
 0.44077  0.44077  0.44077
 0.49010  0.49010  0.49010
 0.53943  0.53943  0.53943
 0.58877  0.58877  0.58877
 0.63810  0.63810  0.63810
 0.34028  0.34028  0.34028
 0.38961  0.38961  0.38961
 0.43895  0.43895  0.43895
 0.48829  0.48829  0.48829
 0.53762  0.53762  0.53762
 0.58696  0.58696  0.58696
 0.63629  0.63629  0.63629
 0.68563  0.68563  0.68563
 0.73496  0.73496  0.73496
 0.43713  0.43713  0.43713
 0.48647  0.48647  0.48647
 0.53580  0.53580  0.53580
 0.58514  0.58514  0.58514
 0.63447  0.63447  0.63447
 0.68381  0.68381  0.68381
 0.73314  0.73314  0.73314
 0.78248  0.78248  0.78248
 0.83181  0.83181  0.83181
 0.53399  0.53399  0.53399
 0.58332  0.58332  0.58332
 0.63266  0.63266  0.63266
 0.68199  0.68199  0.68199
 0.73133  0.73133  0.73133
 0.78066  0.78066  0.78066
 0.83000  0.83000  0.83000
 0.87934  0.87934  0.87934
 0.92867  0.92867  0.92867
 0.63085  0.63085  0.63085
 0.68018  0.68018  0.68018
 0.72952  0.72952  0.72952
 0.77885  0.77885  0.77885
 0.82818  0.82818  0.82818
 0.87752  0.87752  0.87752
 0.92686  0.92686  0.92686
 0.97619  0.97619  0.97619
 1.00000  1.00000  1.00000
 0.72770  0.72770  0.72770
 0.77704  0.77704  0.77704
 0.82637  0.82637  0.82637
 0.87571  0.87571  0.87571
 0.92504  0.92504  0.92504
 0.97437  0.97437  0.97437
 1.00000  1.00000  1.00000
 1.00000  1.00000  1.00000
 1.00000  1.00000  1.00000
 0.00000  0.00000  0.00000
 0.02100  0.02100  0.02100
 0.07034  0.07034  0.07034
 0.11968  0.11968  0.11968
 0.16901  0.16901  0.16901
 0.21835  0.21835  0.21835
 0.26768  0.26768  0.26768
 0.31701  0.31701  0.31701
 0.36635  0.36635  0.36635
 0.06852  0.06852  0.06852
 0.11786  0.11786  0.11786
 0.16719  0.16719  0.16719
 0.21653  0.21653  0.21653
 0.26587  0.26587  0.26587
 0.31520  0.31520  0.31520
 0.36454  0.36454  0.36454
 0.41387  0.41387  0.41387
 0.46321  0.46321  0.46321
 0.16538  0.16538  0.16538
 0.21471  0.21471  0.21471
 0.26405  0.26405  0.26405
 0.31338  0.31338  0.31338
 0.36272  0.36272  0.36272
 0.41205  0.41205  0.41205
 0.46139  0.46139  0.46139
 0.51072  0.51072  0.51072
 0.56006  0.56006  0.56006
 0.26223  0.26223  0.26223
 0.31157  0.31157  0.31157
 0.36091  0.36091  0.36091
 0.41024  0.41024  0.41024
 0.45957  0.45957  0.45957
 0.50891  0.50891  0.50891
 0.55824  0.55824  0.55824
 0.60758  0.60758  0.60758
 0.65691  0.65691  0.65691
 0.35909  0.35909  0.35909
 0.40842  0.40842  0.40842
 0.45776  0.45776  0.45776
 0.50710  0.50710  0.50710
 0.55643  0.55643  0.55643
 0.60576  0.60576  0.60576
 0.65510  0.65510  0.65510
 0.70443  0.70443  0.70443
 0.75377  0.75377  0.75377
 0.45594  0.45594  0.45594
 0.50528  0.50528  0.50528
 0.55461  0.55461  0.55461
 0.60395  0.60395  0.60395
 0.65328  0.65328  0.65328
 0.70262  0.70262  0.70262
 0.75195  0.75195  0.75195
 0.80129  0.80129  0.80129
 0.85062  0.85062  0.85062
 0.55280  0.55280  0.55280
 0.60213  0.60213  0.60213
 0.65147  0.65147  0.65147
 0.70080  0.70080  0.70080
 0.75014  0.75014  0.75014
 0.79947  0.79947  0.79947
 0.84881  0.84881  0.84881
 0.89815  0.89815  0.89815
 0.94748  0.94748  0.94748
 0.64965  0.64965  0.64965
 0.69899  0.69899  0.69899
 0.74833  0.74833  0.74833
 0.79766  0.79766  0.79766
 0.84699  0.84699  0.84699
 0.89633  0.89633  0.89633
 0.94567  0.94567  0.94567
 0.99500  0.99500  0.99500
 1.00000  1.00000  1.00000
 0.74651  0.74651  0.74651
 0.79585  0.79585  0.79585
 0.84518  0.84518  0.84518
 0.89451  0.89451  0.89451
 0.94385  0.94385  0.94385
 0.99318  0.99318  0.99318
 1.00000  1.00000  1.00000
 1.00000  1.00000  1.00000
 1.00000  1.00000  1.00000
 0.00000  0.00000  0.00000
 0.03982  0.03982  0.03982
 0.08915  0.08915  0.08915
 0.13849  0.13849  0.13849
 0.18782  0.18782  0.18782
 0.23716  0.23716  0.23716
 0.28649  0.28649  0.28649
 0.33582  0.33582  0.33582
 0.38516  0.38516  0.38516
 0.08733  0.08733  0.08733
 0.13667  0.13667  0.13667
 0.18600  0.18600  0.18600
 0.23534  0.23534  0.23534
 0.28467  0.28467  0.28467
 0.33401  0.33401  0.33401
 0.38335  0.38335  0.38335
 0.43268  0.43268  0.43268
 0.48202  0.48202  0.48202
 0.18419  0.18419  0.18419
 0.23352  0.23352  0.23352
 0.28286  0.28286  0.28286
 0.33219  0.33219  0.33219
 0.38153  0.38153  0.38153
 0.43086  0.43086  0.43086
 0.48020  0.48020  0.48020
 0.52954  0.52954  0.52954
 0.57887  0.57887  0.57887
 0.28104  0.28104  0.28104
 0.33038  0.33038  0.33038
 0.37971  0.37971  0.37971
 0.42905  0.42905  0.42905
 0.47838  0.47838  0.47838
 0.52772  0.52772  0.52772
 0.57705  0.57705  0.57705
 0.62639  0.62639  0.62639
 0.67572  0.67572  0.67572
 0.37790  0.37790  0.37790
 0.42723  0.42723  0.42723
 0.47657  0.47657  0.47657
 0.52590  0.52590  0.52590
 0.57524  0.57524  0.57524
 0.62457  0.62457  0.62457
 0.67391  0.67391  0.67391
 0.72324  0.72324  0.72324
 0.77258  0.77258  0.77258
 0.47475  0.47475  0.47475
 0.52409  0.52409  0.52409
 0.57342  0.57342  0.57342
 0.62276  0.62276  0.62276
 0.67209  0.67209  0.67209
 0.72143  0.72143  0.72143
 0.77076  0.77076  0.77076
 0.82010  0.82010  0.82010
 0.86943  0.86943  0.86943
 0.57161  0.57161  0.57161
 0.62094  0.62094  0.62094
 0.67028  0.67028  0.67028
 0.71961  0.71961  0.71961
 0.76895  0.76895  0.76895
 0.81828  0.81828  0.81828
 0.86762  0.86762  0.86762
 0.91695  0.91695  0.91695
 0.96629  0.96629  0.96629
 0.66846  0.66846  0.66846
 0.71780  0.71780  0.71780
 0.76713  0.76713  0.76713
 0.81647  0.81647  0.81647
 0.86580  0.86580  0.86580
 0.91514  0.91514  0.91514
 0.96448  0.96448  0.96448
 1.00000  1.00000  1.00000
 1.00000  1.00000  1.00000
 0.76532  0.76532  0.76532
 0.81466  0.81466  0.81466
 0.86399  0.86399  0.86399
 0.91332  0.91332  0.91332
 0.96266  0.96266  0.96266
 1.00000  1.00000  1.00000
 1.00000  1.00000  1.00000
 1.00000  1.00000  1.00000
 1.00000  1.00000  1.00000
