src/assets/luts/ilford-hp5.cube
TITLE "Ilford HP5"
LUT_3D_SIZE 17
DOMAIN_MIN 0.0 0.0 0.0
DOMAIN_MAX 1.0 1.0 1.0
# LumEdit built-in LUT · 高反差黑白
 0.00000  0.00000  0.00000
 0.00000  0.00000  0.00000
 0.00000  0.00000  0.00000
 0.00000  0.00000  0.00000
 0.00000  0.00000  0.00000
 0.00000  0.00000  0.00000
 0.00000  0.00000  0.00000
 0.01267  0.01267  0.01267
 0.03734  0.03734  0.03734
 0.06201  0.06201  0.06201
 0.08668  0.08668  0.08668
 0.11134  0.11134  0.11134
 0.13601  0.13601  0.13601
 0.16068  0.16068  0.16068
 0.18534  0.18534  0.18534
 0.21001  0.21001  0.21001
 0.23468  0.23468  0.23468
 0.00000  0.00000  0.00000
 0.00000  0.00000  0.00000
 0.00000  0.00000  0.00000
 0.00000  0.00000  0.00000
 0.00000  0.00000  0.00000
 0.01176  0.01176  0.01176
 0.03643  0.03643  0.03643
 0.06110  0.06110  0.06110
 0.08577  0.08577  0.08577
 0.11043  0.11043  0.11043
 0.13510  0.13510  0.13510
 0.15977  0.15977  0.15977
 0.18444  0.18444  0.18444
 0.20910  0.20910  0.20910
 0.23377  0.23377  0.23377
 0.25844  0.25844  0.25844
 0.28311  0.28311  0.28311
 0.00000  0.00000  0.00000
 0.00000  0.00000  0.00000
 0.00000  0.00000  0.00000
 0.01086  0.01086  0.01086
 0.03552  0.03552  0.03552
 0.06019  0.06019  0.06019
 0.08486  0.08486  0.08486
 0.10953  0.10953  0.10953
 0.13419  0.13419  0.13419
 0.15886  0.15886  0.15886
 0.18353  0.18353  0.18353
 0.20820  0.20820  0.20820
 0.23287  0.23287  0.23287
 0.25753  0.25753  0.25753
 0.28220  0.28220  0.28220
 0.30687  0.30687  0.30687
 0.33154  0.33154  0.33154
 0.00000  0.00000  0.00000
 0.00995  0.00995  0.00995
 0.03462  0.03462  0.03462
 0.05928  0.05928  0.05928
 0.08395  0.08395  0.08395
 0.10862  0.10862  0.10862
 0.13329  0.13329  0.13329
 0.15796  0.15796  0.15796
 0.18262  0.18262  0.18262
 0.20729  0.20729  0.20729
 0.23196  0.23196  0.23196
 0.25662  0.25662  0.25662
 0.28129  0.28129  0.28129
 0.30596  0.30596  0.30596
 0.33063  0.33063  0.33063
 0.35529  0.35529  0.35529
 0.37996  0.37996  0.37996
 0.03371  0.03371  0.03371
 0.05838  0.05838  0.05838
 0.08304  0.08304  0.08304
 0.10771  0.10771  0.10771
 0.13238  0.13238  0.13238
 0.15705  0.15705  0.15705
 0.18171  0.18171  0.18171
 0.20638  0.20638  0.20638
 0.23105  0.23105  0.23105
 0.25572  0.25572  0.25572
 0.28038  0.28038  0.28038
 0.30505  0.30505  0.30505
 0.32972  0.32972  0.32972
 0.35439  0.35439  0.35439
 0.37905  0.37905  0.37905
 0.40372  0.40372  0.40372
 0.42839  0.42839  0.42839
 0.08214  0.08214  0.08214
 0.10680  0.10680  0.10680
 0.13147  0.13147  0.13147
 0.15614  0.15614  0.15614
 0.18081  0.18081  0.18081
 0.20547  0.20547  0.20547
 0.23014  0.23014  0.23014
 0.25481  0.25481  0.25481
 0.27948  0.27948  0.27948
 0.30414  0.30414  0.30414
 0.32881  0.32881  0.32881
 0.35348  0.35348  0.35348
 0.37815  0.37815  0.37815
 0.40281  0.40281  0.40281
 0.42748  0.42748  0.42748
 0.45215  0.45215  0.45215
 0.47682  0.47682  0.47682
 0.13056  0.13056  0.13056
 0.15523  0.15523  0.15523
 0.17990  0.17990  0.17990
 0.20457  0.20457  0.20457
 0.22923  0.22923  0.22923
 0.25390  0.25390  0.25390
 0.27857  0.27857  0.27857
 0.30324  0.30324  0.30324
 0.32791  0.32791  0.32791
 0.35257  0.35257  0.35257
 0.37724  0.37724  0.37724
 0.40191  0.40191  0.40191
 0.42657  0.42657  0.42657
 0.45124  0.45124  0.45124
 0.47591  0.47591  0.47591
 0.50058  0.50058  0.50058
 0.52524  0.52524  0.52524
 0.17899  0.17899  0.17899
 0.20366  0.20366  0.20366
 0.22833  0.22833  0.22833
 0.25299  0.25299  0.25299
 0.27766  0.27766  0.27766
 0.30233  0.30233  0.30233
 0.32700  0.32700  0.32700
 0.35167  0.35167  0.35167
 0.37633  0.37633  0.37633
 0.40100  0.40100  0.40100
 0.42567  0.42567  0.42567
 0.45033  0.45033  0.45033
 0.47500  0.47500  0.47500
 0.49967  0.49967  0.49967
 0.52434  0.52434  0.52434
 0.54900  0.54900  0.54900
 0.57367  0.57367  0.57367
 0.22742  0.22742  0.22742
 0.25209  0.25209  0.25209
 0.27675  0.27675  0.27675
 0.30142  0.30142  0.30142
 0.32609  0.32609  0.32609
 0.35076  0.35076  0.35076
 0.37543  0.37543  0.37543
 0.40009  0.40009  0.40009
 0.42476  0.42476  0.42476
 0.44943  0.44943  0.44943
 0.47409  0.47409  0.47409
 0.49876  0.49876  0.49876
 0.52343  0.52343  0.52343
 0.54810  0.54810  0.54810
 0.57276  0.57276  0.57276
 0.59743  0.59743  0.59743
 0.62210  0.62210  0.62210
 0.27585  0.27585  0.27585
 0.30051  0.30051  0.30051
 0.32518  0.32518  0.32518
 0.34985  0.34985  0.34985
 0.37452  0.37452  0.37452
 0.39918  0.39918  0.39918
 0.42385  0.42385  0.42385
 0.44852  0.44852  0.44852
 0.47319  0.47319  0.47319
 0.49785  0.49785  0.49785
 0.52252  0.52252  0.52252
 0.54719  0.54719  0.54719
 0.57186  0.57186  0.57186
 0.59652  0.59652  0.59652
 0.62119  0.62119  0.62119
 0.64586  0.64586  0.64586
 0.67053  0.67053  0.67053
 0.32427  0.32427  0.32427
 0.34894  0.34894  0.34894
 0.37361  0.37361  0.37361
 0.39828  0.39828  0.39828
 0.42294  0.42294  0.42294
 0.44761  0.44761  0.44761
 0.47228  0.47228  0.47228
 0.49695  0.49695  0.49695
 0.52161  0.52161  0.52161
 0.54628  0.54628  0.54628
 0.57095  0.57095  0.57095
 0.59562  0.59562  0.59562
 0.62028  0.62028  0.62028
 0.64495  0.64495  0.64495
 0.66962  0.66962  0.66962
 0.69429  0.69429  0.69429
 0.71896  0.71896  0.71896
 0.37270  0.37270  0.37270
 0.39737  0.39737  0.39737
 0.42204  0.42204  0.42204
 0.44671  0.44671  0.44671
 0.47137  0.47137  0.47137
 0.49604  0.49604  0.49604
 0.52071  0.52071  0.52071
 0.54538  0.54538  0.54538
 0.57004  0.57004  0.57004
 0.59471  0.59471  0.59471
 0.61938  0.61938  0.61938
 0.64404  0.64404  0.64404
 0.66871  0.66871  0.66871
 0.69338  0.69338  0.69338
 0.71805  0.71805  0.71805
 0.74272  0.74272  0.74272
 0.76738  0.76738  0.76738
 0.42113  0.42113  0.42113
 0.44580  0.44580  0.44580
 0.47046  0.47046  0.47046
 0.49513  0.49513  0.49513
 0.51980  0.51980  0.51980
 0.54447  0.54447  0.54447
 0.56913  0.56913  0.56913
 0.59380  0.59380  0.59380
 0.61847  0.61847  0.61847
 0.64314  0.64314  0.64314
 0.66780  0.66780  0.66780
 0.69247  0.69247  0.69247
 0.71714  0.71714  0.71714
 0.74181  0.74181  0.74181
 0.76648  0.76648  0.76648
 0.79114  0.79114  0.79114
 0.81581  0.81581  0.81581
 0.46956  0.46956  0.46956
 0.49422  0.49422  0.49422
 0.51889  0.51889  0.51889
 0.54356  0.54356  0.54356
 0.56823  0.56823  0.56823
 0.59289  0.59289  0.59289
 0.61756  0.61756  0.61756
 0.64223  0.64223  0.64223
 0.66690  0.66690  0.66690
 0.69156  0.69156  0.69156
 0.71623  0.71623  0.71623
 0.74090  0.74090  0.74090
 0.76557  0.76557  0.76557
 0.79023  0.79023  0.79023
 0.81490  0.81490  0.81490
 0.83957  0.83957  0.83957
 0.86424  0.86424  0.86424
 0.51799  0.51799  0.51799
 0.54265  0.54265  0.54265
 0.56732  0.56732  0.56732
 0.59199  0.59199  0.59199
 0.61665  0.61665  0.61665
 0.64132  0.64132  0.64132
 0.66599  0.66599  0.66599
 0.69066  0.69066  0.69066
 0.71532  0.71532  0.71532
 0.73999  0.73999  0.73999
 0.76466  0.76466  0.76466
 0.78933  0.78933  0.78933
 0.81400  0.81400  0.81400
 0.83866  0.83866  0.83866
 0.86333  0.86333  0.86333
 0.88800  0.88800  0.88800
 0.91266  0.91266  0.91266
 0.56641  0.56641  0.56641
 0.59108  0.59108  0.59108
 0.61575  0.61575  0.61575
 0.64041  0.64041  0.64041
 0.66508  0.66508  0.66508
 0.68975  0.68975  0.68975
 0.71442  0.71442  0.71442
 0.73908  0.73908  0.73908
 0.76375  0.76375  0.76375
 0.78842  0.78842  0.78842
 0.81309  0.81309  0.81309
 0.83776  0.83776  0.83776
 0.86242  0.86242  0.86242
 0.88709  0.88709  0.88709
 0.91176  0.91176  0.91176
 0.93642  0.93642  0.93642
 0.96109  0.96109  0.96109
 0.61484  0.61484  0.61484
 0.63951  0.63951  0.63951
 0.66417  0.66417  0.66417
 0.68884  0.68884  0.68884
 0.71351  0.71351  0.71351
 0.73818  0.73818  0.73818
 0.76284  0.76284  0.76284
 0.78751  0.78751  0.78751
 0.81218  0.81218  0.81218
 0.83685  0.83685  0.83685
 0.86152  0.86152  0.86152
 0.88618  0.88618  0.88618
 0.91085  0.91085  0.91085
 0.93552  0.93552  0.93552
 0.96018  0.96018  0.96018
 0.98485  0.98485  0.98485
 1.00000  1.00000  1.00000
 0.00000  0.00000  0.00000
 0.00000  0.00000  0.00000
 0.00000  0.00000  0.00000
 0.00000  0.00000  0.00000
 0.00000  0.00000  0.00000
 0.00000  0.00000  0.00000
 0.00000  0.00000  0.00000
 0.02208  0.02208  0.02208
 0.04674  0.04674  0.04674
 0.07141  0.07141  0.07141
 0.09608  0.09608  0.09608
 0.12075  0.12075  0.12075
 0.14541  0.14541  0.14541
 0.17008  0.17008  0.17008
 0.19475  0.19475  0.19475
 0.21942  0.21942  0.21942
 0.24408  0.24408  0.24408
 0.00000  0.00000  0.00000
 0.00000  0.00000  0.00000
 0.00000  0.00000  0.00000
 0.00000  0.00000  0.00000
 0.00000  0.00000  0.00000
 0.02117  0.02117  0.02117
 0.04584  0.04584  0.04584
 0.07050  0.07050  0.07050
 0.09517  0.09517  0.09517
 0.11984  0.11984  0.11984
 0.14451  0.14451  0.14451
 0.16917  0.16917  0.16917
 0.19384  0.19384  0.19384
 0.21851  0.21851  0.21851
 0.24318  0.24318  0.24318
 0.26784  0.26784  0.26784
 0.29251  0.29251  0.29251
 0.00000  0.00000  0.00000
 0.00000  0.00000  0.00000
 0.00000  0.00000  0.00000
 0.02026  0.02026  0.02026
 0.04493  0.04493  0.04493
 0.06960  0.06960  0.06960
 0.09426  0.09426  0.09426
 0.11893  0.11893  0.11893
 0.14360  0.14360  0.14360
 0.16827  0.16827  0.16827
 0.19293  0.19293  0.19293
 0.21760  0.21760  0.21760
 0.24227  0.24227  0.24227
 0.26694  0.26694  0.26694
 0.29160  0.29160  0.29160
 0.31627  0.31627  0.31627
 0.34094  0.34094  0.34094
 0.00000  0.00000  0.00000
 0.01935  0.01935  0.01935
 0.04402  0.04402  0.04402
 0.06869  0.06869  0.06869
 0.09336  0.09336  0.09336
 0.11802  0.11802  0.11802
 0.14269  0.14269  0.14269
 0.16736  0.16736  0.16736
 0.19203  0.19203  0.19203
 0.21669  0.21669  0.21669
 0.24136  0.24136  0.24136
 0.26603  0.26603  0.26603
 0.29070  0.29070  0.29070
 0.31536  0.31536  0.31536
 0.34003  0.34003  0.34003
 0.36470  0.36470  0.36470
 0.38937  0.38937  0.38937
 0.04311  0.04311  0.04311
 0.06778  0.06778  0.06778
 0.09245  0.09245  0.09245
 0.11712  0.11712  0.11712
 0.14178  0.14178  0.14178
 0.16645  0.16645  0.16645
 0.19112  0.19112  0.19112
 0.21579  0.21579  0.21579
 0.24045  0.24045  0.24045
 0.26512  0.26512  0.26512
 0.28979  0.28979  0.28979
 0.31446  0.31446  0.31446
 0.33913  0.33913  0.33913
 0.36379  0.36379  0.36379
 0.38846  0.38846  0.38846
 0.41313  0.41313  0.41313
 0.43779  0.43779  0.43779
 0.09154  0.09154  0.09154
 0.11621  0.11621  0.11621
 0.14088  0.14088  0.14088
 0.16554  0.16554  0.16554
 0.19021  0.19021  0.19021
 0.21488  0.21488  0.21488
 0.23955  0.23955  0.23955
 0.26421  0.26421  0.26421
 0.28888  0.28888  0.28888
 0.31355  0.31355  0.31355
 0.33822  0.33822  0.33822
 0.36288  0.36288  0.36288
 0.38755  0.38755  0.38755
 0.41222  0.41222  0.41222
 0.43689  0.43689  0.43689
 0.46155  0.46155  0.46155
 0.48622  0.48622  0.48622
 0.13997  0.13997  0.13997
 0.16464  0.16464  0.16464
 0.18931  0.18931  0.18931
 0.21397  0.21397  0.21397
 0.23864  0.23864  0.23864
 0.26331  0.26331  0.26331
 0.28797  0.28797  0.28797
 0.31264  0.31264  0.31264
 0.33731  0.33731  0.33731
 0.36198  0.36198  0.36198
 0.38664  0.38664  0.38664
 0.41131  0.41131  0.41131
 0.43598  0.43598  0.43598
 0.46065  0.46065  0.46065
 0.48531  0.48531  0.48531
 0.50998  0.50998  0.50998
 0.53465  0.53465  0.53465
 0.18840  0.18840  0.18840
 0.21307  0.21307  0.21307
 0.23773  0.23773  0.23773
 0.26240  0.26240  0.26240
 0.28707  0.28707  0.28707
 0.31173  0.31173  0.31173
 0.33640  0.33640  0.33640
 0.36107  0.36107  0.36107
 0.38574  0.38574  0.38574
 0.41040  0.41040  0.41040
 0.43507  0.43507  0.43507
 0.45974  0.45974  0.45974
 0.48441  0.48441  0.48441
 0.50908  0.50908  0.50908
 0.53374  0.53374  0.53374
 0.55841  0.55841  0.55841
 0.58308  0.58308  0.58308
 0.23682  0.23682  0.23682
 0.26149  0.26149  0.26149
 0.28616  0.28616  0.28616
 0.31083  0.31083  0.31083
 0.33549  0.33549  0.33549
 0.36016  0.36016  0.36016
 0.38483  0.38483  0.38483
 0.40950  0.40950  0.40950
 0.43416  0.43416  0.43416
 0.45883  0.45883  0.45883
 0.48350  0.48350  0.48350
 0.50817  0.50817  0.50817
 0.53283  0.53283  0.53283
 0.55750  0.55750  0.55750
 0.58217  0.58217  0.58217
 0.60684  0.60684  0.60684
 0.63151  0.63151  0.63151
 0.28525  0.28525  0.28525
 0.30992  0.30992  0.30992
 0.33459  0.33459  0.33459
 0.35925  0.35925  0.35925
 0.38392  0.38392  0.38392
 0.40859  0.40859  0.40859
 0.43326  0.43326  0.43326
 0.45792  0.45792  0.45792
 0.48259  0.48259  0.48259
 0.50726  0.50726  0.50726
 0.53193  0.53193  0.53193
 0.55659  0.55659  0.55659
 0.58126  0.58126  0.58126
 0.60593  0.60593  0.60593
 0.63060  0.63060  0.63060
 0.65526  0.65526  0.65526
 0.67993  0.67993  0.67993
 0.33368  0.33368  0.33368
 0.35835  0.35835  0.35835
 0.38301  0.38301  0.38301
 0.40768  0.40768  0.40768
 0.43235  0.43235  0.43235
 0.45702  0.45702  0.45702
 0.48168  0.48168  0.48168
 0.50635  0.50635  0.50635
 0.53102  0.53102  0.53102
 0.55569  0.55569  0.55569
 0.58036  0.58036  0.58036
 0.60502  0.60502  0.60502
 0.62969  0.62969  0.62969
 0.65436  0.65436  0.65436
 0.67902  0.67902  0.67902
 0.70369  0.70369  0.70369
 0.72836  0.72836  0.72836
 0.38211  0.38211  0.38211
 0.40677  0.40677  0.40677
 0.43144  0.43144  0.43144
 0.45611  0.45611  0.45611
 0.48078  0.48078  0.48078
 0.50545  0.50545  0.50545
 0.53011  0.53011  0.53011
 0.55478  0.55478  0.55478
 0.57945  0.57945  0.57945
 0.60412  0.60412  0.60412
 0.62878  0.62878  0.62878
 0.65345  0.65345  0.65345
 0.67812  0.67812  0.67812
 0.70278  0.70278  0.70278
 0.72745  0.72745  0.72745
 0.75212  0.75212  0.75212
 0.77679  0.77679  0.77679
 0.43053  0.43053  0.43053
 0.45520  0.45520  0.45520
 0.47987  0.47987  0.47987
 0.50454  0.50454  0.50454
 0.52921  0.52921  0.52921
 0.55387  0.55387  0.55387
 0.57854  0.57854  0.57854
 0.60321  0.60321  0.60321
 0.62788  0.62788  0.62788
 0.65254  0.65254  0.65254
 0.67721  0.67721  0.67721
 0.70188  0.70188  0.70188
 0.72654  0.72654  0.72654
 0.75121  0.75121  0.75121
 0.77588  0.77588  0.77588
 0.80055  0.80055  0.80055
 0.82522  0.82522  0.82522
 0.47896  0.47896  0.47896
 0.50363  0.50363  0.50363
 0.52830  0.52830  0.52830
 0.55296  0.55296  0.55296
 0.57763  0.57763  0.57763
 0.60230  0.60230  0.60230
 0.62697  0.62697  0.62697
 0.65164  0.65164  0.65164
 0.67630  0.67630  0.67630
 0.70097  0.70097  0.70097
 0.72564  0.72564  0.72564
 0.75030  0.75030  0.75030
 0.77497  0.77497  0.77497
 0.79964  0.79964  0.79964
 0.82431  0.82431  0.82431
 0.84898  0.84898  0.84898
 0.87364  0.87364  0.87364
 0.52739  0.52739  0.52739
 0.55206  0.55206  0.55206
 0.57673  0.57673  0.57673
 0.60139  0.60139  0.60139
 0.62606  0.62606  0.62606
 0.65073  0.65073  0.65073
 0.67540  0.67540  0.67540
 0.70006  0.70006  0.70006
 0.72473  0.72473  0.72473
 0.74940  0.74940  0.74940
 0.77407  0.77407  0.77407
 0.79873  0.79873  0.79873
 0.82340  0.82340  0.82340
 0.84807  0.84807  0.84807
 0.87274  0.87274  0.87274
 0.89740  0.89740  0.89740
 0.92207  0.92207  0.92207
 0.57582  0.57582  0.57582
 0.60049  0.60049  0.60049
 0.62515  0.62515  0.62515
 0.64982  0.64982  0.64982
 0.67449  0.67449  0.67449
 0.69915  0.69915  0.69915
 0.72382  0.72382  0.72382
 0.74849  0.74849  0.74849
 0.77316  0.77316  0.77316
 0.79783  0.79783  0.79783
 0.82249  0.82249  0.82249
 0.84716  0.84716  0.84716
 0.87183  0.87183  0.87183
 0.89650  0.89650  0.89650
 0.92116  0.92116  0.92116
 0.94583  0.94583  0.94583
 0.97050  0.97050  0.97050
 0.62425  0.62425  0.62425
 0.64891  0.64891  0.64891
 0.67358  0.67358  0.67358
 0.69825  0.69825  0.69825
 0.72291  0.72291  0.72291
 0.74758  0.74758  0.74758
 0.77225  0.77225  0.77225
 0.79692  0.79692  0.79692
 0.82159  0.82159  0.82159
 0.84625  0.84625  0.84625
 0.87092  0.87092  0.87092
 0.89559  0.89559  0.89559
 0.92026  0.92026  0.92026
 0.94492  0.94492  0.94492
 0.96959  0.96959  0.96959
 0.99426  0.99426  0.99426
 1.00000  1.00000  1.00000
 0.00000  0.00000  0.00000
 0.00000  0.00000  0.00000
 0.00000  0.00000  0.00000
 0.00000  0.00000  0.00000
 0.00000  0.00000  0.00000
 0.00000  0.00000  0.00000
 0.00682  0.00682  0.00682
 0.03148  0.03148  0.03148
 0.05615  0.05615  0.05615
 0.08082  0.08082  0.08082
 0.10548  0.10548  0.10548
 0.13015  0.13015  0.13015
 0.15482  0.15482  0.15482
 0.17949  0.17949  0.17949
 0.20415  0.20415  0.20415
 0.22882  0.22882  0.22882
 0.25349  0.25349  0.25349
 0.00000  0.00000  0.00000
 0.00000  0.00000  0.00000
 0.00000  0.00000  0.00000
 0.00000  0.00000  0.00000
 0.00591  0.00591  0.00591
 0.03058  0.03058  0.03058
 0.05524  0.05524  0.05524
 0.07991  0.07991  0.07991
 0.10458  0.10458  0.10458
 0.12924  0.12924  0.12924
 0.15391  0.15391  0.15391
 0.17858  0.17858  0.17858
 0.20325  0.20325  0.20325
 0.22791  0.22791  0.22791
 0.25258  0.25258  0.25258
 0.27725  0.27725  0.27725
 0.30192  0.30192  0.30192
 0.00000  0.00000  0.00000
 0.00000  0.00000  0.00000
 0.00500  0.00500  0.00500
 0.02967  0.02967  0.02967
 0.05434  0.05434  0.05434
 0.07900  0.07900  0.07900
 0.10367  0.10367  0.10367
 0.12834  0.12834  0.12834
 0.15301  0.15301  0.15301
 0.17767  0.17767  0.17767
 0.20234  0.20234  0.20234
 0.22701  0.22701  0.22701
 0.25167  0.25167  0.25167
 0.27634  0.27634  0.27634
 0.30101  0.30101  0.30101
 0.32568  0.32568  0.32568
 0.35035  0.35035  0.35035
 0.00409  0.00409  0.00409
 0.02876  0.02876  0.02876
 0.05343  0.05343  0.05343
 0.07809  0.07809  0.07809
 0.10276  0.10276  0.10276
 0.12743  0.12743  0.12743
 0.15210  0.15210  0.15210
 0.17676  0.17676  0.17676
 0.20143  0.20143  0.20143
 0.22610  0.22610  0.22610
 0.25077  0.25077  0.25077
 0.27543  0.27543  0.27543
 0.30010  0.30010  0.30010
 0.32477  0.32477  0.32477
 0.34944  0.34944  0.34944
 0.37410  0.37410  0.37410
 0.39877  0.39877  0.39877
 0.05252  0.05252  0.05252
 0.07719  0.07719  0.07719
 0.10185  0.10185  0.10185
 0.12652  0.12652  0.12652
 0.15119  0.15119  0.15119
 0.17586  0.17586  0.17586
 0.20052  0.20052  0.20052
 0.22519  0.22519  0.22519
 0.24986  0.24986  0.24986
 0.27453  0.27453  0.27453
 0.29919  0.29919  0.29919
 0.32386  0.32386  0.32386
 0.34853  0.34853  0.34853
 0.37320  0.37320  0.37320
 0.39786  0.39786  0.39786
 0.42253  0.42253  0.42253
 0.44720  0.44720  0.44720
 0.10095  0.10095  0.10095
 0.12561  0.12561  0.12561
 0.15028  0.15028  0.15028
 0.17495  0.17495  0.17495
 0.19962  0.19962  0.19962
 0.22428  0.22428  0.22428
 0.24895  0.24895  0.24895
 0.27362  0.27362  0.27362
 0.29829  0.29829  0.29829
 0.32295  0.32295  0.32295
 0.34762  0.34762  0.34762
 0.37229  0.37229  0.37229
 0.39696  0.39696  0.39696
 0.42162  0.42162  0.42162
 0.44629  0.44629  0.44629
 0.47096  0.47096  0.47096
 0.49563  0.49563  0.49563
 0.14937  0.14937  0.14937
 0.17404  0.17404  0.17404
 0.19871  0.19871  0.19871
 0.22338  0.22338  0.22338
 0.24804  0.24804  0.24804
 0.27271  0.27271  0.27271
 0.29738  0.29738  0.29738
 0.32205  0.32205  0.32205
 0.34671  0.34671  0.34671
 0.37138  0.37138  0.37138
 0.39605  0.39605  0.39605
 0.42072  0.42072  0.42072
 0.44538  0.44538  0.44538
 0.47005  0.47005  0.47005
 0.49472  0.49472  0.49472
 0.51939  0.51939  0.51939
 0.54405  0.54405  0.54405
 0.19780  0.19780  0.19780
 0.22247  0.22247  0.22247
 0.24714  0.24714  0.24714
 0.27180  0.27180  0.27180
 0.29647  0.29647  0.29647
 0.32114  0.32114  0.32114
 0.34581  0.34581  0.34581
 0.37047  0.37047  0.37047
 0.39514  0.39514  0.39514
 0.41981  0.41981  0.41981
 0.44448  0.44448  0.44448
 0.46914  0.46914  0.46914
 0.49381  0.49381  0.49381
 0.51848  0.51848  0.51848
 0.54315  0.54315  0.54315
 0.56781  0.56781  0.56781
 0.59248  0.59248  0.59248
 0.24623  0.24623  0.24623
 0.27090  0.27090  0.27090
 0.29556  0.29556  0.29556
 0.32023  0.32023  0.32023
 0.34490  0.34490  0.34490
 0.36957  0.36957  0.36957
 0.39424  0.39424  0.39424
 0.41890  0.41890  0.41890
 0.44357  0.44357  0.44357
 0.46824  0.46824  0.46824
 0.49290  0.49290  0.49290
 0.51757  0.51757  0.51757
 0.54224  0.54224  0.54224
 0.56691  0.56691  0.56691
 0.59157  0.59157  0.59157
 0.61624  0.61624  0.61624
 0.64091  0.64091  0.64091
 0.29466  0.29466  0.29466
 0.31932  0.31932  0.31932
 0.34399  0.34399  0.34399
 0.36866  0.36866  0.36866
 0.39333  0.39333  0.39333
 0.41799  0.41799  0.41799
 0.44266  0.44266  0.44266
 0.46733  0.46733  0.46733
 0.49200  0.49200  0.49200
 0.51667  0.51667  0.51667
 0.54133  0.54133  0.54133
 0.56600  0.56600  0.56600
 0.59067  0.59067  0.59067
 0.61533  0.61533  0.61533
 0.64000  0.64000  0.64000
 0.66467  0.66467  0.66467
 0.68934  0.68934  0.68934
 0.34308  0.34308  0.34308
 0.36775  0.36775  0.36775
 0.39242  0.39242  0.39242
 0.41709  0.41709  0.41709
 0.44175  0.44175  0.44175
 0.46642  0.46642  0.46642
 0.49109  0.49109  0.49109
 0.51576  0.51576  0.51576
 0.54042  0.54042  0.54042
 0.56509  0.56509  0.56509
 0.58976  0.58976  0.58976
 0.61443  0.61443  0.61443
 0.63909  0.63909  0.63909
 0.66376  0.66376  0.66376
 0.68843  0.68843  0.68843
 0.71310  0.71310  0.71310
 0.73777  0.73777  0.73777
 0.39151  0.39151  0.39151
 0.41618  0.41618  0.41618
 0.44085  0.44085  0.44085
 0.46552  0.46552  0.46552
 0.49018  0.49018  0.49018
 0.51485  0.51485  0.51485
 0.53952  0.53952  0.53952
 0.56419  0.56419  0.56419
 0.58885  0.58885  0.58885
 0.61352  0.61352  0.61352
 0.63819  0.63819  0.63819
 0.66285  0.66285  0.66285
 0.68752  0.68752  0.68752
 0.71219  0.71219  0.71219
 0.73686  0.73686  0.73686
 0.76153  0.76153  0.76153
 0.78619  0.78619  0.78619
 0.43994  0.43994  0.43994
 0.46461  0.46461  0.46461
 0.48927  0.48927  0.48927
 0.51394  0.51394  0.51394
 0.53861  0.53861  0.53861
 0.56328  0.56328  0.56328
 0.58794  0.58794  0.58794
 0.61261  0.61261  0.61261
 0.63728  0.63728  0.63728
 0.66195  0.66195  0.66195
 0.68661  0.68661  0.68661
 0.71128  0.71128  0.71128
 0.73595  0.73595  0.73595
 0.76062  0.76062  0.76062
 0.78529  0.78529  0.78529
 0.80995  0.80995  0.80995
 0.83462  0.83462  0.83462
 0.48837  0.48837  0.48837
 0.51303  0.51303  0.51303
 0.53770  0.53770  0.53770
 0.56237  0.56237  0.56237
 0.58704  0.58704  0.58704
 0.61170  0.61170  0.61170
 0.63637  0.63637  0.63637
 0.66104  0.66104  0.66104
 0.68571  0.68571  0.68571
 0.71037  0.71037  0.71037
 0.73504  0.73504  0.73504
 0.75971  0.75971  0.75971
 0.78438  0.78438  0.78438
 0.80904  0.80904  0.80904
 0.83371  0.83371  0.83371
 0.85838  0.85838  0.85838
 0.88305  0.88305  0.88305
 0.53680  0.53680  0.53680
 0.56146  0.56146  0.56146
 0.58613  0.58613  0.58613
 0.61080  0.61080  0.61080
 0.63546  0.63546  0.63546
 0.66013  0.66013  0.66013
 0.68480  0.68480  0.68480
 0.70947  0.70947  0.70947
 0.73413  0.73413  0.73413
 0.75880  0.75880  0.75880
 0.78347  0.78347  0.78347
 0.80814  0.80814  0.80814
 0.83281  0.83281  0.83281
 0.85747  0.85747  0.85747
 0.88214  0.88214  0.88214
 0.90681  0.90681  0.90681
 0.93147  0.93147  0.93147
 0.58522  0.58522  0.58522
 0.60989  0.60989  0.60989
 0.63456  0.63456  0.63456
 0.65922  0.65922  0.65922
 0.68389  0.68389  0.68389
 0.70856  0.70856  0.70856
 0.73323  0.73323  0.73323
 0.75789  0.75789  0.75789
 0.78256  0.78256  0.78256
 0.80723  0.80723  0.80723
 0.83190  0.83190  0.83190
 0.85657  0.85657  0.85657
 0.88123  0.88123  0.88123
 0.90590  0.90590  0.90590
 0.93057  0.93057  0.93057
 0.95523  0.95523  0.95523
 0.97990  0.97990  0.97990
 0.63365  0.63365  0.63365
 0.65832  0.65832  0.65832
 0.68298  0.68298  0.68298
 0.70765  0.70765  0.70765
 0.73232  0.73232  0.73232
 0.75699  0.75699  0.75699
 0.78165  0.78165  0.78165
 0.80632  0.80632  0.80632
 0.83099  0.83099  0.83099
 0.85566  0.85566  0.85566
 0.88033  0.88033  0.88033
 0.90499  0.90499  0.90499
 0.92966  0.92966  0.92966
 0.95433  0.95433  0.95433
 0.97899  0.97899  0.97899
 1.00000  1.00000  1.00000
 1.00000  1.00000  1.00000
 0.00000  0.00000  0.00000
 0.00000  0.00000  0.00000
 0.00000  0.00000  0.00000
 0.00000  0.00000  0.00000
 0.00000  0.00000  0.00000
 0.00000  0.00000  0.00000
 0.01622  0.01622  0.01622
 0.04089  0.04089  0.04089
 0.06555  0.06555  0.06555
 0.09022  0.09022  0.09022
 0.11489  0.11489  0.11489
 0.13956  0.13956  0.13956
 0.16422  0.16422  0.16422
 0.18889  0.18889  0.18889
 0.21356  0.21356  0.21356
 0.23823  0.23823  0.23823
 0.26289  0.26289  0.26289
