src/assets/luts/ilford-hp5.cube
TITLE "Ilford HP5"
LUT_3D_SIZE 5
DOMAIN_MIN 0.0 0.0 0.0
DOMAIN_MAX 1.0 1.0 1.0
# LumEdit built-in LUT · 高反差黑白
 0.00000  0.00000  0.00000
 0.00000  0.00000  0.00000
 0.03734  0.03734  0.03734
 0.13601  0.13601  0.13601
 0.23468  0.23468  0.23468
 0.03371  0.03371  0.03371
 0.13238  0.13238  0.13238
 0.23105  0.23105  0.23105
 0.32972  0.32972  0.32972
 0.42839  0.42839  0.42839
 0.22742  0.22742  0.22742
 0.32609  0.32609  0.32609
 0.42476  0.42476  0.42476
 0.52343  0.52343  0.52343
 0.62210  0.62210  0.62210
 0.42113  0.42113  0.42113
 0.51980  0.51980  0.51980
 0.61847  0.61847  0.61847
 0.71714  0.71714  0.71714
 0.81581  0.81581  0.81581
 0.61484  0.61484  0.61484
 0.71351  0.71351  0.71351
 0.81218  0.81218  0.81218
 0.91085  0.91085  0.91085
 1.00000  1.00000  1.00000
 0.00000  0.00000  0.00000
 0.00000  0.00000  0.00000
 0.07496  0.07496  0.07496
 0.17363  0.17363  0.17363
 0.27230  0.27230  0.27230
 0.07133  0.07133  0.07133
 0.17000  0.17000  0.17000
 0.26867  0.26867  0.26867
 0.36734  0.36734  0.36734
 0.46601  0.46601  0.46601
 0.26504  0.26504  0.26504
 0.36371  0.36371  0.36371
 0.46238  0.46238  0.46238
 0.56105  0.56105  0.56105
 0.65972  0.65972  0.65972
 0.45875  0.45875  0.45875
 0.55742  0.55742  0.55742
 0.65609  0.65609  0.65609
 0.75476  0.75476  0.75476
 0.85343  0.85343  0.85343
 0.65246  0.65246  0.65246
 0.75113  0.75113  0.75113
 0.84980  0.84980  0.84980
 0.94847  0.94847  0.94847
 1.00000  1.00000  1.00000
 0.00000  0.00000  0.00000
 0.01391  0.01391  0.01391
 0.11258  0.11258  0.11258
 0.21125  0.21125  0.21125
 0.30992  0.30992  0.30992
 0.10895  0.10895  0.10895
 0.20762  0.20762  0.20762
 0.30629  0.30629  0.30629
 0.40496  0.40496  0.40496
 0.50363  0.50363  0.50363
 0.30266  0.30266  0.30266
 0.40133  0.40133  0.40133
 0.50000  0.50000  0.50000
 0.59867  0.59867  0.59867
 0.69734  0.69734  0.69734
 0.49637  0.49637  0.49637
 0.59504  0.59504  0.59504
 0.69371  0.69371  0.69371
 0.79238  0.79238  0.79238
 0.89105  0.89105  0.89105
 0.69008  0.69008  0.69008
 0.78875  0.78875  0.78875
 0.88742  0.88742  0.88742
 0.98609  0.98609  0.98609
 1.00000  1.00000  1.00000
 0.00000  0.00000  0.00000
 0.05153  0.05153  0.05153
 0.15020  0.15020  0.15020
 0.24887  0.24887  0.24887
 0.34754  0.34754  0.34754
 0.14657  0.14657  0.14657
 0.24524  0.24524  0.24524
 0.34391  0.34391  0.34391
 0.44258  0.44258  0.44258
 0.54125  0.54125  0.54125
 0.34028  0.34028  0.34028
 0.43895  0.43895  0.43895
 0.53762  0.53762  0.53762
 0.63629  0.63629  0.63629
 0.73496  0.73496  0.73496
 0.53399  0.53399  0.53399
 0.63266  0.63266  0.63266
 0.73133  0.73133  0.73133
 0.83000  0.83000  0.83000
 0.92867  0.92867  0.92867
 0.72770  0.72770  0.72770
 0.82637  0.82637  0.82637
 0.92504  0.92504  0.92504
 1.00000  1.00000  1.00000
 1.00000  1.00000  1.00000
 0.00000  0.00000  0.00000
 0.08915  0.08915  0.08915
 0.18782  0.18782  0.18782
 0.28649  0.28649  0.28649
 0.38516  0.38516  0.38516
 0.18419  0.18419  0.18419
 0.28286  0.28286  0.28286
 0.38153  0.38153  0.38153
 0.48020  0.48020  0.48020
 0.57887  0.57887  0.57887
 0.37790  0.37790  0.37790
 0.47657  0.47657  0.47657
 0.57524  0.57524  0.57524
 0.67391  0.67391  0.67391
 0.77258  0.77258  0.77258
 0.57161  0.57161  0.57161
 0.67028  0.67028  0.67028
 0.76895  0.76895  0.76895
 0.86762  0.86762  0.86762
 0.96629  0.96629  0.96629
 0.76532  0.76532  0.76532
 0.86399  0.86399  0.86399
 0.96266  0.96266  0.96266
 1.00000  1.00000  1.00000
 1.00000  1.00000  1.00000
