src/assets/luts/japanese-film.cube
TITLE "日系淡彩"
LUT_3D_SIZE 9
DOMAIN_MIN 0.0 0.0 0.0
DOMAIN_MAX 1.0 1.0 1.0
# LumEdit built-in LUT · 低对比清淡日系
 0.14650  0.13570  0.14650
 0.24060  0.13872  0.14952
 0.33471  0.14175  0.15255
 0.42881  0.14477  0.15557
 0.52292  0.14780  0.15860
 0.61702  0.15082  0.16162
 0.71113  0.15385  0.16465
 0.80524  0.15688  0.16768
 0.89934  0.15990  0.17070
 0.15244  0.23272  0.15244
 0.24654  0.23574  0.15546
 0.34065  0.23877  0.15849
 0.43475  0.24179  0.16151
 0.52886  0.24482  0.16454
 0.62297  0.24785  0.16757
 0.71707  0.25087  0.17059
 0.81118  0.25390  0.17362
 0.90528  0.25692  0.17664
 0.15838  0.32974  0.15838
 0.25248  0.33276  0.16140
 0.34659  0.33579  0.16443
 0.44069  0.33881  0.16745
 0.53480  0.34184  0.17048
 0.62891  0.34487  0.17351
 0.72301  0.34789  0.17653
 0.81712  0.35092  0.17956
 0.91122  0.35394  0.18258
 0.16432  0.42676  0.16432
 0.25842  0.42978  0.16734
 0.35253  0.43281  0.17037
 0.44663  0.43583  0.17339
 0.54074  0.43886  0.17642
 0.63485  0.44189  0.17945
 0.72895  0.44491  0.18247
 0.82306  0.44794  0.18550
 0.91716  0.45096  0.18852
 0.17026  0.52378  0.17026
 0.26436  0.52680  0.17328
 0.35847  0.52983  0.17631
 0.45258  0.53286  0.17933
 0.54668  0.53588  0.18236
 0.64079  0.53891  0.18539
 0.73489  0.54193  0.18841
 0.82900  0.54496  0.19144
 0.92310  0.54798  0.19446
 0.17620  0.62080  0.17620
 0.27030  0.62382  0.17922
 0.36441  0.62685  0.18225
 0.45852  0.62988  0.18528
 0.55262  0.63290  0.18830
 0.64673  0.63593  0.19133
 0.74083  0.63895  0.19435
 0.83494  0.64198  0.19738
 0.92904  0.64500  0.20040
 0.18214  0.71782  0.18214
 0.27624  0.72084  0.18516
 0.37035  0.72387  0.18819
 0.46446  0.72690  0.19122
 0.55856  0.72992  0.19424
 0.65267  0.73295  0.19727
 0.74677  0.73597  0.20029
 0.84088  0.73900  0.20332
 0.93499  0.74203  0.20635
 0.18808  0.81484  0.18808
 0.28218  0.81786  0.19110
 0.37629  0.82089  0.19413
 0.47040  0.82392  0.19716
 0.56450  0.82694  0.20018
 0.65861  0.82997  0.20321
 0.75271  0.83299  0.20623
 0.84682  0.83602  0.20926
 0.94093  0.83905  0.21229
 0.19402  0.91186  0.19402
 0.28813  0.91488  0.19704
 0.38223  0.91791  0.20007
 0.47634  0.92094  0.20310
 0.57044  0.92396  0.20612
 0.66455  0.92699  0.20915
 0.75865  0.93001  0.21217
 0.85276  0.93304  0.21520
 0.94687  0.93607  0.21823
 0.14765  0.13685  0.23873
 0.24176  0.13988  0.24176
 0.33586  0.14290  0.24478
 0.42997  0.14593  0.24781
 0.52407  0.14895  0.25083
 0.61818  0.15198  0.25386
 0.71228  0.15500  0.25688
 0.80639  0.15803  0.25991
 0.90050  0.16106  0.26294
 0.15359  0.23387  0.24467
 0.24770  0.23690  0.24770
 0.34180  0.23992  0.25072
 0.43591  0.24295  0.25375
 0.53001  0.24597  0.25677
 0.62412  0.24900  0.25980
 0.71822  0.25202  0.26282
 0.81233  0.25505  0.26585
 0.90644  0.25808  0.26888
 0.15953  0.33089  0.25061
 0.25364  0.33392  0.25364
 0.34774  0.33694  0.25666
 0.44185  0.33997  0.25969
 0.53595  0.34299  0.26271
 0.63006  0.34602  0.26574
 0.72417  0.34905  0.26877
 0.81827  0.35207  0.27179
 0.91238  0.35510  0.27482
 0.16547  0.42791  0.25655
 0.25958  0.43094  0.25958
 0.35368  0.43396  0.26260
 0.44779  0.43699  0.26563
 0.54189  0.44001  0.26865
 0.63600  0.44304  0.27168
 0.73011  0.44607  0.27471
 0.82421  0.44909  0.27773
 0.91832  0.45212  0.28076
 0.17141  0.52493  0.26249
 0.26552  0.52796  0.26552
 0.35962  0.53098  0.26854
 0.45373  0.53401  0.27157
 0.54783  0.53703  0.27459
 0.64194  0.54006  0.27762
 0.73605  0.54309  0.28065
 0.83015  0.54611  0.28367
 0.92426  0.54914  0.28670
 0.17735  0.62195  0.26843
 0.27146  0.62498  0.27146
 0.36556  0.62800  0.27448
 0.45967  0.63103  0.27751
 0.55378  0.63406  0.28053
 0.64788  0.63708  0.28356
 0.74199  0.64011  0.28659
 0.83609  0.64313  0.28961
 0.93020  0.64616  0.29264
 0.18329  0.71897  0.27437
 0.27740  0.72200  0.27740
 0.37150  0.72502  0.28042
 0.46561  0.72805  0.28345
 0.55972  0.73108  0.28648
 0.65382  0.73410  0.28950
 0.74793  0.73713  0.29253
 0.84203  0.74015  0.29555
 0.93614  0.74318  0.29858
 0.18923  0.81599  0.28031
 0.28334  0.81902  0.28334
 0.37744  0.82204  0.28636
 0.47155  0.82507  0.28939
 0.56566  0.82810  0.29242
 0.65976  0.83112  0.29544
 0.75387  0.83415  0.29847
 0.84797  0.83717  0.30149
 0.94208  0.84020  0.30452
 0.19517  0.91301  0.28625
 0.28928  0.91604  0.28928
 0.38338  0.91906  0.29230
 0.47749  0.92209  0.29533
 0.57160  0.92512  0.29836
 0.66570  0.92814  0.30138
 0.75981  0.93117  0.30441
 0.85391  0.93419  0.30743
 0.94802  0.93722  0.31046
 0.14880  0.13800  0.33096
 0.24291  0.14103  0.33399
 0.33701  0.14405  0.33701
 0.43112  0.14708  0.34004
 0.52523  0.15011  0.34307
 0.61933  0.15313  0.34609
 0.71344  0.15616  0.34912
 0.80754  0.15918  0.35214
 0.90165  0.16221  0.35517
 0.15474  0.23502  0.33690
 0.24885  0.23805  0.33993
 0.34296  0.24108  0.34296
 0.43706  0.24410  0.34598
 0.53117  0.24713  0.34901
 0.62527  0.25015  0.35203
 0.71938  0.25318  0.35506
 0.81348  0.25620  0.35808
 0.90759  0.25923  0.36111
 0.16068  0.33204  0.34284
 0.25479  0.33507  0.34587
 0.34890  0.33810  0.34890
 0.44300  0.34112  0.35192
 0.53711  0.34415  0.35495
 0.63121  0.34717  0.35797
 0.72532  0.35020  0.36100
 0.81943  0.35323  0.36403
 0.91353  0.35625  0.36705
 0.16662  0.42906  0.34878
 0.26073  0.43209  0.35181
 0.35484  0.43512  0.35484
 0.44894  0.43814  0.35786
 0.54305  0.44117  0.36089
 0.63715  0.44419  0.36391
 0.73126  0.44722  0.36694
 0.82537  0.45025  0.36997
 0.91947  0.45327  0.37299
 0.17256  0.52608  0.35472
 0.26667  0.52911  0.35775
 0.36078  0.53214  0.36078
 0.45488  0.53516  0.36380
 0.54899  0.53819  0.36683
 0.64309  0.54121  0.36985
 0.73720  0.54424  0.37288
 0.83131  0.54727  0.37591
 0.92541  0.55029  0.37893
 0.17851  0.62311  0.36067
 0.27261  0.62613  0.36369
 0.36672  0.62916  0.36672
 0.46082  0.63218  0.36974
 0.55493  0.63521  0.37277
 0.64903  0.63823  0.37579
 0.74314  0.64126  0.37882
 0.83725  0.64429  0.38185
 0.93135  0.64731  0.38487
 0.18445  0.72013  0.36661
 0.27855  0.72315  0.36963
 0.37266  0.72618  0.37266
 0.46676  0.72920  0.37568
 0.56087  0.73223  0.37871
 0.65497  0.73525  0.38174
 0.74908  0.73828  0.38476
 0.84319  0.74131  0.38779
 0.93729  0.74433  0.39081
 0.19039  0.81715  0.37255
 0.28449  0.82017  0.37557
 0.37860  0.82320  0.37860
 0.47270  0.82622  0.38162
 0.56681  0.82925  0.38465
 0.66092  0.83228  0.38768
 0.75502  0.83530  0.39070
 0.84913  0.83833  0.39373
 0.94323  0.84135  0.39675
 0.19633  0.91417  0.37849
 0.29043  0.91719  0.38151
 0.38454  0.92022  0.38454
 0.47864  0.92324  0.38756
 0.57275  0.92627  0.39059
 0.66686  0.92930  0.39362
 0.76096  0.93232  0.39664
 0.85507  0.93535  0.39967
 0.94917  0.93837  0.40269
 0.14996  0.13916  0.42320
 0.24406  0.14218  0.42622
 0.33817  0.14521  0.42925
 0.43227  0.14823  0.43227
 0.52638  0.15126  0.43530
 0.62049  0.15429  0.43833
 0.71459  0.15731  0.44135
 0.80870  0.16034  0.44438
 0.90280  0.16336  0.44740
 0.15590  0.23618  0.42914
 0.25000  0.23920  0.43216
 0.34411  0.24223  0.43519
 0.43821  0.24525  0.43821
 0.53232  0.24828  0.44124
 0.62643  0.25131  0.44427
 0.72053  0.25433  0.44729
 0.81464  0.25736  0.45032
 0.90874  0.26038  0.45334
 0.16184  0.33320  0.43508
 0.25594  0.33622  0.43810
 0.35005  0.33925  0.44113
 0.44416  0.34228  0.44416
 0.53826  0.34530  0.44718
 0.63237  0.34833  0.45021
 0.72647  0.35135  0.45323
 0.82058  0.35438  0.45626
 0.91468  0.35740  0.45928
 0.16778  0.43022  0.44102
 0.26188  0.43324  0.44404
 0.35599  0.43627  0.44707
 0.45010  0.43930  0.45010
 0.54420  0.44232  0.45312
 0.63831  0.44535  0.45615
 0.73241  0.44837  0.45917
 0.82652  0.45140  0.46220
 0.92063  0.45443  0.46522
 0.17372  0.52724  0.44696
 0.26782  0.53026  0.44998
 0.36193  0.53329  0.45301
 0.45604  0.53632  0.45604
 0.55014  0.53934  0.45906
 0.64425  0.54237  0.46209
 0.73835  0.54539  0.46511
 0.83246  0.54842  0.46814
 0.92657  0.55145  0.47117
 0.17966  0.62426  0.45290
 0.27376  0.62728  0.45592
 0.36787  0.63031  0.45895
 0.46198  0.63334  0.46198
 0.55608  0.63636  0.46500
 0.65019  0.63939  0.46803
 0.74429  0.64241  0.47105
 0.83840  0.64544  0.47408
 0.93251  0.64847  0.47711
 0.18560  0.72128  0.45884
 0.27971  0.72431  0.46187
 0.37381  0.72733  0.46489
 0.46792  0.73036  0.46792
 0.56202  0.73338  0.47094
 0.65613  0.73641  0.47397
 0.75023  0.73943  0.47699
 0.84434  0.74246  0.48002
 0.93845  0.74549  0.48305
 0.19154  0.81830  0.46478
 0.28565  0.82133  0.46781
 0.37975  0.82435  0.47083
 0.47386  0.82738  0.47386
 0.56796  0.83040  0.47688
 0.66207  0.83343  0.47991
 0.75617  0.83646  0.48294
 0.85028  0.83948  0.48596
 0.94439  0.84251  0.48899
 0.19748  0.91532  0.47072
 0.29159  0.91835  0.47375
 0.38569  0.92137  0.47677
 0.47980  0.92440  0.47980
 0.57390  0.92742  0.48282
 0.66801  0.93045  0.48585
 0.76212  0.93348  0.48888
 0.85622  0.93650  0.49190
 0.95033  0.93953  0.49493
 0.15111  0.14031  0.51543
 0.24522  0.14334  0.51846
 0.33932  0.14636  0.52148
 0.43343  0.14939  0.52451
 0.52753  0.15241  0.52753
 0.62164  0.15544  0.53056
 0.71575  0.15847  0.53359
 0.80985  0.16149  0.53661
 0.90396  0.16452  0.53964
 0.15705  0.23733  0.52137
 0.25116  0.24036  0.52440
 0.34526  0.24338  0.52742
 0.43937  0.24641  0.53045
 0.53347  0.24943  0.53347
 0.62758  0.25246  0.53650
 0.72169  0.25549  0.53953
 0.81579  0.25851  0.54255
 0.90990  0.26154  0.54558
 0.16299  0.33435  0.52731
 0.25710  0.33738  0.53034
 0.35120  0.34040  0.53336
 0.44531  0.34343  0.53639
 0.53941  0.34645  0.53941
 0.63352  0.34948  0.54244
 0.72763  0.35251  0.54547
 0.82173  0.35553  0.54849
 0.91584  0.35856  0.55152
 0.16893  0.43137  0.53325
 0.26304  0.43440  0.53628
 0.35714  0.43742  0.53930
 0.45125  0.44045  0.54233
 0.54536  0.44348  0.54536
 0.63946  0.44650  0.54838
 0.73357  0.44953  0.55141
 0.82767  0.45255  0.55443
 0.92178  0.45558  0.55746
 0.17487  0.52839  0.53919
 0.26898  0.53142  0.54222
 0.36308  0.53444  0.54524
 0.45719  0.53747  0.54827
 0.55130  0.54050  0.55130
 0.64540  0.54352  0.55432
 0.73951  0.54655  0.55735
 0.83361  0.54957  0.56037
 0.92772  0.55260  0.56340
 0.18081  0.62541  0.54513
 0.27492  0.62844  0.54816
 0.36902  0.63146  0.55118
 0.46313  0.63449  0.55421
 0.55724  0.63752  0.55724
 0.65134  0.64054  0.56026
 0.74545  0.64357  0.56329
 0.83955  0.64659  0.56631
 0.93366  0.64962  0.56934
 0.18675  0.72243  0.55107
 0.28086  0.72546  0.55410
 0.37496  0.72848  0.55712
 0.46907  0.73151  0.56015
 0.56318  0.73454  0.56318
 0.65728  0.73756  0.56620
 0.75139  0.74059  0.56923
 0.84549  0.74361  0.57225
 0.93960  0.74664  0.57528
 0.19269  0.81945  0.55701
 0.28680  0.82248  0.56004
 0.38091  0.82551  0.56307
 0.47501  0.82853  0.56609
 0.56912  0.83156  0.56912
 0.66322  0.83458  0.57214
 0.75733  0.83761  0.57517
 0.85143  0.84063  0.57819
 0.94554  0.84366  0.58122
 0.19863  0.91647  0.56295
 0.29274  0.91950  0.56598
 0.38685  0.92253  0.56901
 0.48095  0.92555  0.57203
 0.57506  0.92858  0.57506
 0.66916  0.93160  0.57808
 0.76327  0.93463  0.58111
 0.85737  0.93766  0.58414
 0.95148  0.94068  0.58716
 0.15226  0.14146  0.60766
 0.24637  0.14449  0.61069
 0.34048  0.14752  0.61372
 0.43458  0.15054  0.61674
 0.52869  0.15357  0.61977
 0.62279  0.15659  0.62279
 0.71690  0.15962  0.62582
 0.81101  0.16265  0.62885
 0.90511  0.16567  0.63187
 0.15820  0.23848  0.61360
 0.25231  0.24151  0.61663
 0.34642  0.24454  0.61966
 0.44052  0.24756  0.62268
 0.53463  0.25059  0.62571
 0.62873  0.25361  0.62873
 0.72284  0.25664  0.63176
 0.81695  0.25967  0.63479
 0.91105  0.26269  0.63781
 0.16414  0.33550  0.61954
 0.25825  0.33853  0.62257
 0.35236  0.34156  0.62560
 0.44646  0.34458  0.62862
 0.54057  0.34761  0.63165
 0.63467  0.35063  0.63467
 0.72878  0.35366  0.63770
 0.82289  0.35669  0.64073
 0.91699  0.35971  0.64375
 0.17009  0.43253  0.62549
 0.26419  0.43555  0.62851
 0.35830  0.43858  0.63154
 0.45240  0.44160  0.63456
 0.54651  0.44463  0.63759
 0.64061  0.44765  0.64061
 0.73472  0.45068  0.64364
 0.82883  0.45371  0.64667
 0.92293  0.45673  0.64969
 0.17603  0.52955  0.63143
 0.27013  0.53257  0.63445
 0.36424  0.53560  0.63748
 0.45834  0.53862  0.64050
 0.55245  0.54165  0.64353
 0.64656  0.54468  0.64656
 0.74066  0.54770  0.64958
 0.83477  0.55073  0.65261
 0.92887  0.55375  0.65563
 0.18197  0.62657  0.63737
 0.27607  0.62959  0.64039
 0.37018  0.63262  0.64342
 0.46428  0.63564  0.64644
 0.55839  0.63867  0.64947
 0.65250  0.64170  0.65250
 0.74660  0.64472  0.65552
 0.84071  0.64775  0.65855
 0.93481  0.65077  0.66157
 0.18791  0.72359  0.64331
 0.28201  0.72661  0.64633
 0.37612  0.72964  0.64936
 0.47022  0.73266  0.65238
 0.56433  0.73569  0.65541
 0.65844  0.73872  0.65844
 0.75254  0.74174  0.66146
 0.84665  0.74477  0.66449
 0.94075  0.74779  0.66751
 0.19385  0.82061  0.64925
 0.28795  0.82363  0.65227
 0.38206  0.82666  0.65530
 0.47616  0.82968  0.65832
 0.57027  0.83271  0.66135
 0.66438  0.83574  0.66438
 0.75848  0.83876  0.66740
 0.85259  0.84179  0.67043
 0.94669  0.84481  0.67345
 0.19979  0.91763  0.65519
 0.29389  0.92065  0.65821
 0.38800  0.92368  0.66124
 0.48211  0.92671  0.66427
 0.57621  0.92973  0.66729
 0.67032  0.93276  0.67032
 0.76442  0.93578  0.67334
 0.85853  0.93881  0.67637
 0.95263  0.94183  0.67939
 0.15342  0.14262  0.69990
 0.24752  0.14564  0.70292
 0.34163  0.14867  0.70595
 0.43574  0.15170  0.70898
 0.52984  0.15472  0.71200
 0.62395  0.15775  0.71503
 0.71805  0.16077  0.71805
 0.81216  0.16380  0.72108
 0.90626  0.16682  0.72410
 0.15936  0.23964  0.70584
 0.25346  0.24266  0.70886
 0.34757  0.24569  0.71189
 0.44168  0.24872  0.71492
 0.53578  0.25174  0.71794
 0.62989  0.25477  0.72097
 0.72399  0.25779  0.72399
 0.81810  0.26082  0.72702
 0.91221  0.26385  0.73005
 0.16530  0.33666  0.71178
 0.25940  0.33968  0.71480
 0.35351  0.34271  0.71783
 0.44762  0.34574  0.72086
 0.54172  0.34876  0.72388
 0.63583  0.35179  0.72691
 0.72993  0.35481  0.72993
 0.82404  0.35784  0.73296
 0.91815  0.36087  0.73599
 0.17124  0.43368  0.71772
 0.26534  0.43670  0.72074
 0.35945  0.43973  0.72377
 0.45356  0.44276  0.72680
 0.54766  0.44578  0.72982
 0.64177  0.44881  0.73285
 0.73587  0.45183  0.73587
 0.82998  0.45486  0.73890
 0.92409  0.45789  0.74193
 0.17718  0.53070  0.72366
 0.27129  0.53373  0.72669
 0.36539  0.53675  0.72971
 0.45950  0.53978  0.73274
 0.55360  0.54280  0.73576
 0.64771  0.54583  0.73879
 0.74181  0.54885  0.74181
 0.83592  0.55188  0.74484
 0.93003  0.55491  0.74787
 0.18312  0.62772  0.72960
 0.27723  0.63075  0.73263
 0.37133  0.63377  0.73565
 0.46544  0.63680  0.73868
 0.55954  0.63982  0.74170
 0.65365  0.64285  0.74473
 0.74776  0.64588  0.74776
 0.84186  0.64890  0.75078
 0.93597  0.65193  0.75381
 0.18906  0.72474  0.73554
 0.28317  0.72777  0.73857
 0.37727  0.73079  0.74159
 0.47138  0.73382  0.74462
 0.56548  0.73684  0.74764
 0.65959  0.73987  0.75067
 0.75370  0.74290  0.75370
 0.84780  0.74592  0.75672
 0.94191  0.74895  0.75975
 0.19500  0.82176  0.74148
 0.28911  0.82479  0.74451
 0.38321  0.82781  0.74753
 0.47732  0.83084  0.75056
 0.57142  0.83386  0.75358
 0.66553  0.83689  0.75661
 0.75964  0.83992  0.75964
 0.85374  0.84294  0.76266
 0.94785  0.84597  0.76569
 0.20094  0.91878  0.74742
 0.29505  0.92181  0.75045
 0.38915  0.92483  0.75347
 0.48326  0.92786  0.75650
 0.57736  0.93088  0.75952
 0.67147  0.93391  0.76255
 0.76558  0.93694  0.76558
 0.85968  0.93996  0.76860
 0.95379  0.94299  0.77163
 0.15457  0.14377  0.79213
 0.24868  0.14680  0.79516
 0.34278  0.14982  0.79818
 0.43689  0.15285  0.80121
 0.53099  0.15587  0.80423
 0.62510  0.15890  0.80726
 0.71921  0.16193  0.81029
 0.81331  0.16495  0.81331
 0.90742  0.16798  0.81634
 0.16051  0.24079  0.79807
 0.25462  0.24382  0.80110
 0.34872  0.24684  0.80412
 0.44283  0.24987  0.80715
 0.53694  0.25290  0.81018
 0.63104  0.25592  0.81320
 0.72515  0.25895  0.81623
 0.81925  0.26197  0.81925
 0.91336  0.26500  0.82228
 0.16645  0.33781  0.80401
 0.26056  0.34084  0.80704
 0.35466  0.34386  0.81006
 0.44877  0.34689  0.81309
 0.54288  0.34992  0.81612
 0.63698  0.35294  0.81914
 0.73109  0.35597  0.82217
 0.82519  0.35899  0.82519
 0.91930  0.36202  0.82822
 0.17239  0.43483  0.80995
 0.26650  0.43786  0.81298
 0.36060  0.44088  0.81600
 0.45471  0.44391  0.81903
 0.54882  0.44694  0.82206
 0.64292  0.44996  0.82508
 0.73703  0.45299  0.82811
 0.83113  0.45601  0.83113
 0.92524  0.45904  0.83416
 0.17833  0.53185  0.81589
 0.27244  0.53488  0.81892
 0.36654  0.53790  0.82194
 0.46065  0.54093  0.82497
 0.55476  0.54396  0.82800
 0.64886  0.54698  0.83102
 0.74297  0.55001  0.83405
 0.83707  0.55303  0.83707
 0.93118  0.55606  0.84010
 0.18427  0.62887  0.82183
 0.27838  0.63190  0.82486
 0.37249  0.63493  0.82789
 0.46659  0.63795  0.83091
 0.56070  0.64098  0.83394
 0.65480  0.64400  0.83696
 0.74891  0.64703  0.83999
 0.84301  0.65005  0.84301
 0.93712  0.65308  0.84604
 0.19021  0.72589  0.82777
 0.28432  0.72892  0.83080
 0.37843  0.73195  0.83383
 0.47253  0.73497  0.83685
 0.56664  0.73800  0.83988
 0.66074  0.74102  0.84290
 0.75485  0.74405  0.84593
 0.84896  0.74708  0.84896
 0.94306  0.75010  0.85198
 0.19615  0.82291  0.83371
 0.29026  0.82594  0.83674
 0.38437  0.82897  0.83977
 0.47847  0.83199  0.84279
 0.57258  0.83502  0.84582
 0.66668  0.83804  0.84884
 0.76079  0.84107  0.85187
 0.85490  0.84410  0.85490
 0.94900  0.84712  0.85792
 0.20209  0.91993  0.83965
 0.29620  0.92296  0.84268
 0.39031  0.92599  0.84571
 0.48441  0.92901  0.84873
 0.57852  0.93204  0.85176
 0.67262  0.93506  0.85478
 0.76673  0.93809  0.85781
 0.86084  0.94112  0.86084
 0.95494  0.94414  0.86386
 0.15573  0.14493  0.88437
 0.24983  0.14795  0.88739
 0.34394  0.15098  0.89042
 0.43804  0.15400  0.89344
 0.53215  0.15703  0.89647
 0.62625  0.16005  0.89949
 0.72036  0.16308  0.90252
 0.81447  0.16611  0.90555
 0.90857  0.16913  0.90857
 0.16167  0.24195  0.89031
 0.25577  0.24497  0.89333
 0.34988  0.24800  0.89636
 0.44398  0.25102  0.89938
 0.53809  0.25405  0.90241
 0.63219  0.25707  0.90543
 0.72630  0.26010  0.90846
 0.82041  0.26313  0.91149
 0.91451  0.26615  0.91451
 0.16761  0.33897  0.89625
 0.26171  0.34199  0.89927
 0.35582  0.34502  0.90230
 0.44992  0.34804  0.90532
 0.54403  0.35107  0.90835
 0.63814  0.35410  0.91138
 0.73224  0.35712  0.91440
 0.82635  0.36015  0.91743
 0.92045  0.36317  0.92045
 0.17355  0.43599  0.90219
 0.26765  0.43901  0.90521
 0.36176  0.44204  0.90824
 0.45586  0.44506  0.91126
 0.54997  0.44809  0.91429
 0.64408  0.45112  0.91732
 0.73818  0.45414  0.92034
 0.83229  0.45717  0.92337
 0.92639  0.46019  0.92639
 0.17949  0.53301  0.90813
 0.27359  0.53603  0.91115
 0.36770  0.53906  0.91418
 0.46180  0.54208  0.91720
 0.55591  0.54511  0.92023
 0.65002  0.54814  0.92326
 0.74412  0.55116  0.92628
 0.83823  0.55419  0.92931
 0.93233  0.55721  0.93233
 0.18543  0.63003  0.91407
 0.27953  0.63305  0.91709
 0.37364  0.63608  0.92012
 0.46774  0.63910  0.92314
 0.56185  0.64213  0.92617
 0.65596  0.64516  0.92920
 0.75006  0.64818  0.93222
 0.84417  0.65121  0.93525
 0.93827  0.65423  0.93827
 0.19137  0.72705  0.92001
 0.28547  0.73007  0.92303
 0.37958  0.73310  0.92606
 0.47369  0.73613  0.92909
 0.56779  0.73915  0.93211
 0.66190  0.74218  0.93514
 0.75600  0.74520  0.93816
 0.85011  0.74823  0.94119
 0.94421  0.75125  0.94421
 0.19731  0.82407  0.92595
 0.29141  0.82709  0.92897
 0.38552  0.83012  0.93200
 0.47963  0.83315  0.93503
 0.57373  0.83617  0.93805
 0.66784  0.83920  0.94108
 0.76194  0.84222  0.94410
 0.85605  0.84525  0.94713
 0.95016  0.84828  0.95016
 0.20325  0.92109  0.93189
 0.29735  0.92411  0.93491
 0.39146  0.92714  0.93794
 0.48557  0.93017  0.94097
 0.57967  0.93319  0.94399
 0.67378  0.93622  0.94702
 0.76788  0.93924  0.95004
 0.86199  0.94227  0.95307
 0.95610  0.94530  0.95610
