src/assets/luts/japanese-film.cube
TITLE "日系淡彩"
LUT_3D_SIZE 17
DOMAIN_MIN 0.0 0.0 0.0
DOMAIN_MAX 1.0 1.0 1.0
# LumEdit built-in LUT · 低对比清淡日系
 0.14650  0.13570  0.14650
 0.19355  0.13721  0.14801
 0.24060  0.13872  0.14952
 0.28765  0.14023  0.15103
 0.33471  0.14175  0.15255
 0.38176  0.14326  0.15406
 0.42881  0.14477  0.15557
 0.47587  0.14629  0.15709
 0.52292  0.14780  0.15860
 0.56997  0.14931  0.16011
 0.61702  0.15082  0.16162
 0.66408  0.15234  0.16314
 0.71113  0.15385  0.16465
 0.75818  0.15536  0.16616
 0.80524  0.15688  0.16768
 0.85229  0.15839  0.16919
 0.89934  0.15990  0.17070
 0.14947  0.18421  0.14947
 0.19652  0.18572  0.15098
 0.24357  0.18723  0.15249
 0.29062  0.18874  0.15400
 0.33768  0.19026  0.15552
 0.38473  0.19177  0.15703
 0.43178  0.19328  0.15854
 0.47884  0.19480  0.16006
 0.52589  0.19631  0.16157
 0.57294  0.19782  0.16308
 0.62000  0.19934  0.16460
 0.66705  0.20085  0.16611
 0.71410  0.20236  0.16762
 0.76115  0.20387  0.16913
 0.80821  0.20539  0.17065
 0.85526  0.20690  0.17216
 0.90231  0.20841  0.17367
 0.15244  0.23272  0.15244
 0.19949  0.23423  0.15395
 0.24654  0.23574  0.15546
 0.29359  0.23725  0.15697
 0.34065  0.23877  0.15849
 0.38770  0.24028  0.16000
 0.43475  0.24179  0.16151
 0.48181  0.24331  0.16303
 0.52886  0.24482  0.16454
 0.57591  0.24633  0.16605
 0.62297  0.24785  0.16757
 0.67002  0.24936  0.16908
 0.71707  0.25087  0.17059
 0.76412  0.25238  0.17210
 0.81118  0.25390  0.17362
 0.85823  0.25541  0.17513
 0.90528  0.25692  0.17664
 0.15541  0.28123  0.15541
 0.20246  0.28274  0.15692
 0.24951  0.28425  0.15843
 0.29657  0.28577  0.15995
 0.34362  0.28728  0.16146
 0.39067  0.28879  0.16297
 0.43772  0.29030  0.16448
 0.48478  0.29182  0.16600
 0.53183  0.29333  0.16751
 0.57888  0.29484  0.16902
 0.62594  0.29636  0.17054
 0.67299  0.29787  0.17205
 0.72004  0.29938  0.17356
 0.76709  0.30089  0.17507
 0.81415  0.30241  0.17659
 0.86120  0.30392  0.17810
 0.90825  0.30543  0.17961
 0.15838  0.32974  0.15838
 0.20543  0.33125  0.15989
 0.25248  0.33276  0.16140
 0.29954  0.33428  0.16292
 0.34659  0.33579  0.16443
 0.39364  0.33730  0.16594
 0.44069  0.33881  0.16745
 0.48775  0.34033  0.16897
 0.53480  0.34184  0.17048
 0.58185  0.34335  0.17199
 0.62891  0.34487  0.17351
 0.67596  0.34638  0.17502
 0.72301  0.34789  0.17653
 0.77006  0.34940  0.17804
 0.81712  0.35092  0.17956
 0.86417  0.35243  0.18107
 0.91122  0.35394  0.18258
 0.16135  0.37825  0.16135
 0.20840  0.37976  0.16286
 0.25545  0.38127  0.16437
 0.30251  0.38279  0.16589
 0.34956  0.38430  0.16740
 0.39661  0.38581  0.16891
 0.44366  0.38732  0.17042
 0.49072  0.38884  0.17194
 0.53777  0.39035  0.17345
 0.58482  0.39186  0.17496
 0.63188  0.39338  0.17648
 0.67893  0.39489  0.17799
 0.72598  0.39640  0.17950
 0.77303  0.39791  0.18101
 0.82009  0.39943  0.18253
 0.86714  0.40094  0.18404
 0.91419  0.40245  0.18555
 0.16432  0.42676  0.16432
 0.21137  0.42827  0.16583
 0.25842  0.42978  0.16734
 0.30548  0.43130  0.16886
 0.35253  0.43281  0.17037
 0.39958  0.43432  0.17188
 0.44663  0.43583  0.17339
 0.49369  0.43735  0.17491
 0.54074  0.43886  0.17642
 0.58779  0.44037  0.17793
 0.63485  0.44189  0.17945
 0.68190  0.44340  0.18096
 0.72895  0.44491  0.18247
 0.77601  0.44643  0.18399
 0.82306  0.44794  0.18550
 0.87011  0.44945  0.18701
 0.91716  0.45096  0.18852
 0.16729  0.47527  0.16729
 0.21434  0.47678  0.16880
 0.26139  0.47829  0.17031
 0.30845  0.47981  0.17183
 0.35550  0.48132  0.17334
 0.40255  0.48283  0.17485
 0.44960  0.48434  0.17636
 0.49666  0.48586  0.17788
 0.54371  0.48737  0.17939
 0.59076  0.48888  0.18090
 0.63782  0.49040  0.18242
 0.68487  0.49191  0.18393
 0.73192  0.49342  0.18544
 0.77898  0.49494  0.18696
 0.82603  0.49645  0.18847
 0.87308  0.49796  0.18998
 0.92013  0.49947  0.19149
 0.17026  0.52378  0.17026
 0.21731  0.52529  0.17177
 0.26436  0.52680  0.17328
 0.31142  0.52832  0.17480
 0.35847  0.52983  0.17631
 0.40552  0.53134  0.17782
 0.45258  0.53286  0.17933
 0.49963  0.53437  0.18085
 0.54668  0.53588  0.18236
 0.59373  0.53739  0.18387
 0.64079  0.53891  0.18539
 0.68784  0.54042  0.18690
 0.73489  0.54193  0.18841
 0.78195  0.54345  0.18993
 0.82900  0.54496  0.19144
 0.87605  0.54647  0.19295
 0.92310  0.54798  0.19446
 0.17323  0.57229  0.17323
 0.22028  0.57380  0.17474
 0.26733  0.57531  0.17625
 0.31439  0.57683  0.17777
 0.36144  0.57834  0.17928
 0.40849  0.57985  0.18079
 0.45555  0.58137  0.18231
 0.50260  0.58288  0.18382
 0.54965  0.58439  0.18533
 0.59670  0.58590  0.18684
 0.64376  0.58742  0.18836
 0.69081  0.58893  0.18987
 0.73786  0.59044  0.19138
 0.78492  0.59196  0.19290
 0.83197  0.59347  0.19441
 0.87902  0.59498  0.19592
 0.92607  0.59649  0.19743
 0.17620  0.62080  0.17620
 0.22325  0.62231  0.17771
 0.27030  0.62382  0.17922
 0.31736  0.62534  0.18074
 0.36441  0.62685  0.18225
 0.41146  0.62836  0.18376
 0.45852  0.62988  0.18528
 0.50557  0.63139  0.18679
 0.55262  0.63290  0.18830
 0.59967  0.63441  0.18981
 0.64673  0.63593  0.19133
 0.69378  0.63744  0.19284
 0.74083  0.63895  0.19435
 0.78789  0.64047  0.19587
 0.83494  0.64198  0.19738
 0.88199  0.64349  0.19889
 0.92904  0.64500  0.20040
 0.17917  0.66931  0.17917
 0.22622  0.67082  0.18068
 0.27327  0.67233  0.18219
 0.32033  0.67385  0.18371
 0.36738  0.67536  0.18522
 0.41443  0.67687  0.18673
 0.46149  0.67839  0.18825
 0.50854  0.67990  0.18976
 0.55559  0.68141  0.19127
 0.60264  0.68292  0.19278
 0.64970  0.68444  0.19430
 0.69675  0.68595  0.19581
 0.74380  0.68746  0.19732
 0.79086  0.68898  0.19884
 0.83791  0.69049  0.20035
 0.88496  0.69200  0.20186
 0.93202  0.69352  0.20338
 0.18214  0.71782  0.18214
 0.22919  0.71933  0.18365
 0.27624  0.72084  0.18516
 0.32330  0.72236  0.18668
 0.37035  0.72387  0.18819
 0.41740  0.72538  0.18970
 0.46446  0.72690  0.19122
 0.51151  0.72841  0.19273
 0.55856  0.72992  0.19424
 0.60561  0.73143  0.19575
 0.65267  0.73295  0.19727
 0.69972  0.73446  0.19878
 0.74677  0.73597  0.20029
 0.79383  0.73749  0.20181
 0.84088  0.73900  0.20332
 0.88793  0.74051  0.20483
 0.93499  0.74203  0.20635
 0.18511  0.76633  0.18511
 0.23216  0.76784  0.18662
 0.27921  0.76935  0.18813
 0.32627  0.77087  0.18965
 0.37332  0.77238  0.19116
 0.42037  0.77389  0.19267
 0.46743  0.77541  0.19419
 0.51448  0.77692  0.19570
 0.56153  0.77843  0.19721
 0.60858  0.77994  0.19872
 0.65564  0.78146  0.20024
 0.70269  0.78297  0.20175
 0.74974  0.78448  0.20326
 0.79680  0.78600  0.20478
 0.84385  0.78751  0.20629
 0.89090  0.78902  0.20780
 0.93796  0.79054  0.20932
 0.18808  0.81484  0.18808
 0.23513  0.81635  0.18959
 0.28218  0.81786  0.19110
 0.32924  0.81938  0.19262
 0.37629  0.82089  0.19413
 0.42334  0.82240  0.19564
 0.47040  0.82392  0.19716
 0.51745  0.82543  0.19867
 0.56450  0.82694  0.20018
 0.61156  0.82846  0.20170
 0.65861  0.82997  0.20321
 0.70566  0.83148  0.20472
 0.75271  0.83299  0.20623
 0.79977  0.83451  0.20775
 0.84682  0.83602  0.20926
 0.89387  0.83753  0.21077
 0.94093  0.83905  0.21229
 0.19105  0.86335  0.19105
 0.23810  0.86486  0.19256
 0.28515  0.86637  0.19407
 0.33221  0.86789  0.19559
 0.37926  0.86940  0.19710
 0.42631  0.87091  0.19861
 0.47337  0.87243  0.20013
 0.52042  0.87394  0.20164
 0.56747  0.87545  0.20315
 0.61453  0.87697  0.20467
 0.66158  0.87848  0.20618
 0.70863  0.87999  0.20769
 0.75568  0.88150  0.20920
 0.80274  0.88302  0.21072
 0.84979  0.88453  0.21223
 0.89684  0.88604  0.21374
 0.94390  0.88756  0.21526
 0.19402  0.91186  0.19402
 0.24107  0.91337  0.19553
 0.28813  0.91488  0.19704
 0.33518  0.91640  0.19856
 0.38223  0.91791  0.20007
 0.42928  0.91942  0.20158
 0.47634  0.92094  0.20310
 0.52339  0.92245  0.20461
 0.57044  0.92396  0.20612
 0.61750  0.92548  0.20764
 0.66455  0.92699  0.20915
 0.71160  0.92850  0.21066
 0.75865  0.93001  0.21217
 0.80571  0.93153  0.21369
 0.85276  0.93304  0.21520
 0.89981  0.93455  0.21671
 0.94687  0.93607  0.21823
 0.14707  0.13627  0.19261
 0.19413  0.13779  0.19413
 0.24118  0.13930  0.19564
 0.28823  0.14081  0.19715
 0.33528  0.14232  0.19866
 0.38234  0.14384  0.20018
 0.42939  0.14535  0.20169
 0.47644  0.14686  0.20320
 0.52350  0.14838  0.20472
 0.57055  0.14989  0.20623
 0.61760  0.15140  0.20774
 0.66465  0.15291  0.20925
 0.71171  0.15443  0.21077
 0.75876  0.15594  0.21228
 0.80581  0.15745  0.21379
 0.85287  0.15897  0.21531
 0.89992  0.16048  0.21682
 0.15004  0.18478  0.19558
 0.19710  0.18630  0.19710
 0.24415  0.18781  0.19861
 0.29120  0.18932  0.20012
 0.33825  0.19083  0.20163
 0.38531  0.19235  0.20315
 0.43236  0.19386  0.20466
 0.47941  0.19537  0.20617
 0.52647  0.19689  0.20769
 0.57352  0.19840  0.20920
 0.62057  0.19991  0.21071
 0.66762  0.20142  0.21222
 0.71468  0.20294  0.21374
 0.76173  0.20445  0.21525
 0.80878  0.20596  0.21676
 0.85584  0.20748  0.21828
 0.90289  0.20899  0.21979
 0.15301  0.23329  0.19855
 0.20007  0.23481  0.20007
 0.24712  0.23632  0.20158
 0.29417  0.23783  0.20309
 0.34122  0.23934  0.20460
 0.38828  0.24086  0.20612
 0.43533  0.24237  0.20763
 0.48238  0.24388  0.20914
 0.52944  0.24540  0.21066
 0.57649  0.24691  0.21217
 0.62354  0.24842  0.21368
 0.67060  0.24994  0.21520
 0.71765  0.25145  0.21671
 0.76470  0.25296  0.21822
 0.81175  0.25447  0.21973
 0.85881  0.25599  0.22125
 0.90586  0.25750  0.22276
 0.15598  0.28180  0.20152
 0.20304  0.28332  0.20304
 0.25009  0.28483  0.20455
 0.29714  0.28634  0.20606
 0.34419  0.28785  0.20757
 0.39125  0.28937  0.20909
 0.43830  0.29088  0.21060
 0.48535  0.29239  0.21211
 0.53241  0.29391  0.21363
 0.57946  0.29542  0.21514
 0.62651  0.29693  0.21665
 0.67357  0.29845  0.21817
 0.72062  0.29996  0.21968
 0.76767  0.30147  0.22119
 0.81472  0.30298  0.22270
 0.86178  0.30450  0.22422
 0.90883  0.30601  0.22573
 0.15895  0.33031  0.20449
 0.20601  0.33183  0.20601
 0.25306  0.33334  0.20752
 0.30011  0.33485  0.20903
 0.34717  0.33637  0.21055
 0.39422  0.33788  0.21206
 0.44127  0.33939  0.21357
 0.48832  0.34090  0.21508
 0.53538  0.34242  0.21660
 0.58243  0.34393  0.21811
 0.62948  0.34544  0.21962
 0.67654  0.34696  0.22114
 0.72359  0.34847  0.22265
 0.77064  0.34998  0.22416
 0.81769  0.35149  0.22567
 0.86475  0.35301  0.22719
 0.91180  0.35452  0.22870
 0.16192  0.37882  0.20746
 0.20898  0.38034  0.20898
 0.25603  0.38185  0.21049
 0.30308  0.38336  0.21200
 0.35014  0.38488  0.21352
 0.39719  0.38639  0.21503
 0.44424  0.38790  0.21654
 0.49129  0.38941  0.21805
 0.53835  0.39093  0.21957
 0.58540  0.39244  0.22108
 0.63245  0.39395  0.22259
 0.67951  0.39547  0.22411
 0.72656  0.39698  0.22562
 0.77361  0.39849  0.22713
 0.82066  0.40000  0.22864
 0.86772  0.40152  0.23016
 0.91477  0.40303  0.23167
 0.16489  0.42733  0.21043
 0.21195  0.42885  0.21195
 0.25900  0.43036  0.21346
 0.30605  0.43187  0.21497
 0.35311  0.43339  0.21649
 0.40016  0.43490  0.21800
 0.44721  0.43641  0.21951
 0.49426  0.43792  0.22102
 0.54132  0.43944  0.22254
 0.58837  0.44095  0.22405
 0.63542  0.44246  0.22556
 0.68248  0.44398  0.22708
 0.72953  0.44549  0.22859
 0.77658  0.44700  0.23010
 0.82363  0.44851  0.23161
 0.87069  0.45003  0.23313
 0.91774  0.45154  0.23464
 0.16786  0.47584  0.21340
 0.21492  0.47736  0.21492
 0.26197  0.47887  0.21643
 0.30902  0.48038  0.21794
 0.35608  0.48190  0.21946
 0.40313  0.48341  0.22097
 0.45018  0.48492  0.22248
 0.49723  0.48643  0.22399
 0.54429  0.48795  0.22551
 0.59134  0.48946  0.22702
 0.63839  0.49097  0.22853
 0.68545  0.49249  0.23005
 0.73250  0.49400  0.23156
 0.77955  0.49551  0.23307
 0.82661  0.49703  0.23459
 0.87366  0.49854  0.23610
 0.92071  0.50005  0.23761
 0.17083  0.52435  0.21637
 0.21789  0.52587  0.21789
 0.26494  0.52738  0.21940
 0.31199  0.52889  0.22091
 0.35905  0.53041  0.22243
 0.40610  0.53192  0.22394
 0.45315  0.53343  0.22545
 0.50020  0.53494  0.22696
 0.54726  0.53646  0.22848
 0.59431  0.53797  0.22999
 0.64136  0.53948  0.23150
 0.68842  0.54100  0.23302
 0.73547  0.54251  0.23453
 0.78252  0.54402  0.23604
 0.82958  0.54554  0.23756
 0.87663  0.54705  0.23907
 0.92368  0.54856  0.24058
 0.17380  0.57286  0.21934
 0.22086  0.57438  0.22086
 0.26791  0.57589  0.22237
 0.31496  0.57740  0.22388
 0.36202  0.57892  0.22540
 0.40907  0.58043  0.22691
 0.45612  0.58194  0.22842
 0.50318  0.58346  0.22993
 0.55023  0.58497  0.23145
 0.59728  0.58648  0.23296
 0.64433  0.58799  0.23447
 0.69139  0.58951  0.23599
 0.73844  0.59102  0.23750
 0.78549  0.59253  0.23901
 0.83255  0.59405  0.24053
 0.87960  0.59556  0.24204
 0.92665  0.59707  0.24355
 0.17677  0.62137  0.22231
 0.22383  0.62289  0.22383
 0.27088  0.62440  0.22534
 0.31793  0.62591  0.22685
 0.36499  0.62743  0.22837
 0.41204  0.62894  0.22988
 0.45909  0.63045  0.23139
 0.50615  0.63197  0.23291
 0.55320  0.63348  0.23442
 0.60025  0.63499  0.23593
 0.64730  0.63650  0.23744
 0.69436  0.63802  0.23896
 0.74141  0.63953  0.24047
 0.78846  0.64104  0.24198
 0.83552  0.64256  0.24350
 0.88257  0.64407  0.24501
 0.92962  0.64558  0.24652
 0.17974  0.66988  0.22528
 0.22680  0.67140  0.22680
 0.27385  0.67291  0.22831
 0.32090  0.67442  0.22982
 0.36796  0.67594  0.23134
 0.41501  0.67745  0.23285
 0.46206  0.67896  0.23436
 0.50912  0.68048  0.23588
 0.55617  0.68199  0.23739
 0.60322  0.68350  0.23890
 0.65027  0.68501  0.24041
 0.69733  0.68653  0.24193
 0.74438  0.68804  0.24344
 0.79143  0.68955  0.24495
 0.83849  0.69107  0.24647
 0.88554  0.69258  0.24798
 0.93259  0.69409  0.24949
 0.18272  0.71840  0.22826
 0.22977  0.71991  0.22977
 0.27682  0.72142  0.23128
 0.32387  0.72293  0.23279
 0.37093  0.72445  0.23431
 0.41798  0.72596  0.23582
 0.46503  0.72747  0.23733
 0.51209  0.72899  0.23885
 0.55914  0.73050  0.24036
 0.60619  0.73201  0.24187
 0.65324  0.73352  0.24338
 0.70030  0.73504  0.24490
 0.74735  0.73655  0.24641
 0.79440  0.73806  0.24792
 0.84146  0.73958  0.24944
 0.88851  0.74109  0.25095
 0.93556  0.74260  0.25246
 0.18569  0.76691  0.23123
 0.23274  0.76842  0.23274
 0.27979  0.76993  0.23425
 0.32684  0.77144  0.23576
 0.37390  0.77296  0.23728
 0.42095  0.77447  0.23879
 0.46800  0.77598  0.24030
 0.51506  0.77750  0.24182
 0.56211  0.77901  0.24333
 0.60916  0.78052  0.24484
 0.65621  0.78203  0.24635
 0.70327  0.78355  0.24787
 0.75032  0.78506  0.24938
 0.79737  0.78657  0.25089
 0.84443  0.78809  0.25241
 0.89148  0.78960  0.25392
 0.93853  0.79111  0.25543
 0.18866  0.81542  0.23420
 0.23571  0.81693  0.23571
 0.28276  0.81844  0.23722
 0.32981  0.81995  0.23873
 0.37687  0.82147  0.24025
 0.42392  0.82298  0.24176
 0.47097  0.82449  0.24327
 0.51803  0.82601  0.24479
 0.56508  0.82752  0.24630
 0.61213  0.82903  0.24781
 0.65918  0.83054  0.24932
 0.70624  0.83206  0.25084
 0.75329  0.83357  0.25235
 0.80034  0.83508  0.25386
 0.84740  0.83660  0.25538
 0.89445  0.83811  0.25689
 0.94150  0.83962  0.25840
 0.19163  0.86393  0.23717
 0.23868  0.86544  0.23868
 0.28573  0.86695  0.24019
 0.33278  0.86846  0.24170
 0.37984  0.86998  0.24322
 0.42689  0.87149  0.24473
 0.47394  0.87300  0.24624
 0.52100  0.87452  0.24776
 0.56805  0.87603  0.24927
 0.61510  0.87754  0.25078
 0.66216  0.87906  0.25230
 0.70921  0.88057  0.25381
 0.75626  0.88208  0.25532
 0.80331  0.88359  0.25683
 0.85037  0.88511  0.25835
 0.89742  0.88662  0.25986
 0.94447  0.88813  0.26137
 0.19460  0.91244  0.24014
 0.24165  0.91395  0.24165
 0.28870  0.91546  0.24316
 0.33575  0.91697  0.24467
 0.38281  0.91849  0.24619
 0.42986  0.92000  0.24770
 0.47691  0.92151  0.24921
 0.52397  0.92303  0.25073
 0.57102  0.92454  0.25224
 0.61807  0.92605  0.25375
 0.66513  0.92757  0.25527
 0.71218  0.92908  0.25678
 0.75923  0.93059  0.25829
 0.80628  0.93210  0.25980
 0.85334  0.93362  0.26132
 0.90039  0.93513  0.26283
 0.94744  0.93664  0.26434
 0.14765  0.13685  0.23873
 0.19470  0.13836  0.24024
 0.24176  0.13988  0.24176
 0.28881  0.14139  0.24327
 0.33586  0.14290  0.24478
 0.38291  0.14441  0.24629
 0.42997  0.14593  0.24781
 0.47702  0.14744  0.24932
 0.52407  0.14895  0.25083
 0.57113  0.15047  0.25235
 0.61818  0.15198  0.25386
 0.66523  0.15349  0.25537
 0.71228  0.15500  0.25688
 0.75934  0.15652  0.25840
 0.80639  0.15803  0.25991
 0.85344  0.15954  0.26142
 0.90050  0.16106  0.26294
 0.15062  0.18536  0.24170
 0.19767  0.18687  0.24321
 0.24473  0.18839  0.24473
 0.29178  0.18990  0.24624
 0.33883  0.19141  0.24775
 0.38588  0.19292  0.24926
 0.43294  0.19444  0.25078
 0.47999  0.19595  0.25229
 0.52704  0.19746  0.25380
 0.57410  0.19898  0.25532
 0.62115  0.20049  0.25683
 0.66820  0.20200  0.25834
 0.71525  0.20351  0.25985
 0.76231  0.20503  0.26137
 0.80936  0.20654  0.26288
 0.85641  0.20805  0.26439
 0.90347  0.20957  0.26591
 0.15359  0.23387  0.24467
 0.20064  0.23538  0.24618
 0.24770  0.23690  0.24770
 0.29475  0.23841  0.24921
 0.34180  0.23992  0.25072
 0.38885  0.24143  0.25223
 0.43591  0.24295  0.25375
 0.48296  0.24446  0.25526
 0.53001  0.24597  0.25677
 0.57707  0.24749  0.25829
 0.62412  0.24900  0.25980
 0.67117  0.25051  0.26131
 0.71822  0.25202  0.26282
 0.76528  0.25354  0.26434
 0.81233  0.25505  0.26585
 0.85938  0.25656  0.26736
 0.90644  0.25808  0.26888
 0.15656  0.28238  0.24764
 0.20361  0.28389  0.24915
 0.25067  0.28541  0.25067
 0.29772  0.28692  0.25218
 0.34477  0.28843  0.25369
 0.39182  0.28994  0.25520
 0.43888  0.29146  0.25672
 0.48593  0.29297  0.25823
 0.53298  0.29448  0.25974
 0.58004  0.29600  0.26126
 0.62709  0.29751  0.26277
 0.67414  0.29902  0.26428
 0.72120  0.30054  0.26580
 0.76825  0.30205  0.26731
 0.81530  0.30356  0.26882
 0.86235  0.30507  0.27033
 0.90941  0.30659  0.27185
 0.15953  0.33089  0.25061
 0.20658  0.33240  0.25212
 0.25364  0.33392  0.25364
 0.30069  0.33543  0.25515
 0.34774  0.33694  0.25666
 0.39479  0.33845  0.25817
 0.44185  0.33997  0.25969
 0.48890  0.34148  0.26120
 0.53595  0.34299  0.26271
 0.58301  0.34451  0.26423
 0.63006  0.34602  0.26574
 0.67711  0.34753  0.26725
 0.72417  0.34905  0.26877
 0.77122  0.35056  0.27028
 0.81827  0.35207  0.27179
 0.86532  0.35358  0.27330
 0.91238  0.35510  0.27482
 0.16250  0.37940  0.25358
 0.20955  0.38091  0.25509
 0.25661  0.38243  0.25661
 0.30366  0.38394  0.25812
 0.35071  0.38545  0.25963
 0.39777  0.38697  0.26115
 0.44482  0.38848  0.26266
 0.49187  0.38999  0.26417
 0.53892  0.39150  0.26568
 0.58598  0.39302  0.26720
 0.63303  0.39453  0.26871
 0.68008  0.39604  0.27022
 0.72714  0.39756  0.27174
 0.77419  0.39907  0.27325
 0.82124  0.40058  0.27476
 0.86829  0.40209  0.27627
 0.91535  0.40361  0.27779
 0.16547  0.42791  0.25655
 0.21252  0.42942  0.25806
 0.25958  0.43094  0.25958
 0.30663  0.43245  0.26109
 0.35368  0.43396  0.26260
 0.40074  0.43548  0.26412
 0.44779  0.43699  0.26563
 0.49484  0.43850  0.26714
 0.54189  0.44001  0.26865
 0.58895  0.44153  0.27017
 0.63600  0.44304  0.27168
 0.68305  0.44455  0.27319
 0.73011  0.44607  0.27471
 0.77716  0.44758  0.27622
 0.82421  0.44909  0.27773
 0.87126  0.45060  0.27924
 0.91832  0.45212  0.28076
 0.16844  0.47642  0.25952
 0.21549  0.47793  0.26103
 0.26255  0.47945  0.26255
 0.30960  0.48096  0.26406
 0.35665  0.48247  0.26557
 0.40371  0.48399  0.26709
 0.45076  0.48550  0.26860
 0.49781  0.48701  0.27011
 0.54486  0.48852  0.27162
 0.59192  0.49004  0.27314
 0.63897  0.49155  0.27465
 0.68602  0.49306  0.27616
 0.73308  0.49458  0.27768
 0.78013  0.49609  0.27919
 0.82718  0.49760  0.28070
 0.87423  0.49911  0.28221
 0.92129  0.50063  0.28373
 0.17141  0.52493  0.26249
 0.21846  0.52644  0.26400
 0.26552  0.52796  0.26552
 0.31257  0.52947  0.26703
 0.35962  0.53098  0.26854
 0.40668  0.53250  0.27006
 0.45373  0.53401  0.27157
 0.50078  0.53552  0.27308
 0.54783  0.53703  0.27459
 0.59489  0.53855  0.27611
 0.64194  0.54006  0.27762
 0.68899  0.54157  0.27913
 0.73605  0.54309  0.28065
 0.78310  0.54460  0.28216
 0.83015  0.54611  0.28367
 0.87721  0.54763  0.28519
 0.92426  0.54914  0.28670
 0.17438  0.57344  0.26546
 0.22143  0.57495  0.26697
 0.26849  0.57647  0.26849
 0.31554  0.57798  0.27000
 0.36259  0.57949  0.27151
 0.40965  0.58101  0.27303
 0.45670  0.58252  0.27454
 0.50375  0.58403  0.27605
 0.55080  0.58554  0.27756
 0.59786  0.58706  0.27908
 0.64491  0.58857  0.28059
 0.69196  0.59008  0.28210
 0.73902  0.59160  0.28362
 0.78607  0.59311  0.28513
 0.83312  0.59462  0.28664
 0.88018  0.59614  0.28816
 0.92723  0.59765  0.28967
 0.17735  0.62195  0.26843
 0.22440  0.62346  0.26994
 0.27146  0.62498  0.27146
 0.31851  0.62649  0.27297
 0.36556  0.62800  0.27448
 0.41262  0.62952  0.27600
 0.45967  0.63103  0.27751
 0.50672  0.63254  0.27902
 0.55378  0.63406  0.28053
 0.60083  0.63557  0.28205
 0.64788  0.63708  0.28356
 0.69493  0.63859  0.28507
 0.74199  0.64011  0.28659
 0.78904  0.64162  0.28810
 0.83609  0.64313  0.28961
 0.88315  0.64465  0.29113
 0.93020  0.64616  0.29264
 0.18032  0.67046  0.27140
 0.22737  0.67197  0.27291
 0.27443  0.67349  0.27443
 0.32148  0.67500  0.27594
 0.36853  0.67651  0.27745
 0.41559  0.67803  0.27897
 0.46264  0.67954  0.28048
 0.50969  0.68105  0.28199
 0.55675  0.68257  0.28351
 0.60380  0.68408  0.28502
 0.65085  0.68559  0.28653
 0.69790  0.68710  0.28804
 0.74496  0.68862  0.28956
 0.79201  0.69013  0.29107
 0.83906  0.69164  0.29258
 0.88612  0.69316  0.29410
 0.93317  0.69467  0.29561
 0.18329  0.71897  0.27437
 0.23034  0.72048  0.27588
 0.27740  0.72200  0.27740
 0.32445  0.72351  0.27891
 0.37150  0.72502  0.28042
 0.41856  0.72654  0.28194
 0.46561  0.72805  0.28345
 0.51266  0.72956  0.28496
 0.55972  0.73108  0.28648
 0.60677  0.73259  0.28799
 0.65382  0.73410  0.28950
 0.70087  0.73561  0.29101
 0.74793  0.73713  0.29253
 0.79498  0.73864  0.29404
 0.84203  0.74015  0.29555
 0.88909  0.74167  0.29707
 0.93614  0.74318  0.29858
 0.18626  0.76748  0.27734
 0.23332  0.76900  0.27886
 0.28037  0.77051  0.28037
 0.32742  0.77202  0.28188
 0.37447  0.77353  0.28339
 0.42153  0.77505  0.28491
 0.46858  0.77656  0.28642
 0.51563  0.77807  0.28793
 0.56269  0.77959  0.28945
 0.60974  0.78110  0.29096
 0.65679  0.78261  0.29247
 0.70384  0.78412  0.29398
 0.75090  0.78564  0.29550
 0.79795  0.78715  0.29701
 0.84500  0.78866  0.29852
 0.89206  0.79018  0.30004
 0.93911  0.79169  0.30155
 0.18923  0.81599  0.28031
 0.23629  0.81751  0.28183
 0.28334  0.81902  0.28334
 0.33039  0.82053  0.28485
 0.37744  0.82204  0.28636
 0.42450  0.82356  0.28788
 0.47155  0.82507  0.28939
 0.51860  0.82658  0.29090
 0.56566  0.82810  0.29242
 0.61271  0.82961  0.29393
 0.65976  0.83112  0.29544
 0.70681  0.83263  0.29695
 0.75387  0.83415  0.29847
 0.80092  0.83566  0.29998
 0.84797  0.83717  0.30149
 0.89503  0.83869  0.30301
 0.94208  0.84020  0.30452
 0.19220  0.86450  0.28328
 0.23926  0.86602  0.28480
 0.28631  0.86753  0.28631
 0.33336  0.86904  0.28782
 0.38041  0.87055  0.28933
 0.42747  0.87207  0.29085
 0.47452  0.87358  0.29236
 0.52157  0.87509  0.29387
 0.56863  0.87661  0.29539
 0.61568  0.87812  0.29690
 0.66273  0.87963  0.29841
 0.70978  0.88114  0.29992
 0.75684  0.88266  0.30144
 0.80389  0.88417  0.30295
 0.85094  0.88568  0.30446
 0.89800  0.88720  0.30598
 0.94505  0.88871  0.30749
 0.19517  0.91301  0.28625
 0.24223  0.91453  0.28777
 0.28928  0.91604  0.28928
 0.33633  0.91755  0.29079
 0.38338  0.91906  0.29230
 0.43044  0.92058  0.29382
 0.47749  0.92209  0.29533
 0.52454  0.92360  0.29684
 0.57160  0.92512  0.29836
 0.61865  0.92663  0.29987
 0.66570  0.92814  0.30138
 0.71276  0.92966  0.30290
 0.75981  0.93117  0.30441
 0.80686  0.93268  0.30592
 0.85391  0.93419  0.30743
 0.90097  0.93571  0.30895
 0.94802  0.93722  0.31046
 0.14823  0.13743  0.28485
 0.19528  0.13894  0.28636
 0.24233  0.14045  0.28787
 0.28938  0.14196  0.28938
 0.33644  0.14348  0.29090
 0.38349  0.14499  0.29241
 0.43054  0.14650  0.29392
 0.47760  0.14802  0.29544
 0.52465  0.14953  0.29695
 0.57170  0.15104  0.29846
 0.61876  0.15256  0.29998
 0.66581  0.15407  0.30149
 0.71286  0.15558  0.30300
 0.75991  0.15709  0.30451
 0.80697  0.15861  0.30603
 0.85402  0.16012  0.30754
 0.90107  0.16163  0.30905
