src/assets/luts/japanese-film.cube
TITLE "日系淡彩"
LUT_3D_SIZE 5
DOMAIN_MIN 0.0 0.0 0.0
DOMAIN_MAX 1.0 1.0 1.0
# LumEdit built-in LUT · 低对比清淡日系
 0.14650  0.13570  0.14650
 0.33471  0.14175  0.15255
 0.52292  0.14780  0.15860
 0.71113  0.15385  0.16465
 0.89934  0.15990  0.17070
 0.15838  0.32974  0.15838
 0.34659  0.33579  0.16443
 0.53480  0.34184  0.17048
 0.72301  0.34789  0.17653
 0.91122  0.35394  0.18258
 0.17026  0.52378  0.17026
 0.35847  0.52983  0.17631
 0.54668  0.53588  0.18236
 0.73489  0.54193  0.18841
 0.92310  0.54798  0.19446
 0.18214  0.71782  0.18214
 0.37035  0.72387  0.18819
 0.55856  0.72992  0.19424
 0.74677  0.73597  0.20029
 0.93499  0.74203  0.20635
 0.19402  0.91186  0.19402
 0.38223  0.91791  0.20007
 0.57044  0.92396  0.20612
 0.75865  0.93001  0.21217
 0.94687  0.93607  0.21823
 0.14880  0.13800  0.33096
 0.33701  0.14405  0.33701
 0.52523  0.15011  0.34307
 0.71344  0.15616  0.34912
 0.90165  0.16221  0.35517
 0.16068  0.33204  0.34284
 0.34890  0.33810  0.34890
 0.53711  0.34415  0.35495
 0.72532  0.35020  0.36100
 0.91353  0.35625  0.36705
 0.17256  0.52608  0.35472
 0.36078  0.53214  0.36078
 0.54899  0.53819  0.36683
 0.73720  0.54424  0.37288
 0.92541  0.55029  0.37893
 0.18445  0.72013  0.36661
 0.37266  0.72618  0.37266
 0.56087  0.73223  0.37871
 0.74908  0.73828  0.38476
 0.93729  0.74433  0.39081
 0.19633  0.91417  0.37849
 0.38454  0.92022  0.38454
 0.57275  0.92627  0.39059
 0.76096  0.93232  0.39664
 0.94917  0.93837  0.40269
 0.15111  0.14031  0.51543
 0.33932  0.14636  0.52148
 0.52753  0.15241  0.52753
 0.71575  0.15847  0.53359
 0.90396  0.16452  0.53964
 0.16299  0.33435  0.52731
 0.35120  0.34040  0.53336
 0.53941  0.34645  0.53941
 0.72763  0.35251  0.54547
 0.91584  0.35856  0.55152
 0.17487  0.52839  0.53919
 0.36308  0.53444  0.54524
 0.55130  0.54050  0.55130
 0.73951  0.54655  0.55735
 0.92772  0.55260  0.56340
 0.18675  0.72243  0.55107
 0.37496  0.72848  0.55712
 0.56318  0.73454  0.56318
 0.75139  0.74059  0.56923
 0.93960  0.74664  0.57528
 0.19863  0.91647  0.56295
 0.38685  0.92253  0.56901
 0.57506  0.92858  0.57506
 0.76327  0.93463  0.58111
 0.95148  0.94068  0.58716
 0.15342  0.14262  0.69990
 0.34163  0.14867  0.70595
 0.52984  0.15472  0.71200
 0.71805  0.16077  0.71805
 0.90626  0.16682  0.72410
 0.16530  0.33666  0.71178
 0.35351  0.34271  0.71783
 0.54172  0.34876  0.72388
 0.72993  0.35481  0.72993
 0.91815  0.36087  0.73599
 0.17718  0.53070  0.72366
 0.36539  0.53675  0.72971
 0.55360  0.54280  0.73576
 0.74181  0.54885  0.74181
 0.93003  0.55491  0.74787
 0.18906  0.72474  0.73554
 0.37727  0.73079  0.74159
 0.56548  0.73684  0.74764
 0.75370  0.74290  0.75370
 0.94191  0.74895  0.75975
 0.20094  0.91878  0.74742
 0.38915  0.92483  0.75347
 0.57736  0.93088  0.75952
 0.76558  0.93694  0.76558
 0.95379  0.94299  0.77163
 0.15573  0.14493  0.88437
 0.34394  0.15098  0.89042
 0.53215  0.15703  0.89647
 0.72036  0.16308  0.90252
 0.90857  0.16913  0.90857
 0.16761  0.33897  0.89625
 0.35582  0.34502  0.90230
 0.54403  0.35107  0.90835
 0.73224  0.35712  0.91440
 0.92045  0.36317  0.92045
 0.17949  0.53301  0.90813
 0.36770  0.53906  0.91418
 0.55591  0.54511  0.92023
 0.74412  0.55116  0.92628
 0.93233  0.55721  0.93233
 0.19137  0.72705  0.92001
 0.37958  0.73310  0.92606
 0.56779  0.73915  0.93211
 0.75600  0.74520  0.93816
 0.94421  0.75125  0.94421
 0.20325  0.92109  0.93189
 0.39146  0.92714  0.93794
 0.57967  0.93319  0.94399
 0.76788  0.93924  0.95004
 0.95610  0.94530  0.95610
