src/assets/luts/kodak-2383.cube
TITLE "Kodak 2383"
LUT_3D_SIZE 5
DOMAIN_MIN 0.0 0.0 0.0
DOMAIN_MAX 1.0 1.0 1.0
# LumEdit built-in LUT · 经典柯达电影胶片，暖调奶油高光
 0.00000  0.00000  0.00000
 0.25342  0.00000  0.00000
 0.52545  0.00000  0.00000
 0.79748  0.00000  0.00000
 1.00000  0.00000  0.00000
 0.00000  0.23421  0.00000
 0.24708  0.23106  0.00000
 0.51911  0.22791  0.00000
 0.79114  0.22476  0.00000
 1.00000  0.22161  0.00000
 0.00000  0.50867  0.00000
 0.24074  0.50552  0.00000
 0.51277  0.50237  0.00000
 0.78480  0.49922  0.00000
 1.00000  0.49607  0.00000
 0.00000  0.78313  0.00000
 0.23440  0.77998  0.00000
 0.50643  0.77683  0.00000
 0.77846  0.77368  0.00000
 1.00000  0.77053  0.00000
 0.00000  1.00000  0.00000
 0.22806  1.00000  0.00000
 0.50009  1.00000  0.00000
 0.77213  1.00000  0.00000
 1.00000  1.00000  0.00000
 0.00000  0.00000  0.23956
 0.25218  0.00000  0.23311
 0.52422  0.00000  0.22665
 0.79625  0.00000  0.22020
 1.00000  0.00000  0.21375
 0.00000  0.23298  0.23322
 0.24585  0.22983  0.22677
 0.51788  0.22668  0.22031
 0.78991  0.22353  0.21386
 1.00000  0.22038  0.20741
 0.00000  0.50744  0.22688
 0.23951  0.50429  0.22043
 0.51154  0.50114  0.21397
 0.78357  0.49799  0.20752
 1.00000  0.49484  0.20107
 0.00000  0.78190  0.22054
 0.23317  0.77875  0.21409
 0.50520  0.77560  0.20764
 0.77723  0.77245  0.20118
 1.00000  0.76930  0.19473
 0.00000  1.00000  0.21420
 0.22683  1.00000  0.20775
 0.49886  1.00000  0.20130
 0.77089  1.00000  0.19484
 1.00000  1.00000  0.18839
 0.00000  0.00000  0.51913
 0.25095  0.00000  0.51268
 0.52299  0.00000  0.50622
 0.79502  0.00000  0.49977
 1.00000  0.00000  0.49332
 0.00000  0.23175  0.51279
 0.24461  0.22860  0.50634
 0.51665  0.22545  0.49988
 0.78868  0.22230  0.49343
 1.00000  0.21915  0.48698
 0.00000  0.50621  0.50645
 0.23827  0.50306  0.50000
 0.51031  0.49991  0.49354
 0.78234  0.49676  0.48709
 1.00000  0.49361  0.48064
 0.00000  0.78067  0.50011
 0.23193  0.77752  0.49366
 0.50397  0.77437  0.48720
 0.77600  0.77122  0.48075
 1.00000  0.76807  0.47430
 0.00000  1.00000  0.49377
 0.22560  1.00000  0.48732
 0.49763  1.00000  0.48086
 0.76966  1.00000  0.47441
 1.00000  1.00000  0.46796
 0.00000  0.00000  0.79870
 0.24972  0.00000  0.79224
 0.52176  0.00000  0.78579
 0.79379  0.00000  0.77934
 1.00000  0.00000  0.77289
 0.00000  0.23052  0.79236
 0.24338  0.22737  0.78590
 0.51542  0.22422  0.77945
 0.78745  0.22107  0.77300
 1.00000  0.21792  0.76655
 0.00000  0.50498  0.78602
 0.23704  0.50183  0.77956
 0.50908  0.49868  0.77311
 0.78111  0.49553  0.76666
 1.00000  0.49238  0.76021
 0.00000  0.77944  0.77968
 0.23070  0.77629  0.77323
 0.50274  0.77314  0.76677
 0.77477  0.76999  0.76032
 1.00000  0.76684  0.75387
 0.00000  1.00000  0.77334
 0.22436  1.00000  0.76689
 0.49640  1.00000  0.76043
 0.76843  1.00000  0.75398
 1.00000  1.00000  0.74753
 0.00000  0.00000  1.00000
 0.24849  0.00000  1.00000
 0.52053  0.00000  1.00000
 0.79256  0.00000  1.00000
 1.00000  0.00000  1.00000
 0.00000  0.22929  1.00000
 0.24215  0.22614  1.00000
 0.51419  0.22299  1.00000
 0.78622  0.21984  1.00000
 1.00000  0.21669  1.00000
 0.00000  0.50375  1.00000
 0.23581  0.50060  1.00000
 0.50785  0.49745  1.00000
 0.77988  0.49430  1.00000
 1.00000  0.49115  1.00000
 0.00000  0.77821  1.00000
 0.22947  0.77506  1.00000
 0.50151  0.77191  1.00000
 0.77354  0.76876  1.00000
 1.00000  0.76561  1.00000
 0.00000  1.00000  1.00000
 0.22313  1.00000  1.00000
 0.49517  1.00000  1.00000
 0.76720  1.00000  1.00000
 1.00000  1.00000  1.00000
