src/assets/luts/kodak-2383.cube
TITLE "Kodak 2383"
LUT_3D_SIZE 17
DOMAIN_MIN 0.0 0.0 0.0
DOMAIN_MAX 1.0 1.0 1.0
# LumEdit built-in LUT · 经典柯达电影胶片，暖调奶油高光
 0.00000  0.00000  0.00000
 0.04939  0.00000  0.00000
 0.11740  0.00000  0.00000
 0.18541  0.00000  0.00000
 0.25342  0.00000  0.00000
 0.32142  0.00000  0.00000
 0.38943  0.00000  0.00000
 0.45744  0.00000  0.00000
 0.52545  0.00000  0.00000
 0.59346  0.00000  0.00000
 0.66147  0.00000  0.00000
 0.72948  0.00000  0.00000
 0.79748  0.00000  0.00000
 0.86549  0.00000  0.00000
 0.93350  0.00000  0.00000
 1.00000  0.00000  0.00000
 1.00000  0.00000  0.00000
 0.00000  0.02837  0.00000
 0.04781  0.02758  0.00000
 0.11581  0.02679  0.00000
 0.18382  0.02600  0.00000
 0.25183  0.02522  0.00000
 0.31984  0.02443  0.00000
 0.38785  0.02364  0.00000
 0.45586  0.02285  0.00000
 0.52387  0.02207  0.00000
 0.59187  0.02128  0.00000
 0.65988  0.02049  0.00000
 0.72789  0.01970  0.00000
 0.79590  0.01891  0.00000
 0.86391  0.01813  0.00000
 0.93192  0.01734  0.00000
 0.99992  0.01655  0.00000
 1.00000  0.01576  0.00000
 0.00000  0.09698  0.00000
 0.04622  0.09619  0.00000
 0.11423  0.09541  0.00000
 0.18224  0.09462  0.00000
 0.25025  0.09383  0.00000
 0.31825  0.09304  0.00000
 0.38626  0.09226  0.00000
 0.45427  0.09147  0.00000
 0.52228  0.09068  0.00000
 0.59029  0.08989  0.00000
 0.65830  0.08911  0.00000
 0.72631  0.08832  0.00000
 0.79431  0.08753  0.00000
 0.86232  0.08674  0.00000
 0.93033  0.08595  0.00000
 0.99834  0.08517  0.00000
 1.00000  0.08438  0.00000
 0.00000  0.16560  0.00000
 0.04464  0.16481  0.00000
 0.11264  0.16402  0.00000
 0.18065  0.16323  0.00000
 0.24866  0.16245  0.00000
 0.31667  0.16166  0.00000
 0.38468  0.16087  0.00000
 0.45269  0.16008  0.00000
 0.52070  0.15930  0.00000
 0.58870  0.15851  0.00000
 0.65671  0.15772  0.00000
 0.72472  0.15693  0.00000
 0.79273  0.15615  0.00000
 0.86074  0.15536  0.00000
 0.92875  0.15457  0.00000
 0.99675  0.15378  0.00000
 1.00000  0.15299  0.00000
 0.00000  0.23421  0.00000
 0.04305  0.23342  0.00000
 0.11106  0.23264  0.00000
 0.17907  0.23185  0.00000
 0.24708  0.23106  0.00000
 0.31508  0.23027  0.00000
 0.38309  0.22949  0.00000
 0.45110  0.22870  0.00000
 0.51911  0.22791  0.00000
 0.58712  0.22712  0.00000
 0.65513  0.22634  0.00000
 0.72314  0.22555  0.00000
 0.79114  0.22476  0.00000
 0.85915  0.22397  0.00000
 0.92716  0.22319  0.00000
 0.99517  0.22240  0.00000
 1.00000  0.22161  0.00000
 0.00000  0.30283  0.00000
 0.04147  0.30204  0.00000
 0.10947  0.30125  0.00000
 0.17748  0.30046  0.00000
 0.24549  0.29968  0.00000
 0.31350  0.29889  0.00000
 0.38151  0.29810  0.00000
 0.44952  0.29731  0.00000
 0.51753  0.29653  0.00000
 0.58553  0.29574  0.00000
 0.65354  0.29495  0.00000
 0.72155  0.29416  0.00000
 0.78956  0.29338  0.00000
 0.85757  0.29259  0.00000
 0.92558  0.29180  0.00000
 0.99358  0.29101  0.00000
 1.00000  0.29023  0.00000
 0.00000  0.37144  0.00000
 0.03988  0.37065  0.00000
 0.10789  0.36987  0.00000
 0.17590  0.36908  0.00000
 0.24391  0.36829  0.00000
 0.31192  0.36750  0.00000
 0.37992  0.36672  0.00000
 0.44793  0.36593  0.00000
 0.51594  0.36514  0.00000
 0.58395  0.36435  0.00000
 0.65196  0.36357  0.00000
 0.71997  0.36278  0.00000
 0.78797  0.36199  0.00000
 0.85598  0.36120  0.00000
 0.92399  0.36042  0.00000
 0.99200  0.35963  0.00000
 1.00000  0.35884  0.00000
 0.00000  0.44006  0.00000
 0.03830  0.43927  0.00000
 0.10630  0.43848  0.00000
 0.17431  0.43769  0.00000
 0.24232  0.43691  0.00000
 0.31033  0.43612  0.00000
 0.37834  0.43533  0.00000
 0.44635  0.43454  0.00000
 0.51436  0.43376  0.00000
 0.58236  0.43297  0.00000
 0.65037  0.43218  0.00000
 0.71838  0.43139  0.00000
 0.78639  0.43061  0.00000
 0.85440  0.42982  0.00000
 0.92241  0.42903  0.00000
 0.99041  0.42824  0.00000
 1.00000  0.42746  0.00000
 0.00000  0.50867  0.00000
 0.03671  0.50788  0.00000
 0.10472  0.50710  0.00000
 0.17273  0.50631  0.00000
 0.24074  0.50552  0.00000
 0.30875  0.50473  0.00000
 0.37675  0.50395  0.00000
 0.44476  0.50316  0.00000
 0.51277  0.50237  0.00000
 0.58078  0.50158  0.00000
 0.64879  0.50080  0.00000
 0.71680  0.50001  0.00000
 0.78480  0.49922  0.00000
 0.85281  0.49843  0.00000
 0.92082  0.49765  0.00000
 0.98883  0.49686  0.00000
 1.00000  0.49607  0.00000
 0.00000  0.57729  0.00000
 0.03513  0.57650  0.00000
 0.10314  0.57571  0.00000
 0.17114  0.57492  0.00000
 0.23915  0.57414  0.00000
 0.30716  0.57335  0.00000
 0.37517  0.57256  0.00000
 0.44318  0.57177  0.00000
 0.51119  0.57099  0.00000
 0.57919  0.57020  0.00000
 0.64720  0.56941  0.00000
 0.71521  0.56862  0.00000
 0.78322  0.56784  0.00000
 0.85123  0.56705  0.00000
 0.91924  0.56626  0.00000
 0.98725  0.56547  0.00000
 1.00000  0.56469  0.00000
 0.00000  0.64590  0.00000
 0.03354  0.64511  0.00000
 0.10155  0.64433  0.00000
 0.16956  0.64354  0.00000
 0.23757  0.64275  0.00000
 0.30558  0.64196  0.00000
 0.37358  0.64118  0.00000
 0.44159  0.64039  0.00000
 0.50960  0.63960  0.00000
 0.57761  0.63881  0.00000
 0.64562  0.63803  0.00000
 0.71363  0.63724  0.00000
 0.78163  0.63645  0.00000
 0.84964  0.63566  0.00000
 0.91765  0.63488  0.00000
 0.98566  0.63409  0.00000
 1.00000  0.63330  0.00000
 0.00000  0.71452  0.00000
 0.03196  0.71373  0.00000
 0.09997  0.71294  0.00000
 0.16797  0.71215  0.00000
 0.23598  0.71137  0.00000
 0.30399  0.71058  0.00000
 0.37200  0.70979  0.00000
 0.44001  0.70900  0.00000
 0.50802  0.70822  0.00000
 0.57602  0.70743  0.00000
 0.64403  0.70664  0.00000
 0.71204  0.70585  0.00000
 0.78005  0.70507  0.00000
 0.84806  0.70428  0.00000
 0.91607  0.70349  0.00000
 0.98408  0.70270  0.00000
 1.00000  0.70192  0.00000
 0.00000  0.78313  0.00000
 0.03037  0.78234  0.00000
 0.09838  0.78156  0.00000
 0.16639  0.78077  0.00000
 0.23440  0.77998  0.00000
 0.30241  0.77919  0.00000
 0.37041  0.77841  0.00000
 0.43842  0.77762  0.00000
 0.50643  0.77683  0.00000
 0.57444  0.77604  0.00000
 0.64245  0.77526  0.00000
 0.71046  0.77447  0.00000
 0.77846  0.77368  0.00000
 0.84647  0.77289  0.00000
 0.91448  0.77211  0.00000
 0.98249  0.77132  0.00000
 1.00000  0.77053  0.00000
 0.00000  0.85175  0.00000
 0.02879  0.85096  0.00000
 0.09680  0.85017  0.00000
 0.16480  0.84938  0.00000
 0.23281  0.84860  0.00000
 0.30082  0.84781  0.00000
 0.36883  0.84702  0.00000
 0.43684  0.84623  0.00000
 0.50485  0.84545  0.00000
 0.57285  0.84466  0.00000
 0.64086  0.84387  0.00000
 0.70887  0.84308  0.00000
 0.77688  0.84230  0.00000
 0.84489  0.84151  0.00000
 0.91290  0.84072  0.00000
 0.98091  0.83993  0.00000
 1.00000  0.83915  0.00000
 0.00000  0.92036  0.00000
 0.02720  0.91957  0.00000
 0.09521  0.91879  0.00000
 0.16322  0.91800  0.00000
 0.23123  0.91721  0.00000
 0.29924  0.91642  0.00000
 0.36724  0.91564  0.00000
 0.43525  0.91485  0.00000
 0.50326  0.91406  0.00000
 0.57127  0.91327  0.00000
 0.63928  0.91249  0.00000
 0.70729  0.91170  0.00000
 0.77530  0.91091  0.00000
 0.84330  0.91012  0.00000
 0.91131  0.90934  0.00000
 0.97932  0.90855  0.00000
 1.00000  0.90776  0.00000
 0.00000  0.98898  0.00000
 0.02562  0.98819  0.00000
 0.09363  0.98740  0.00000
 0.16163  0.98661  0.00000
 0.22964  0.98583  0.00000
 0.29765  0.98504  0.00000
 0.36566  0.98425  0.00000
 0.43367  0.98346  0.00000
 0.50168  0.98268  0.00000
 0.56968  0.98189  0.00000
 0.63769  0.98110  0.00000
 0.70570  0.98031  0.00000
 0.77371  0.97953  0.00000
 0.84172  0.97874  0.00000
 0.90973  0.97795  0.00000
 0.97774  0.97716  0.00000
 1.00000  0.97638  0.00000
 0.00000  1.00000  0.00000
 0.02403  1.00000  0.00000
 0.09204  1.00000  0.00000
 0.16005  1.00000  0.00000
 0.22806  1.00000  0.00000
 0.29607  1.00000  0.00000
 0.36407  1.00000  0.00000
 0.43208  1.00000  0.00000
 0.50009  1.00000  0.00000
 0.56810  1.00000  0.00000
 0.63611  1.00000  0.00000
 0.70412  1.00000  0.00000
 0.77213  1.00000  0.00000
 0.84013  1.00000  0.00000
 0.90814  1.00000  0.00000
 0.97615  1.00000  0.00000
 1.00000  1.00000  0.00000
 0.00000  0.00000  0.02988
 0.04908  0.00000  0.02827
 0.11709  0.00000  0.02666
 0.18510  0.00000  0.02504
 0.25311  0.00000  0.02343
 0.32112  0.00000  0.02182
 0.38913  0.00000  0.02020
 0.45713  0.00000  0.01859
 0.52514  0.00000  0.01698
 0.59315  0.00000  0.01536
 0.66116  0.00000  0.01375
 0.72917  0.00000  0.01214
 0.79718  0.00000  0.01052
 0.86518  0.00000  0.00891
 0.93319  0.00000  0.00730
 1.00000  0.00000  0.00569
 1.00000  0.00000  0.00407
 0.00000  0.02806  0.02830
 0.04750  0.02727  0.02668
 0.11551  0.02648  0.02507
 0.18351  0.02569  0.02346
 0.25152  0.02491  0.02184
 0.31953  0.02412  0.02023
 0.38754  0.02333  0.01862
 0.45555  0.02254  0.01701
 0.52356  0.02176  0.01539
 0.59157  0.02097  0.01378
 0.65957  0.02018  0.01217
 0.72758  0.01939  0.01055
 0.79559  0.01861  0.00894
 0.86360  0.01782  0.00733
 0.93161  0.01703  0.00571
 0.99962  0.01624  0.00410
 1.00000  0.01546  0.00249
 0.00000  0.09667  0.02671
 0.04591  0.09589  0.02510
 0.11392  0.09510  0.02349
 0.18193  0.09431  0.02187
 0.24994  0.09352  0.02026
 0.31795  0.09273  0.01865
 0.38596  0.09195  0.01703
 0.45396  0.09116  0.01542
 0.52197  0.09037  0.01381
 0.58998  0.08958  0.01219
 0.65799  0.08880  0.01058
 0.72600  0.08801  0.00897
 0.79401  0.08722  0.00736
 0.86201  0.08643  0.00574
 0.93002  0.08565  0.00413
 0.99803  0.08486  0.00252
 1.00000  0.08407  0.00090
 0.00000  0.16529  0.02513
 0.04433  0.16450  0.02351
 0.11234  0.16371  0.02190
 0.18035  0.16293  0.02029
 0.24835  0.16214  0.01867
 0.31636  0.16135  0.01706
 0.38437  0.16056  0.01545
 0.45238  0.15977  0.01384
 0.52039  0.15899  0.01222
 0.58840  0.15820  0.01061
 0.65640  0.15741  0.00900
 0.72441  0.15662  0.00738
 0.79242  0.15584  0.00577
 0.86043  0.15505  0.00416
 0.92844  0.15426  0.00254
 0.99645  0.15347  0.00093
 1.00000  0.15269  0.00000
 0.00000  0.23390  0.02354
 0.04274  0.23312  0.02193
 0.11075  0.23233  0.02032
 0.17876  0.23154  0.01870
 0.24677  0.23075  0.01709
 0.31478  0.22997  0.01548
 0.38279  0.22918  0.01386
 0.45079  0.22839  0.01225
 0.51880  0.22760  0.01064
 0.58681  0.22681  0.00902
 0.65482  0.22603  0.00741
 0.72283  0.22524  0.00580
 0.79084  0.22445  0.00419
 0.85884  0.22366  0.00257
 0.92685  0.22288  0.00096
 0.99486  0.22209  0.00000
 1.00000  0.22130  0.00000
 0.00000  0.30252  0.02196
 0.04116  0.30173  0.02034
 0.10917  0.30094  0.01873
 0.17718  0.30016  0.01712
 0.24518  0.29937  0.01551
 0.31319  0.29858  0.01389
 0.38120  0.29779  0.01228
 0.44921  0.29701  0.01067
 0.51722  0.29622  0.00905
 0.58523  0.29543  0.00744
 0.65323  0.29464  0.00583
 0.72124  0.29386  0.00421
 0.78925  0.29307  0.00260
 0.85726  0.29228  0.00099
 0.92527  0.29149  0.00000
 0.99328  0.29070  0.00000
 1.00000  0.28992  0.00000
 0.00000  0.37113  0.02037
 0.03957  0.37035  0.01876
 0.10758  0.36956  0.01715
 0.17559  0.36877  0.01553
 0.24360  0.36798  0.01392
 0.31161  0.36720  0.01231
 0.37962  0.36641  0.01069
 0.44762  0.36562  0.00908
 0.51563  0.36483  0.00747
 0.58364  0.36405  0.00585
 0.65165  0.36326  0.00424
 0.71966  0.36247  0.00263
 0.78767  0.36168  0.00102
 0.85568  0.36090  0.00000
 0.92368  0.36011  0.00000
 0.99169  0.35932  0.00000
 1.00000  0.35853  0.00000
 0.00000  0.43975  0.01879
 0.03799  0.43896  0.01717
 0.10600  0.43817  0.01556
 0.17401  0.43739  0.01395
 0.24201  0.43660  0.01234
 0.31002  0.43581  0.01072
 0.37803  0.43502  0.00911
 0.44604  0.43424  0.00750
 0.51405  0.43345  0.00588
 0.58206  0.43266  0.00427
 0.65006  0.43187  0.00266
 0.71807  0.43109  0.00104
 0.78608  0.43030  0.00000
 0.85409  0.42951  0.00000
 0.92210  0.42872  0.00000
 0.99011  0.42794  0.00000
 1.00000  0.42715  0.00000
 0.00000  0.50836  0.01720
 0.03640  0.50758  0.01559
 0.10441  0.50679  0.01398
 0.17242  0.50600  0.01236
 0.24043  0.50521  0.01075
 0.30844  0.50443  0.00914
 0.37645  0.50364  0.00752
 0.44445  0.50285  0.00591
 0.51246  0.50206  0.00430
 0.58047  0.50128  0.00269
 0.64848  0.50049  0.00107
 0.71649  0.49970  0.00000
 0.78450  0.49891  0.00000
 0.85251  0.49813  0.00000
 0.92051  0.49734  0.00000
 0.98852  0.49655  0.00000
 1.00000  0.49576  0.00000
 0.00000  0.57698  0.01562
 0.03482  0.57619  0.01400
 0.10283  0.57540  0.01239
 0.17084  0.57462  0.01078
 0.23884  0.57383  0.00917
 0.30685  0.57304  0.00755
 0.37486  0.57225  0.00594
 0.44287  0.57147  0.00433
 0.51088  0.57068  0.00271
 0.57889  0.56989  0.00110
 0.64689  0.56910  0.00000
 0.71490  0.56832  0.00000
 0.78291  0.56753  0.00000
 0.85092  0.56674  0.00000
 0.91893  0.56595  0.00000
 0.98694  0.56517  0.00000
 1.00000  0.56438  0.00000
 0.00000  0.64559  0.01403
 0.03323  0.64481  0.01242
 0.10124  0.64402  0.01081
 0.16925  0.64323  0.00919
 0.23726  0.64244  0.00758
 0.30527  0.64166  0.00597
 0.37328  0.64087  0.00435
 0.44128  0.64008  0.00274
 0.50929  0.63929  0.00113
 0.57730  0.63851  0.00000
 0.64531  0.63772  0.00000
 0.71332  0.63693  0.00000
 0.78133  0.63614  0.00000
 0.84934  0.63536  0.00000
 0.91734  0.63457  0.00000
 0.98535  0.63378  0.00000
 1.00000  0.63299  0.00000
 0.00000  0.71421  0.01245
 0.03165  0.71342  0.01084
 0.09966  0.71263  0.00922
 0.16767  0.71185  0.00761
 0.23567  0.71106  0.00600
 0.30368  0.71027  0.00438
 0.37169  0.70948  0.00277
 0.43970  0.70870  0.00116
 0.50771  0.70791  0.00000
 0.57572  0.70712  0.00000
 0.64373  0.70633  0.00000
 0.71173  0.70555  0.00000
 0.77974  0.70476  0.00000
 0.84775  0.70397  0.00000
 0.91576  0.70318  0.00000
 0.98377  0.70240  0.00000
 1.00000  0.70161  0.00000
 0.00000  0.78282  0.01086
 0.03006  0.78204  0.00925
 0.09807  0.78125  0.00764
 0.16608  0.78046  0.00602
 0.23409  0.77967  0.00441
 0.30210  0.77889  0.00280
 0.37011  0.77810  0.00118
 0.43811  0.77731  0.00000
 0.50612  0.77652  0.00000
 0.57413  0.77574  0.00000
 0.64214  0.77495  0.00000
 0.71015  0.77416  0.00000
 0.77816  0.77337  0.00000
 0.84617  0.77259  0.00000
 0.91417  0.77180  0.00000
 0.98218  0.77101  0.00000
 1.00000  0.77022  0.00000
 0.00000  0.85144  0.00928
 0.02848  0.85065  0.00767
 0.09649  0.84986  0.00605
 0.16450  0.84908  0.00444
 0.23250  0.84829  0.00283
 0.30051  0.84750  0.00121
 0.36852  0.84671  0.00000
 0.43653  0.84593  0.00000
 0.50454  0.84514  0.00000
 0.57255  0.84435  0.00000
 0.64056  0.84356  0.00000
 0.70856  0.84278  0.00000
 0.77657  0.84199  0.00000
 0.84458  0.84120  0.00000
 0.91259  0.84041  0.00000
 0.98060  0.83963  0.00000
 1.00000  0.83884  0.00000
 0.00000  0.92005  0.00769
 0.02689  0.91927  0.00608
 0.09490  0.91848  0.00447
 0.16291  0.91769  0.00285
 0.23092  0.91690  0.00124
 0.29893  0.91612  0.00000
 0.36694  0.91533  0.00000
 0.43495  0.91454  0.00000
 0.50295  0.91375  0.00000
 0.57096  0.91297  0.00000
 0.63897  0.91218  0.00000
 0.70698  0.91139  0.00000
 0.77499  0.91060  0.00000
 0.84300  0.90982  0.00000
 0.91100  0.90903  0.00000
 0.97901  0.90824  0.00000
 1.00000  0.90745  0.00000
 0.00000  0.98867  0.00611
 0.02531  0.98788  0.00450
 0.09332  0.98709  0.00288
 0.16133  0.98631  0.00127
 0.22933  0.98552  0.00000
 0.29734  0.98473  0.00000
 0.36535  0.98394  0.00000
 0.43336  0.98316  0.00000
 0.50137  0.98237  0.00000
 0.56938  0.98158  0.00000
 0.63739  0.98079  0.00000
 0.70539  0.98001  0.00000
 0.77340  0.97922  0.00000
 0.84141  0.97843  0.00000
 0.90942  0.97764  0.00000
 0.97743  0.97686  0.00000
 1.00000  0.97607  0.00000
 0.00000  1.00000  0.00452
 0.02372  1.00000  0.00291
 0.09173  1.00000  0.00130
 0.15974  1.00000  0.00000
 0.22775  1.00000  0.00000
 0.29576  1.00000  0.00000
 0.36377  1.00000  0.00000
 0.43178  1.00000  0.00000
 0.49978  1.00000  0.00000
 0.56779  1.00000  0.00000
 0.63580  1.00000  0.00000
 0.70381  1.00000  0.00000
 0.77182  1.00000  0.00000
 0.83983  1.00000  0.00000
 0.90783  1.00000  0.00000
 0.97584  1.00000  0.00000
 1.00000  1.00000  0.00000
 0.00000  0.00000  0.09977
 0.04878  0.00000  0.09816
 0.11678  0.00000  0.09655
 0.18479  0.00000  0.09493
 0.25280  0.00000  0.09332
 0.32081  0.00000  0.09171
 0.38882  0.00000  0.09010
 0.45683  0.00000  0.08848
 0.52483  0.00000  0.08687
 0.59284  0.00000  0.08526
 0.66085  0.00000  0.08364
 0.72886  0.00000  0.08203
 0.79687  0.00000  0.08042
 0.86488  0.00000  0.07880
 0.93289  0.00000  0.07719
 1.00000  0.00000  0.07558
 1.00000  0.00000  0.07396
 0.00000  0.02775  0.09819
 0.04719  0.02696  0.09658
 0.11520  0.02617  0.09496
 0.18321  0.02539  0.09335
 0.25122  0.02460  0.09174
 0.31922  0.02381  0.09012
 0.38723  0.02302  0.08851
 0.45524  0.02224  0.08690
 0.52325  0.02145  0.08528
 0.59126  0.02066  0.08367
 0.65927  0.01987  0.08206
 0.72727  0.01909  0.08045
 0.79528  0.01830  0.07883
 0.86329  0.01751  0.07722
 0.93130  0.01672  0.07561
 0.99931  0.01594  0.07399
 1.00000  0.01515  0.07238
 0.00000  0.09636  0.09660
 0.04561  0.09558  0.09499
 0.11361  0.09479  0.09338
 0.18162  0.09400  0.09177
 0.24963  0.09321  0.09015
 0.31764  0.09243  0.08854
 0.38565  0.09164  0.08693
 0.45366  0.09085  0.08531
 0.52166  0.09006  0.08370
 0.58967  0.08928  0.08209
 0.65768  0.08849  0.08047
 0.72569  0.08770  0.07886
 0.79370  0.08691  0.07725
 0.86171  0.08613  0.07563
 0.92972  0.08534  0.07402
 0.99772  0.08455  0.07241
 1.00000  0.08376  0.07080
 0.00000  0.16498  0.09502
 0.04402  0.16419  0.09341
 0.11203  0.16340  0.09179
 0.18004  0.16262  0.09018
 0.24805  0.16183  0.08857
 0.31605  0.16104  0.08695
 0.38406  0.16025  0.08534
 0.45207  0.15947  0.08373
 0.52008  0.15868  0.08211
 0.58809  0.15789  0.08050
 0.65610  0.15710  0.07889
 0.72411  0.15632  0.07728
 0.79211  0.15553  0.07566
 0.86012  0.15474  0.07405
 0.92813  0.15395  0.07244
 0.99614  0.15317  0.07082
 1.00000  0.15238  0.06921
 0.00000  0.23359  0.09343
 0.04244  0.23281  0.09182
 0.11044  0.23202  0.09021
 0.17845  0.23123  0.08860
 0.24646  0.23044  0.08698
 0.31447  0.22966  0.08537
 0.38248  0.22887  0.08376
 0.45049  0.22808  0.08214
 0.51849  0.22729  0.08053
 0.58650  0.22651  0.07892
 0.65451  0.22572  0.07730
 0.72252  0.22493  0.07569
 0.79053  0.22414  0.07408
 0.85854  0.22336  0.07246
 0.92655  0.22257  0.07085
 0.99455  0.22178  0.06924
 1.00000  0.22099  0.06763
 0.00000  0.30221  0.09185
 0.04085  0.30142  0.09024
 0.10886  0.30064  0.08862
 0.17687  0.29985  0.08701
 0.24488  0.29906  0.08540
 0.31288  0.29827  0.08378
 0.38089  0.29748  0.08217
 0.44890  0.29670  0.08056
 0.51691  0.29591  0.07895
 0.58492  0.29512  0.07733
 0.65293  0.29433  0.07572
 0.72094  0.29355  0.07411
 0.78894  0.29276  0.07249
 0.85695  0.29197  0.07088
 0.92496  0.29118  0.06927
 0.99297  0.29040  0.06765
 1.00000  0.28961  0.06604
 0.00000  0.37083  0.09026
 0.03927  0.37004  0.08865
 0.10727  0.36925  0.08704
 0.17528  0.36846  0.08543
 0.24329  0.36768  0.08381
 0.31130  0.36689  0.08220
 0.37931  0.36610  0.08059
 0.44732  0.36531  0.07897
 0.51532  0.36452  0.07736
 0.58333  0.36374  0.07575
 0.65134  0.36295  0.07413
 0.71935  0.36216  0.07252
 0.78736  0.36137  0.07091
 0.85537  0.36059  0.06929
 0.92338  0.35980  0.06768
 0.99138  0.35901  0.06607
 1.00000  0.35822  0.06446
 0.00000  0.43944  0.08868
 0.03768  0.43865  0.08707
 0.10569  0.43787  0.08545
 0.17370  0.43708  0.08384
 0.24171  0.43629  0.08223
 0.30971  0.43550  0.08061
 0.37772  0.43472  0.07900
 0.44573  0.43393  0.07739
 0.51374  0.43314  0.07578
 0.58175  0.43235  0.07416
 0.64976  0.43156  0.07255
 0.71777  0.43078  0.07094
 0.78577  0.42999  0.06932
 0.85378  0.42920  0.06771
 0.92179  0.42841  0.06610
 0.98980  0.42763  0.06448
 1.00000  0.42684  0.06287
 0.00000  0.50806  0.08709
 0.03610  0.50727  0.08548
 0.10410  0.50648  0.08387
 0.17211  0.50569  0.08226
 0.24012  0.50491  0.08064
 0.30813  0.50412  0.07903
 0.37614  0.50333  0.07742
 0.44415  0.50254  0.07580
 0.51216  0.50176  0.07419
 0.58016  0.50097  0.07258
 0.64817  0.50018  0.07096
 0.71618  0.49939  0.06935
 0.78419  0.49860  0.06774
 0.85220  0.49782  0.06612
 0.92021  0.49703  0.06451
 0.98821  0.49624  0.06290
 1.00000  0.49545  0.06129
 0.00000  0.57667  0.08551
 0.03451  0.57588  0.08390
 0.10252  0.57510  0.08228
 0.17053  0.57431  0.08067
 0.23854  0.57352  0.07906
 0.30654  0.57273  0.07744
 0.37455  0.57195  0.07583
 0.44256  0.57116  0.07422
 0.51057  0.57037  0.07261
 0.57858  0.56958  0.07099
 0.64659  0.56880  0.06938
 0.71460  0.56801  0.06777
 0.78260  0.56722  0.06615
 0.85061  0.56643  0.06454
 0.91862  0.56565  0.06293
 0.98663  0.56486  0.06131
 1.00000  0.56407  0.05970
 0.00000  0.64529  0.08393
 0.03293  0.64450  0.08231
 0.10093  0.64371  0.08070
 0.16894  0.64292  0.07909
 0.23695  0.64214  0.07747
 0.30496  0.64135  0.07586
 0.37297  0.64056  0.07425
 0.44098  0.63977  0.07263
 0.50899  0.63899  0.07102
 0.57699  0.63820  0.06941
 0.64500  0.63741  0.06779
 0.71301  0.63662  0.06618
 0.78102  0.63584  0.06457
 0.84903  0.63505  0.06296
 0.91704  0.63426  0.06134
 0.98504  0.63347  0.05973
 1.00000  0.63269  0.05812
 0.00000  0.71390  0.08234
 0.03134  0.71311  0.08073
 0.09935  0.71233  0.07911
 0.16736  0.71154  0.07750
 0.23537  0.71075  0.07589
 0.30338  0.70996  0.07427
 0.37138  0.70918  0.07266
 0.43939  0.70839  0.07105
 0.50740  0.70760  0.06944
 0.57541  0.70681  0.06782
 0.64342  0.70603  0.06621
 0.71143  0.70524  0.06460
 0.77943  0.70445  0.06298
 0.84744  0.70366  0.06137
 0.91545  0.70288  0.05976
 0.98346  0.70209  0.05814
 1.00000  0.70130  0.05653
 0.00000  0.78252  0.08076
 0.02976  0.78173  0.07914
 0.09776  0.78094  0.07753
 0.16577  0.78015  0.07592
 0.23378  0.77937  0.07430
 0.30179  0.77858  0.07269
 0.36980  0.77779  0.07108
 0.43781  0.77700  0.06946
 0.50582  0.77622  0.06785
 0.57382  0.77543  0.06624
 0.64183  0.77464  0.06462
 0.70984  0.77385  0.06301
 0.77785  0.77307  0.06140
 0.84586  0.77228  0.05979
 0.91387  0.77149  0.05817
 0.98187  0.77070  0.05656
 1.00000  0.76992  0.05495
 0.00000  0.85113  0.07917
 0.02817  0.85034  0.07756
 0.09618  0.84956  0.07594
 0.16419  0.84877  0.07433
 0.23220  0.84798  0.07272
 0.30021  0.84719  0.07111
 0.36821  0.84641  0.06949
 0.43622  0.84562  0.06788
 0.50423  0.84483  0.06627
 0.57224  0.84404  0.06465
 0.64025  0.84326  0.06304
 0.70826  0.84247  0.06143
 0.77626  0.84168  0.05981
 0.84427  0.84089  0.05820
 0.91228  0.84011  0.05659
 0.98029  0.83932  0.05497
 1.00000  0.83853  0.05336
 0.00000  0.91975  0.07759
 0.02659  0.91896  0.07597
 0.09459  0.91817  0.07436
 0.16260  0.91738  0.07275
 0.23061  0.91660  0.07113
 0.29862  0.91581  0.06952
 0.36663  0.91502  0.06791
 0.43464  0.91423  0.06629
 0.50265  0.91345  0.06468
 0.57065  0.91266  0.06307
 0.63866  0.91187  0.06145
 0.70667  0.91108  0.05984
 0.77468  0.91030  0.05823
 0.84269  0.90951  0.05662
 0.91070  0.90872  0.05500
 0.97870  0.90793  0.05339
 1.00000  0.90715  0.05178
 0.00000  0.98836  0.07600
 0.02500  0.98757  0.07439
 0.09301  0.98679  0.07277
 0.16102  0.98600  0.07116
 0.22903  0.98521  0.06955
 0.29704  0.98442  0.06794
 0.36504  0.98364  0.06632
 0.43305  0.98285  0.06471
 0.50106  0.98206  0.06310
 0.56907  0.98127  0.06148
 0.63708  0.98049  0.05987
 0.70509  0.97970  0.05826
 0.77309  0.97891  0.05664
 0.84110  0.97812  0.05503
 0.90911  0.97734  0.05342
 0.97712  0.97655  0.05180
 1.00000  0.97576  0.05019
 0.00000  1.00000  0.07442
 0.02342  1.00000  0.07280
 0.09143  1.00000  0.07119
 0.15943  1.00000  0.06958
 0.22744  1.00000  0.06796
 0.29545  1.00000  0.06635
 0.36346  1.00000  0.06474
 0.43147  1.00000  0.06312
 0.49948  1.00000  0.06151
 0.56748  1.00000  0.05990
 0.63549  1.00000  0.05828
 0.70350  1.00000  0.05667
 0.77151  1.00000  0.05506
 0.83952  1.00000  0.05345
 0.90753  1.00000  0.05183
 0.97554  1.00000  0.05022
 1.00000  1.00000  0.04861
 0.00000  0.00000  0.16967
 0.04847  0.00000  0.16805
 0.11648  0.00000  0.16644
 0.18448  0.00000  0.16483
 0.25249  0.00000  0.16321
 0.32050  0.00000  0.16160
 0.38851  0.00000  0.15999
 0.45652  0.00000  0.15837
 0.52453  0.00000  0.15676
 0.59253  0.00000  0.15515
 0.66054  0.00000  0.15354
 0.72855  0.00000  0.15192
 0.79656  0.00000  0.15031
 0.86457  0.00000  0.14870
 0.93258  0.00000  0.14708
 1.00000  0.00000  0.14547
 1.00000  0.00000  0.14386
