src/assets/luts/kodak-2383.cube
TITLE "Kodak 2383"
LUT_3D_SIZE 9
DOMAIN_MIN 0.0 0.0 0.0
DOMAIN_MAX 1.0 1.0 1.0
# LumEdit built-in LUT · 经典柯达电影胶片，暖调奶油高光
 0.00000  0.00000  0.00000
 0.11740  0.00000  0.00000
 0.25342  0.00000  0.00000
 0.38943  0.00000  0.00000
 0.52545  0.00000  0.00000
 0.66147  0.00000  0.00000
 0.79748  0.00000  0.00000
 0.93350  0.00000  0.00000
 1.00000  0.00000  0.00000
 0.00000  0.09698  0.00000
 0.11423  0.09541  0.00000
 0.25025  0.09383  0.00000
 0.38626  0.09226  0.00000
 0.52228  0.09068  0.00000
 0.65830  0.08911  0.00000
 0.79431  0.08753  0.00000
 0.93033  0.08595  0.00000
 1.00000  0.08438  0.00000
 0.00000  0.23421  0.00000
 0.11106  0.23264  0.00000
 0.24708  0.23106  0.00000
 0.38309  0.22949  0.00000
 0.51911  0.22791  0.00000
 0.65513  0.22634  0.00000
 0.79114  0.22476  0.00000
 0.92716  0.22319  0.00000
 1.00000  0.22161  0.00000
 0.00000  0.37144  0.00000
 0.10789  0.36987  0.00000
 0.24391  0.36829  0.00000
 0.37992  0.36672  0.00000
 0.51594  0.36514  0.00000
 0.65196  0.36357  0.00000
 0.78797  0.36199  0.00000
 0.92399  0.36042  0.00000
 1.00000  0.35884  0.00000
 0.00000  0.50867  0.00000
 0.10472  0.50710  0.00000
 0.24074  0.50552  0.00000
 0.37675  0.50395  0.00000
 0.51277  0.50237  0.00000
 0.64879  0.50080  0.00000
 0.78480  0.49922  0.00000
 0.92082  0.49765  0.00000
 1.00000  0.49607  0.00000
 0.00000  0.64590  0.00000
 0.10155  0.64433  0.00000
 0.23757  0.64275  0.00000
 0.37358  0.64118  0.00000
 0.50960  0.63960  0.00000
 0.64562  0.63803  0.00000
 0.78163  0.63645  0.00000
 0.91765  0.63488  0.00000
 1.00000  0.63330  0.00000
 0.00000  0.78313  0.00000
 0.09838  0.78156  0.00000
 0.23440  0.77998  0.00000
 0.37041  0.77841  0.00000
 0.50643  0.77683  0.00000
 0.64245  0.77526  0.00000
 0.77846  0.77368  0.00000
 0.91448  0.77211  0.00000
 1.00000  0.77053  0.00000
 0.00000  0.92036  0.00000
 0.09521  0.91879  0.00000
 0.23123  0.91721  0.00000
 0.36724  0.91564  0.00000
 0.50326  0.91406  0.00000
 0.63928  0.91249  0.00000
 0.77530  0.91091  0.00000
 0.91131  0.90934  0.00000
 1.00000  0.90776  0.00000
 0.00000  1.00000  0.00000
 0.09204  1.00000  0.00000
 0.22806  1.00000  0.00000
 0.36407  1.00000  0.00000
 0.50009  1.00000  0.00000
 0.63611  1.00000  0.00000
 0.77213  1.00000  0.00000
 0.90814  1.00000  0.00000
 1.00000  1.00000  0.00000
 0.00000  0.00000  0.09977
 0.11678  0.00000  0.09655
 0.25280  0.00000  0.09332
 0.38882  0.00000  0.09010
 0.52483  0.00000  0.08687
 0.66085  0.00000  0.08364
 0.79687  0.00000  0.08042
 0.93289  0.00000  0.07719
 1.00000  0.00000  0.07396
 0.00000  0.09636  0.09660
 0.11361  0.09479  0.09338
 0.24963  0.09321  0.09015
 0.38565  0.09164  0.08693
 0.52166  0.09006  0.08370
 0.65768  0.08849  0.08047
 0.79370  0.08691  0.07725
 0.92972  0.08534  0.07402
 1.00000  0.08376  0.07080
 0.00000  0.23359  0.09343
 0.11044  0.23202  0.09021
 0.24646  0.23044  0.08698
 0.38248  0.22887  0.08376
 0.51849  0.22729  0.08053
 0.65451  0.22572  0.07730
 0.79053  0.22414  0.07408
 0.92655  0.22257  0.07085
 1.00000  0.22099  0.06763
 0.00000  0.37083  0.09026
 0.10727  0.36925  0.08704
 0.24329  0.36768  0.08381
 0.37931  0.36610  0.08059
 0.51532  0.36452  0.07736
 0.65134  0.36295  0.07413
 0.78736  0.36137  0.07091
 0.92338  0.35980  0.06768
 1.00000  0.35822  0.06446
 0.00000  0.50806  0.08709
 0.10410  0.50648  0.08387
 0.24012  0.50491  0.08064
 0.37614  0.50333  0.07742
 0.51216  0.50176  0.07419
 0.64817  0.50018  0.07096
 0.78419  0.49860  0.06774
 0.92021  0.49703  0.06451
 1.00000  0.49545  0.06129
 0.00000  0.64529  0.08393
 0.10093  0.64371  0.08070
 0.23695  0.64214  0.07747
 0.37297  0.64056  0.07425
 0.50899  0.63899  0.07102
 0.64500  0.63741  0.06779
 0.78102  0.63584  0.06457
 0.91704  0.63426  0.06134
 1.00000  0.63269  0.05812
 0.00000  0.78252  0.08076
 0.09776  0.78094  0.07753
 0.23378  0.77937  0.07430
 0.36980  0.77779  0.07108
 0.50582  0.77622  0.06785
 0.64183  0.77464  0.06462
 0.77785  0.77307  0.06140
 0.91387  0.77149  0.05817
 1.00000  0.76992  0.05495
 0.00000  0.91975  0.07759
 0.09459  0.91817  0.07436
 0.23061  0.91660  0.07113
 0.36663  0.91502  0.06791
 0.50265  0.91345  0.06468
 0.63866  0.91187  0.06145
 0.77468  0.91030  0.05823
 0.91070  0.90872  0.05500
 1.00000  0.90715  0.05178
 0.00000  1.00000  0.07442
 0.09143  1.00000  0.07119
 0.22744  1.00000  0.06796
 0.36346  1.00000  0.06474
 0.49948  1.00000  0.06151
 0.63549  1.00000  0.05828
 0.77151  1.00000  0.05506
 0.90753  1.00000  0.05183
 1.00000  1.00000  0.04861
 0.00000  0.00000  0.23956
 0.11617  0.00000  0.23633
 0.25218  0.00000  0.23311
 0.38820  0.00000  0.22988
 0.52422  0.00000  0.22665
 0.66024  0.00000  0.22343
 0.79625  0.00000  0.22020
 0.93227  0.00000  0.21698
 1.00000  0.00000  0.21375
 0.00000  0.09575  0.23639
 0.11300  0.09417  0.23316
 0.24902  0.09260  0.22994
 0.38503  0.09102  0.22671
 0.52105  0.08945  0.22348
 0.65707  0.08787  0.22026
 0.79308  0.08630  0.21703
 0.92910  0.08472  0.21381
 1.00000  0.08315  0.21058
 0.00000  0.23298  0.23322
 0.10983  0.23140  0.22999
 0.24585  0.22983  0.22677
 0.38186  0.22825  0.22354
 0.51788  0.22668  0.22031
 0.65390  0.22510  0.21709
 0.78991  0.22353  0.21386
 0.92593  0.22195  0.21064
 1.00000  0.22038  0.20741
 0.00000  0.37021  0.23005
 0.10666  0.36863  0.22682
 0.24268  0.36706  0.22360
 0.37869  0.36548  0.22037
 0.51471  0.36391  0.21714
 0.65073  0.36233  0.21392
 0.78674  0.36076  0.21069
 0.92276  0.35918  0.20747
 1.00000  0.35761  0.20424
 0.00000  0.50744  0.22688
 0.10349  0.50586  0.22365
 0.23951  0.50429  0.22043
 0.37552  0.50271  0.21720
 0.51154  0.50114  0.21397
 0.64756  0.49956  0.21075
 0.78357  0.49799  0.20752
 0.91959  0.49641  0.20430
 1.00000  0.49484  0.20107
 0.00000  0.64467  0.22371
 0.10032  0.64309  0.22048
 0.23634  0.64152  0.21726
 0.37235  0.63994  0.21403
 0.50837  0.63837  0.21080
 0.64439  0.63679  0.20758
 0.78040  0.63522  0.20435
 0.91642  0.63364  0.20113
 1.00000  0.63207  0.19790
 0.00000  0.78190  0.22054
 0.09715  0.78033  0.21731
 0.23317  0.77875  0.21409
 0.36918  0.77717  0.21086
 0.50520  0.77560  0.20764
 0.64122  0.77402  0.20441
 0.77723  0.77245  0.20118
 0.91325  0.77087  0.19796
 1.00000  0.76930  0.19473
 0.00000  0.91913  0.21737
 0.09398  0.91756  0.21414
 0.23000  0.91598  0.21092
 0.36601  0.91441  0.20769
 0.50203  0.91283  0.20447
 0.63805  0.91126  0.20124
 0.77406  0.90968  0.19801
 0.91008  0.90810  0.19479
 1.00000  0.90653  0.19156
 0.00000  1.00000  0.21420
 0.09081  1.00000  0.21097
 0.22683  1.00000  0.20775
 0.36284  1.00000  0.20452
 0.49886  1.00000  0.20130
 0.63488  1.00000  0.19807
 0.77089  1.00000  0.19484
 0.90691  1.00000  0.19162
 1.00000  1.00000  0.18839
 0.00000  0.00000  0.37934
 0.11555  0.00000  0.37612
 0.25157  0.00000  0.37289
 0.38759  0.00000  0.36966
 0.52360  0.00000  0.36644
 0.65962  0.00000  0.36321
 0.79564  0.00000  0.35999
 0.93165  0.00000  0.35676
 1.00000  0.00000  0.35353
 0.00000  0.09513  0.37617
 0.11238  0.09356  0.37295
 0.24840  0.09198  0.36972
 0.38442  0.09041  0.36649
 0.52043  0.08883  0.36327
 0.65645  0.08726  0.36004
 0.79247  0.08568  0.35682
 0.92848  0.08411  0.35359
 1.00000  0.08253  0.35036
 0.00000  0.23236  0.37300
 0.10921  0.23079  0.36978
 0.24523  0.22921  0.36655
 0.38125  0.22764  0.36332
 0.51726  0.22606  0.36010
 0.65328  0.22449  0.35687
 0.78930  0.22291  0.35365
 0.92531  0.22134  0.35042
 1.00000  0.21976  0.34719
 0.00000  0.36959  0.36983
 0.10604  0.36802  0.36661
 0.24206  0.36644  0.36338
 0.37808  0.36487  0.36016
 0.51409  0.36329  0.35693
 0.65011  0.36172  0.35370
 0.78613  0.36014  0.35048
 0.92214  0.35857  0.34725
 1.00000  0.35699  0.34402
 0.00000  0.50682  0.36666
 0.10287  0.50525  0.36344
 0.23889  0.50367  0.36021
 0.37491  0.50210  0.35699
 0.51092  0.50052  0.35376
 0.64694  0.49895  0.35053
 0.78296  0.49737  0.34731
 0.91897  0.49580  0.34408
 1.00000  0.49422  0.34085
 0.00000  0.64405  0.36349
 0.09970  0.64248  0.36027
 0.23572  0.64090  0.35704
 0.37174  0.63933  0.35382
 0.50775  0.63775  0.35059
 0.64377  0.63618  0.34736
 0.77979  0.63460  0.34414
 0.91580  0.63303  0.34091
 1.00000  0.63145  0.33768
 0.00000  0.78128  0.36032
 0.09653  0.77971  0.35710
 0.23255  0.77813  0.35387
 0.36857  0.77656  0.35065
 0.50458  0.77498  0.34742
 0.64060  0.77341  0.34419
 0.77662  0.77183  0.34097
 0.91264  0.77026  0.33774
 1.00000  0.76868  0.33451
 0.00000  0.91851  0.35715
 0.09336  0.91694  0.35393
 0.22938  0.91536  0.35070
 0.36540  0.91379  0.34748
 0.50141  0.91221  0.34425
 0.63743  0.91064  0.34102
 0.77345  0.90906  0.33780
 0.90947  0.90749  0.33457
 1.00000  0.90591  0.33135
 0.00000  1.00000  0.35398
 0.09019  1.00000  0.35076
 0.22621  1.00000  0.34753
 0.36223  1.00000  0.34431
 0.49824  1.00000  0.34108
 0.63426  1.00000  0.33785
 0.77028  1.00000  0.33463
 0.90630  1.00000  0.33140
 1.00000  1.00000  0.32818
 0.00000  0.00000  0.51913
 0.11494  0.00000  0.51590
 0.25095  0.00000  0.51268
 0.38697  0.00000  0.50945
 0.52299  0.00000  0.50622
 0.65900  0.00000  0.50300
 0.79502  0.00000  0.49977
 0.93104  0.00000  0.49654
 1.00000  0.00000  0.49332
 0.00000  0.09452  0.51596
 0.11177  0.09294  0.51273
 0.24778  0.09137  0.50951
 0.38380  0.08979  0.50628
 0.51982  0.08822  0.50305
 0.65583  0.08664  0.49983
 0.79185  0.08507  0.49660
 0.92787  0.08349  0.49337
 1.00000  0.08192  0.49015
 0.00000  0.23175  0.51279
 0.10860  0.23017  0.50956
 0.24461  0.22860  0.50634
 0.38063  0.22702  0.50311
 0.51665  0.22545  0.49988
 0.65266  0.22387  0.49666
 0.78868  0.22230  0.49343
 0.92470  0.22072  0.49020
 1.00000  0.21915  0.48698
 0.00000  0.36898  0.50962
 0.10543  0.36740  0.50639
 0.24144  0.36583  0.50317
 0.37746  0.36425  0.49994
 0.51348  0.36268  0.49671
 0.64950  0.36110  0.49349
 0.78551  0.35953  0.49026
 0.92153  0.35795  0.48703
 1.00000  0.35638  0.48381
 0.00000  0.50621  0.50645
 0.10226  0.50463  0.50322
 0.23827  0.50306  0.50000
 0.37429  0.50148  0.49677
 0.51031  0.49991  0.49354
 0.64633  0.49833  0.49032
 0.78234  0.49676  0.48709
 0.91836  0.49518  0.48386
 1.00000  0.49361  0.48064
 0.00000  0.64344  0.50328
 0.09909  0.64186  0.50005
 0.23510  0.64029  0.49683
 0.37112  0.63871  0.49360
 0.50714  0.63714  0.49037
 0.64316  0.63556  0.48715
 0.77917  0.63399  0.48392
 0.91519  0.63241  0.48070
 1.00000  0.63084  0.47747
 0.00000  0.78067  0.50011
 0.09592  0.77909  0.49688
 0.23193  0.77752  0.49366
 0.36795  0.77594  0.49043
 0.50397  0.77437  0.48720
 0.63999  0.77279  0.48398
 0.77600  0.77122  0.48075
 0.91202  0.76964  0.47753
 1.00000  0.76807  0.47430
 0.00000  0.91790  0.49694
 0.09275  0.91632  0.49371
 0.22877  0.91475  0.49049
 0.36478  0.91317  0.48726
 0.50080  0.91160  0.48403
 0.63682  0.91002  0.48081
 0.77283  0.90845  0.47758
 0.90885  0.90687  0.47436
 1.00000  0.90530  0.47113
 0.00000  1.00000  0.49377
 0.08958  1.00000  0.49054
 0.22560  1.00000  0.48732
 0.36161  1.00000  0.48409
 0.49763  1.00000  0.48086
 0.63365  1.00000  0.47764
 0.76966  1.00000  0.47441
 0.90568  1.00000  0.47119
 1.00000  1.00000  0.46796
 0.00000  0.00000  0.65891
 0.11432  0.00000  0.65569
 0.25034  0.00000  0.65246
 0.38635  0.00000  0.64923
 0.52237  0.00000  0.64601
 0.65839  0.00000  0.64278
 0.79441  0.00000  0.63955
 0.93042  0.00000  0.63633
 1.00000  0.00000  0.63310
 0.00000  0.09390  0.65574
 0.11115  0.09233  0.65252
 0.24717  0.09075  0.64929
 0.38319  0.08918  0.64606
 0.51920  0.08760  0.64284
 0.65522  0.08603  0.63961
 0.79124  0.08445  0.63638
 0.92725  0.08288  0.63316
 1.00000  0.08130  0.62993
 0.00000  0.23113  0.65257
 0.10798  0.22956  0.64935
 0.24400  0.22798  0.64612
 0.38002  0.22641  0.64289
 0.51603  0.22483  0.63967
 0.65205  0.22326  0.63644
 0.78807  0.22168  0.63322
 0.92408  0.22011  0.62999
 1.00000  0.21853  0.62676
 0.00000  0.36836  0.64940
 0.10481  0.36679  0.64618
 0.24083  0.36521  0.64295
 0.37685  0.36364  0.63972
 0.51286  0.36206  0.63650
 0.64888  0.36049  0.63327
 0.78490  0.35891  0.63005
 0.92091  0.35734  0.62682
 1.00000  0.35576  0.62359
 0.00000  0.50559  0.64623
 0.10164  0.50402  0.64301
 0.23766  0.50244  0.63978
 0.37368  0.50087  0.63655
 0.50969  0.49929  0.63333
 0.64571  0.49772  0.63010
 0.78173  0.49614  0.62688
 0.91774  0.49457  0.62365
 1.00000  0.49299  0.62042
 0.00000  0.64282  0.64306
 0.09847  0.64125  0.63984
 0.23449  0.63967  0.63661
 0.37051  0.63810  0.63338
 0.50652  0.63652  0.63016
 0.64254  0.63495  0.62693
 0.77856  0.63337  0.62371
 0.91457  0.63180  0.62048
 1.00000  0.63022  0.61725
 0.00000  0.78005  0.63989
 0.09530  0.77848  0.63667
 0.23132  0.77690  0.63344
 0.36734  0.77533  0.63021
 0.50335  0.77375  0.62699
 0.63937  0.77218  0.62376
 0.77539  0.77060  0.62054
 0.91140  0.76903  0.61731
 1.00000  0.76745  0.61408
 0.00000  0.91728  0.63672
 0.09213  0.91571  0.63350
 0.22815  0.91413  0.63027
 0.36417  0.91256  0.62704
 0.50018  0.91098  0.62382
 0.63620  0.90941  0.62059
 0.77222  0.90783  0.61737
 0.90823  0.90626  0.61414
 1.00000  0.90468  0.61091
 0.00000  1.00000  0.63355
 0.08896  1.00000  0.63033
 0.22498  1.00000  0.62710
 0.36100  1.00000  0.62387
 0.49701  1.00000  0.62065
 0.63303  1.00000  0.61742
 0.76905  1.00000  0.61420
 0.90506  1.00000  0.61097
 1.00000  1.00000  0.60774
 0.00000  0.00000  0.79870
 0.11371  0.00000  0.79547
 0.24972  0.00000  0.79224
 0.38574  0.00000  0.78902
 0.52176  0.00000  0.78579
 0.65777  0.00000  0.78257
 0.79379  0.00000  0.77934
 0.92981  0.00000  0.77611
 1.00000  0.00000  0.77289
 0.00000  0.09329  0.79553
 0.11054  0.09171  0.79230
 0.24655  0.09014  0.78907
 0.38257  0.08856  0.78585
 0.51859  0.08699  0.78262
 0.65460  0.08541  0.77940
 0.79062  0.08384  0.77617
 0.92664  0.08226  0.77294
 1.00000  0.08069  0.76972
 0.00000  0.23052  0.79236
 0.10737  0.22894  0.78913
 0.24338  0.22737  0.78590
 0.37940  0.22579  0.78268
 0.51542  0.22422  0.77945
 0.65143  0.22264  0.77623
 0.78745  0.22107  0.77300
 0.92347  0.21949  0.76977
 1.00000  0.21792  0.76655
 0.00000  0.36775  0.78919
 0.10420  0.36617  0.78596
 0.24021  0.36460  0.78273
 0.37623  0.36302  0.77951
 0.51225  0.36145  0.77628
 0.64826  0.35987  0.77306
 0.78428  0.35830  0.76983
 0.92030  0.35672  0.76660
 1.00000  0.35515  0.76338
 0.00000  0.50498  0.78602
 0.10103  0.50340  0.78279
 0.23704  0.50183  0.77956
 0.37306  0.50025  0.77634
 0.50908  0.49868  0.77311
 0.64509  0.49710  0.76989
 0.78111  0.49553  0.76666
 0.91713  0.49395  0.76343
 1.00000  0.49238  0.76021
 0.00000  0.64221  0.78285
 0.09786  0.64063  0.77962
 0.23387  0.63906  0.77639
 0.36989  0.63748  0.77317
 0.50591  0.63591  0.76994
 0.64192  0.63433  0.76672
 0.77794  0.63276  0.76349
 0.91396  0.63118  0.76026
 1.00000  0.62961  0.75704
 0.00000  0.77944  0.77968
 0.09469  0.77786  0.77645
 0.23070  0.77629  0.77323
 0.36672  0.77471  0.77000
 0.50274  0.77314  0.76677
 0.63875  0.77156  0.76355
 0.77477  0.76999  0.76032
 0.91079  0.76841  0.75709
 1.00000  0.76684  0.75387
 0.00000  0.91667  0.77651
 0.09152  0.91509  0.77328
 0.22753  0.91352  0.77006
 0.36355  0.91194  0.76683
 0.49957  0.91037  0.76360
 0.63558  0.90879  0.76038
 0.77160  0.90722  0.75715
 0.90762  0.90564  0.75392
 1.00000  0.90407  0.75070
 0.00000  1.00000  0.77334
 0.08835  1.00000  0.77011
 0.22436  1.00000  0.76689
 0.36038  1.00000  0.76366
 0.49640  1.00000  0.76043
 0.63241  1.00000  0.75721
 0.76843  1.00000  0.75398
 0.90445  1.00000  0.75075
 1.00000  1.00000  0.74753
 0.00000  0.00000  0.93848
 0.11309  0.00000  0.93525
 0.24911  0.00000  0.93203
 0.38512  0.00000  0.92880
 0.52114  0.00000  0.92558
 0.65716  0.00000  0.92235
 0.79317  0.00000  0.91912
 0.92919  0.00000  0.91590
 1.00000  0.00000  0.91267
 0.00000  0.09267  0.93531
 0.10992  0.09110  0.93208
 0.24594  0.08952  0.92886
 0.38195  0.08795  0.92563
 0.51797  0.08637  0.92241
 0.65399  0.08480  0.91918
 0.79000  0.08322  0.91595
 0.92602  0.08165  0.91273
 1.00000  0.08007  0.90950
 0.00000  0.22990  0.93214
 0.10675  0.22833  0.92891
 0.24277  0.22675  0.92569
 0.37878  0.22518  0.92246
 0.51480  0.22360  0.91924
 0.65082  0.22203  0.91601
 0.78683  0.22045  0.91278
 0.92285  0.21888  0.90956
 1.00000  0.21730  0.90633
 0.00000  0.36713  0.92897
 0.10358  0.36556  0.92575
 0.23960  0.36398  0.92252
 0.37561  0.36241  0.91929
 0.51163  0.36083  0.91607
 0.64765  0.35926  0.91284
 0.78367  0.35768  0.90961
 0.91968  0.35611  0.90639
 1.00000  0.35453  0.90316
 0.00000  0.50436  0.92580
 0.10041  0.50279  0.92258
 0.23643  0.50121  0.91935
 0.37244  0.49964  0.91612
 0.50846  0.49806  0.91290
 0.64448  0.49649  0.90967
 0.78050  0.49491  0.90644
 0.91651  0.49334  0.90322
 1.00000  0.49176  0.89999
 0.00000  0.64159  0.92263
 0.09724  0.64002  0.91941
 0.23326  0.63844  0.91618
 0.36927  0.63687  0.91295
 0.50529  0.63529  0.90973
 0.64131  0.63372  0.90650
 0.77733  0.63214  0.90327
 0.91334  0.63057  0.90005
 1.00000  0.62899  0.89682
 0.00000  0.77882  0.91946
 0.09407  0.77725  0.91624
 0.23009  0.77567  0.91301
 0.36610  0.77410  0.90978
 0.50212  0.77252  0.90656
 0.63814  0.77095  0.90333
 0.77416  0.76937  0.90010
 0.91017  0.76780  0.89688
 1.00000  0.76622  0.89365
 0.00000  0.91605  0.91629
 0.09090  0.91448  0.91307
 0.22692  0.91290  0.90984
 0.36294  0.91133  0.90661
 0.49895  0.90975  0.90339
 0.63497  0.90818  0.90016
 0.77099  0.90660  0.89693
 0.90700  0.90503  0.89371
 1.00000  0.90345  0.89048
 0.00000  1.00000  0.91312
 0.08773  1.00000  0.90990
 0.22375  1.00000  0.90667
 0.35977  1.00000  0.90344
 0.49578  1.00000  0.90022
 0.63180  1.00000  0.89699
 0.76782  1.00000  0.89377
 0.90383  1.00000  0.89054
 1.00000  1.00000  0.88731
 0.00000  0.00000  1.00000
 0.11247  0.00000  1.00000
 0.24849  0.00000  1.00000
 0.38451  0.00000  1.00000
 0.52053  0.00000  1.00000
 0.65654  0.00000  1.00000
 0.79256  0.00000  1.00000
 0.92858  0.00000  1.00000
 1.00000  0.00000  1.00000
 0.00000  0.09206  1.00000
 0.10930  0.09048  1.00000
 0.24532  0.08891  1.00000
 0.38134  0.08733  1.00000
 0.51736  0.08576  1.00000
 0.65337  0.08418  1.00000
 0.78939  0.08261  1.00000
 0.92541  0.08103  1.00000
 1.00000  0.07946  1.00000
 0.00000  0.22929  1.00000
 0.10613  0.22771  1.00000
 0.24215  0.22614  1.00000
 0.37817  0.22456  1.00000
 0.51419  0.22299  1.00000
 0.65020  0.22141  1.00000
 0.78622  0.21984  1.00000
 0.92224  0.21826  1.00000
 1.00000  0.21669  1.00000
 0.00000  0.36652  1.00000
 0.10296  0.36494  1.00000
 0.23898  0.36337  1.00000
 0.37500  0.36179  1.00000
 0.51102  0.36022  1.00000
 0.64703  0.35864  1.00000
 0.78305  0.35707  1.00000
 0.91907  0.35549  1.00000
 1.00000  0.35392  1.00000
 0.00000  0.50375  1.00000
 0.09980  0.50217  1.00000
 0.23581  0.50060  1.00000
 0.37183  0.49902  1.00000
 0.50785  0.49745  1.00000
 0.64386  0.49587  1.00000
 0.77988  0.49430  1.00000
 0.91590  0.49272  1.00000
 1.00000  0.49115  1.00000
 0.00000  0.64098  1.00000
 0.09663  0.63940  1.00000
 0.23264  0.63783  1.00000
 0.36866  0.63625  1.00000
 0.50468  0.63468  1.00000
 0.64069  0.63310  1.00000
 0.77671  0.63153  1.00000
 0.91273  0.62995  1.00000
 1.00000  0.62838  1.00000
 0.00000  0.77821  1.00000
 0.09346  0.77663  1.00000
 0.22947  0.77506  1.00000
 0.36549  0.77348  1.00000
 0.50151  0.77191  1.00000
 0.63752  0.77033  1.00000
 0.77354  0.76876  1.00000
 0.90956  0.76718  1.00000
 1.00000  0.76561  1.00000
 0.00000  0.91544  1.00000
 0.09029  0.91386  1.00000
 0.22630  0.91229  1.00000
 0.36232  0.91071  1.00000
 0.49834  0.90914  1.00000
 0.63435  0.90756  1.00000
 0.77037  0.90599  1.00000
 0.90639  0.90441  1.00000
 1.00000  0.90284  1.00000
 0.00000  1.00000  1.00000
 0.08712  1.00000  1.00000
 0.22313  1.00000  1.00000
 0.35915  1.00000  1.00000
 0.49517  1.00000  1.00000
 0.63118  1.00000  1.00000
 0.76720  1.00000  1.00000
 0.90322  1.00000  1.00000
 1.00000  1.00000  1.00000
