src/assets/luts/portra-400.cube
TITLE "Portra 400"
LUT_3D_SIZE 17
DOMAIN_MIN 0.0 0.0 0.0
DOMAIN_MAX 1.0 1.0 1.0
# LumEdit built-in LUT · 柯达 Portra，柔和暖肤
 0.06500  0.05500  0.04500
 0.12105  0.05642  0.04642
 0.17709  0.05784  0.04784
 0.23314  0.05926  0.04926
 0.28918  0.06068  0.05068
 0.34523  0.06210  0.05210
 0.40127  0.06352  0.05352
 0.45732  0.06494  0.05494
 0.51336  0.06636  0.05636
 0.56941  0.06778  0.05778
 0.62545  0.06920  0.05920
 0.68150  0.07062  0.06062
 0.73754  0.07204  0.06204
 0.79359  0.07346  0.06346
 0.84963  0.07488  0.06488
 0.90568  0.07630  0.06630
 0.96172  0.07772  0.06772
 0.06779  0.11241  0.04779
 0.12383  0.11383  0.04921
 0.17988  0.11525  0.05063
 0.23592  0.11667  0.05205
 0.29197  0.11809  0.05347
 0.34801  0.11951  0.05489
 0.40406  0.12093  0.05631
 0.46011  0.12235  0.05773
 0.51615  0.12378  0.05915
 0.57220  0.12520  0.06057
 0.62824  0.12662  0.06199
 0.68429  0.12804  0.06341
 0.74033  0.12946  0.06483
 0.79638  0.13088  0.06625
 0.85242  0.13230  0.06767
 0.90847  0.13372  0.06909
 0.96451  0.13514  0.07051
 0.07058  0.16983  0.05058
 0.12662  0.17125  0.05200
 0.18267  0.17267  0.05342
 0.23871  0.17409  0.05484
 0.29476  0.17551  0.05626
 0.35080  0.17693  0.05768
 0.40685  0.17835  0.05910
 0.46289  0.17977  0.06052
 0.51894  0.18119  0.06194
 0.57498  0.18261  0.06336
 0.63103  0.18403  0.06478
 0.68707  0.18545  0.06620
 0.74312  0.18687  0.06762
 0.79916  0.18829  0.06904
 0.85521  0.18971  0.07046
 0.91126  0.19113  0.07188
 0.96730  0.19255  0.07330
 0.07336  0.22724  0.05336
 0.12941  0.22866  0.05479
 0.18546  0.23008  0.05621
 0.24150  0.23150  0.05763
 0.29755  0.23292  0.05905
 0.35359  0.23434  0.06047
 0.40964  0.23576  0.06189
 0.46568  0.23718  0.06331
 0.52173  0.23860  0.06473
 0.57777  0.24002  0.06615
 0.63382  0.24144  0.06757
 0.68986  0.24286  0.06899
 0.74591  0.24428  0.07041
 0.80195  0.24570  0.07183
 0.85800  0.24712  0.07325
 0.91404  0.24854  0.07467
 0.97009  0.24996  0.07609
 0.07615  0.28465  0.05615
 0.13220  0.28607  0.05757
 0.18824  0.28749  0.05899
 0.24429  0.28891  0.06041
 0.30033  0.29033  0.06183
 0.35638  0.29175  0.06325
 0.41242  0.29317  0.06467
 0.46847  0.29459  0.06609
 0.52452  0.29602  0.06752
 0.58056  0.29744  0.06894
 0.63661  0.29886  0.07036
 0.69265  0.30028  0.07178
 0.74870  0.30170  0.07320
 0.80474  0.30312  0.07462
 0.86079  0.30454  0.07604
 0.91683  0.30596  0.07746
 0.97288  0.30738  0.07888
 0.07894  0.34207  0.05894
 0.13499  0.34349  0.06036
 0.19103  0.34491  0.06178
 0.24708  0.34633  0.06320
 0.30312  0.34775  0.06462
 0.35917  0.34917  0.06604
 0.41521  0.35059  0.06746
 0.47126  0.35201  0.06888
 0.52730  0.35343  0.07030
 0.58335  0.35485  0.07172
 0.63939  0.35627  0.07314
 0.69544  0.35769  0.07456
 0.75148  0.35911  0.07598
 0.80753  0.36053  0.07740
 0.86357  0.36195  0.07882
 0.91962  0.36337  0.08024
 0.97567  0.36479  0.08167
 0.08173  0.39948  0.06173
 0.13777  0.40090  0.06315
 0.19382  0.40232  0.06457
 0.24987  0.40374  0.06599
 0.30591  0.40516  0.06741
 0.36196  0.40658  0.06883
 0.41800  0.40800  0.07025
 0.47405  0.40942  0.07167
 0.53009  0.41084  0.07309
 0.58614  0.41226  0.07451
 0.64218  0.41368  0.07593
 0.69823  0.41510  0.07735
 0.75427  0.41652  0.07877
 0.81032  0.41794  0.08019
 0.86636  0.41936  0.08161
 0.92241  0.42078  0.08303
 0.97845  0.42220  0.08445
 0.08452  0.45689  0.06452
 0.14056  0.45831  0.06594
 0.19661  0.45973  0.06736
 0.25265  0.46115  0.06878
 0.30870  0.46257  0.07020
 0.36474  0.46399  0.07162
 0.42079  0.46541  0.07304
 0.47683  0.46683  0.07446
 0.53288  0.46825  0.07588
 0.58893  0.46967  0.07730
 0.64497  0.47110  0.07872
 0.70102  0.47252  0.08014
 0.75706  0.47394  0.08156
 0.81311  0.47536  0.08298
 0.86915  0.47678  0.08440
 0.92520  0.47820  0.08582
 0.98124  0.47962  0.08724
 0.08731  0.51431  0.06731
 0.14335  0.51573  0.06873
 0.19940  0.51715  0.07015
 0.25544  0.51857  0.07157
 0.31149  0.51999  0.07299
 0.36753  0.52141  0.07441
 0.42358  0.52283  0.07583
 0.47962  0.52425  0.07725
 0.53567  0.52567  0.07867
 0.59171  0.52709  0.08009
 0.64776  0.52851  0.08151
 0.70380  0.52993  0.08293
 0.75985  0.53135  0.08435
 0.81589  0.53277  0.08577
 0.87194  0.53419  0.08719
 0.92798  0.53561  0.08861
 0.98403  0.53703  0.09003
 0.09009  0.57172  0.07009
 0.14614  0.57314  0.07151
 0.20218  0.57456  0.07293
 0.25823  0.57598  0.07435
 0.31428  0.57740  0.07578
 0.37032  0.57882  0.07720
 0.42637  0.58024  0.07862
 0.48241  0.58166  0.08004
 0.53846  0.58308  0.08146
 0.59450  0.58450  0.08288
 0.65055  0.58592  0.08430
 0.70659  0.58734  0.08572
 0.76264  0.58876  0.08714
 0.81868  0.59018  0.08856
 0.87473  0.59160  0.08998
 0.93077  0.59302  0.09140
 0.98682  0.59444  0.09282
 0.09288  0.62913  0.07288
 0.14893  0.63055  0.07430
 0.20497  0.63197  0.07572
 0.26102  0.63339  0.07714
 0.31706  0.63481  0.07856
 0.37311  0.63623  0.07998
 0.42915  0.63765  0.08140
 0.48520  0.63907  0.08282
 0.54124  0.64049  0.08424
 0.59729  0.64191  0.08566
 0.65333  0.64333  0.08709
 0.70938  0.64476  0.08851
 0.76543  0.64618  0.08993
 0.82147  0.64760  0.09135
 0.87752  0.64902  0.09277
 0.93356  0.65044  0.09419
 0.98961  0.65186  0.09561
 0.09567  0.68655  0.07567
 0.15172  0.68797  0.07709
 0.20776  0.68939  0.07851
 0.26381  0.69081  0.07993
 0.31985  0.69223  0.08135
 0.37590  0.69365  0.08277
 0.43194  0.69507  0.08419
 0.48799  0.69649  0.08561
 0.54403  0.69791  0.08703
 0.60008  0.69933  0.08845
 0.65612  0.70075  0.08987
 0.71217  0.70217  0.09129
 0.76821  0.70359  0.09271
 0.82426  0.70501  0.09413
 0.88030  0.70643  0.09555
 0.93635  0.70785  0.09697
 0.99239  0.70927  0.09839
 0.09846  0.74396  0.07846
 0.15450  0.74538  0.07988
 0.21055  0.74680  0.08130
 0.26659  0.74822  0.08272
 0.32264  0.74964  0.08414
 0.37869  0.75106  0.08556
 0.43473  0.75248  0.08698
 0.49078  0.75390  0.08840
 0.54682  0.75532  0.08982
 0.60287  0.75674  0.09124
 0.65891  0.75816  0.09266
 0.71496  0.75958  0.09408
 0.77100  0.76100  0.09550
 0.82705  0.76242  0.09692
 0.88309  0.76384  0.09834
 0.93914  0.76526  0.09976
 0.99518  0.76668  0.10118
 0.10125  0.80137  0.08125
 0.15729  0.80279  0.08267
 0.21334  0.80421  0.08409
 0.26938  0.80563  0.08551
 0.32543  0.80705  0.08693
 0.38147  0.80847  0.08835
 0.43752  0.80989  0.08977
 0.49356  0.81131  0.09119
 0.54961  0.81273  0.09261
 0.60565  0.81415  0.09403
 0.66170  0.81557  0.09545
 0.71775  0.81700  0.09687
 0.77379  0.81842  0.09829
 0.82984  0.81984  0.09971
 0.88588  0.82126  0.10113
 0.94193  0.82268  0.10255
 0.99797  0.82410  0.10397
 0.10404  0.85879  0.08404
 0.16008  0.86021  0.08546
 0.21613  0.86163  0.08688
 0.27217  0.86305  0.08830
 0.32822  0.86447  0.08972
 0.38426  0.86589  0.09114
 0.44031  0.86731  0.09256
 0.49635  0.86873  0.09398
 0.55240  0.87015  0.09540
 0.60844  0.87157  0.09682
 0.66449  0.87299  0.09824
 0.72053  0.87441  0.09966
 0.77658  0.87583  0.10108
 0.83262  0.87725  0.10250
 0.88867  0.87867  0.10392
 0.94471  0.88009  0.10534
 1.00000  0.88151  0.10676
 0.10682  0.91620  0.08682
 0.16287  0.91762  0.08824
 0.21891  0.91904  0.08966
 0.27496  0.92046  0.09108
 0.33100  0.92188  0.09250
 0.38705  0.92330  0.09393
 0.44310  0.92472  0.09535
 0.49914  0.92614  0.09677
 0.55519  0.92756  0.09819
 0.61123  0.92898  0.09961
 0.66728  0.93040  0.10103
 0.72332  0.93182  0.10245
 0.77937  0.93324  0.10387
 0.83541  0.93466  0.10529
 0.89146  0.93608  0.10671
 0.94750  0.93750  0.10813
 1.00000  0.93892  0.10955
 0.10961  0.97361  0.08961
 0.16566  0.97503  0.09103
 0.22170  0.97645  0.09245
 0.27775  0.97787  0.09387
 0.33379  0.97929  0.09529
 0.38984  0.98071  0.09671
 0.44588  0.98213  0.09813
 0.50193  0.98355  0.09955
 0.55797  0.98497  0.10097
 0.61402  0.98639  0.10239
 0.67006  0.98781  0.10381
 0.72611  0.98923  0.10523
 0.78216  0.99066  0.10665
 0.83820  0.99208  0.10808
 0.89425  0.99350  0.10950
 0.95029  0.99492  0.11092
 1.00000  0.99634  0.11234
 0.06554  0.05554  0.10017
 0.12159  0.05696  0.10159
 0.17763  0.05838  0.10301
 0.23368  0.05980  0.10443
 0.28972  0.06122  0.10585
 0.34577  0.06264  0.10727
 0.40181  0.06406  0.10869
 0.45786  0.06548  0.11011
 0.51390  0.06690  0.11153
 0.56995  0.06832  0.11295
 0.62599  0.06974  0.11437
 0.68204  0.07116  0.11579
 0.73808  0.07258  0.11721
 0.79413  0.07400  0.11863
 0.85018  0.07542  0.12005
 0.90622  0.07685  0.12147
 0.96227  0.07827  0.12289
 0.06833  0.11295  0.10295
 0.12438  0.11438  0.10438
 0.18042  0.11580  0.10580
 0.23647  0.11722  0.10722
 0.29251  0.11864  0.10864
 0.34856  0.12006  0.11006
 0.40460  0.12148  0.11148
 0.46065  0.12290  0.11290
 0.51669  0.12432  0.11432
 0.57274  0.12574  0.11574
 0.62878  0.12716  0.11716
 0.68483  0.12858  0.11858
 0.74087  0.13000  0.12000
 0.79692  0.13142  0.12142
 0.85296  0.13284  0.12284
 0.90901  0.13426  0.12426
 0.96505  0.13568  0.12568
 0.07112  0.17037  0.10574
 0.12716  0.17179  0.10716
 0.18321  0.17321  0.10858
 0.23925  0.17463  0.11000
 0.29530  0.17605  0.11142
 0.35134  0.17747  0.11284
 0.40739  0.17889  0.11426
 0.46343  0.18031  0.11568
 0.51948  0.18173  0.11711
 0.57553  0.18315  0.11853
 0.63157  0.18457  0.11995
 0.68762  0.18599  0.12137
 0.74366  0.18741  0.12279
 0.79971  0.18883  0.12421
 0.85575  0.19025  0.12563
 0.91180  0.19167  0.12705
 0.96784  0.19309  0.12847
 0.07391  0.22778  0.10853
 0.12995  0.22920  0.10995
 0.18600  0.23062  0.11137
 0.24204  0.23204  0.11279
 0.29809  0.23346  0.11421
 0.35413  0.23488  0.11563
 0.41018  0.23630  0.11705
 0.46622  0.23772  0.11847
 0.52227  0.23914  0.11989
 0.57831  0.24056  0.12131
 0.63436  0.24198  0.12273
 0.69040  0.24340  0.12415
 0.74645  0.24482  0.12557
 0.80249  0.24624  0.12699
 0.85854  0.24766  0.12841
 0.91459  0.24908  0.12984
 0.97063  0.25051  0.13126
 0.07669  0.28519  0.11132
 0.13274  0.28661  0.11274
 0.18879  0.28804  0.11416
 0.24483  0.28946  0.11558
 0.30088  0.29088  0.11700
 0.35692  0.29230  0.11842
 0.41297  0.29372  0.11984
 0.46901  0.29514  0.12126
 0.52506  0.29656  0.12268
 0.58110  0.29798  0.12410
 0.63715  0.29940  0.12552
 0.69319  0.30082  0.12694
 0.74924  0.30224  0.12836
 0.80528  0.30366  0.12978
 0.86133  0.30508  0.13120
 0.91737  0.30650  0.13262
 0.97342  0.30792  0.13404
 0.07948  0.34261  0.11411
 0.13553  0.34403  0.11553
 0.19157  0.34545  0.11695
 0.24762  0.34687  0.11837
 0.30366  0.34829  0.11979
 0.35971  0.34971  0.12121
 0.41575  0.35113  0.12263
 0.47180  0.35255  0.12405
 0.52784  0.35397  0.12547
 0.58389  0.35539  0.12689
 0.63994  0.35681  0.12831
 0.69598  0.35823  0.12973
 0.75203  0.35965  0.13115
 0.80807  0.36107  0.13257
 0.86412  0.36249  0.13399
 0.92016  0.36391  0.13541
 0.97621  0.36533  0.13683
 0.08227  0.40002  0.11690
 0.13832  0.40144  0.11832
 0.19436  0.40286  0.11974
 0.25041  0.40428  0.12116
 0.30645  0.40570  0.12258
 0.36250  0.40712  0.12400
 0.41854  0.40854  0.12542
 0.47459  0.40996  0.12684
 0.53063  0.41138  0.12826
 0.58668  0.41280  0.12968
 0.64272  0.41422  0.13110
 0.69877  0.41564  0.13252
 0.75481  0.41706  0.13394
 0.81086  0.41848  0.13536
 0.86690  0.41990  0.13678
 0.92295  0.42132  0.13820
 0.97899  0.42275  0.13962
 0.08506  0.45743  0.11968
 0.14110  0.45885  0.12110
 0.19715  0.46027  0.12252
 0.25320  0.46170  0.12394
 0.30924  0.46312  0.12537
 0.36529  0.46454  0.12679
 0.42133  0.46596  0.12821
 0.47738  0.46738  0.12963
 0.53342  0.46880  0.13105
 0.58947  0.47022  0.13247
 0.64551  0.47164  0.13389
 0.70156  0.47306  0.13531
 0.75760  0.47448  0.13673
 0.81365  0.47590  0.13815
 0.86969  0.47732  0.13957
 0.92574  0.47874  0.14099
 0.98178  0.48016  0.14241
 0.08785  0.51485  0.12247
 0.14389  0.51627  0.12389
 0.19994  0.51769  0.12531
 0.25598  0.51911  0.12673
 0.31203  0.52053  0.12815
 0.36807  0.52195  0.12957
 0.42412  0.52337  0.13099
 0.48016  0.52479  0.13241
 0.53621  0.52621  0.13383
 0.59225  0.52763  0.13525
 0.64830  0.52905  0.13667
 0.70435  0.53047  0.13810
 0.76039  0.53189  0.13952
 0.81644  0.53331  0.14094
 0.87248  0.53473  0.14236
 0.92853  0.53615  0.14378
 0.98457  0.53757  0.14520
 0.09064  0.57226  0.12526
 0.14668  0.57368  0.12668
 0.20273  0.57510  0.12810
 0.25877  0.57652  0.12952
 0.31482  0.57794  0.13094
 0.37086  0.57936  0.13236
 0.42691  0.58078  0.13378
 0.48295  0.58220  0.13520
 0.53900  0.58362  0.13662
 0.59504  0.58504  0.13804
 0.65109  0.58646  0.13946
 0.70713  0.58788  0.14088
 0.76318  0.58930  0.14230
 0.81922  0.59072  0.14372
 0.87527  0.59214  0.14514
 0.93131  0.59356  0.14656
 0.98736  0.59498  0.14798
 0.09342  0.62967  0.12805
 0.14947  0.63109  0.12947
 0.20551  0.63251  0.13089
 0.26156  0.63393  0.13231
 0.31761  0.63536  0.13373
 0.37365  0.63678  0.13515
 0.42970  0.63820  0.13657
 0.48574  0.63962  0.13799
 0.54179  0.64104  0.13941
 0.59783  0.64246  0.14083
 0.65388  0.64388  0.14225
 0.70992  0.64530  0.14367
 0.76597  0.64672  0.14509
 0.82201  0.64814  0.14651
 0.87806  0.64956  0.14793
 0.93410  0.65098  0.14935
 0.99015  0.65240  0.15077
 0.09621  0.68709  0.13084
 0.15226  0.68851  0.13226
 0.20830  0.68993  0.13368
 0.26435  0.69135  0.13510
 0.32039  0.69277  0.13652
 0.37644  0.69419  0.13794
 0.43248  0.69561  0.13936
 0.48853  0.69703  0.14078
 0.54457  0.69845  0.14220
 0.60062  0.69987  0.14362
 0.65666  0.70129  0.14504
 0.71271  0.70271  0.14646
 0.76876  0.70413  0.14788
 0.82480  0.70555  0.14930
 0.88085  0.70697  0.15072
 0.93689  0.70839  0.15214
 0.99294  0.70981  0.15356
 0.09900  0.74450  0.13363
 0.15505  0.74592  0.13505
 0.21109  0.74734  0.13647
 0.26714  0.74876  0.13789
 0.32318  0.75018  0.13931
 0.37923  0.75160  0.14073
 0.43527  0.75302  0.14215
 0.49132  0.75444  0.14357
 0.54736  0.75586  0.14499
 0.60341  0.75728  0.14641
 0.65945  0.75870  0.14783
 0.71550  0.76012  0.14925
 0.77154  0.76154  0.15067
 0.82759  0.76296  0.15209
 0.88363  0.76438  0.15351
 0.93968  0.76580  0.15493
 0.99572  0.76722  0.15635
 0.10179  0.80191  0.13641
 0.15783  0.80333  0.13783
 0.21388  0.80475  0.13925
 0.26992  0.80617  0.14067
 0.32597  0.80759  0.14209
 0.38201  0.80902  0.14351
 0.43806  0.81044  0.14494
 0.49411  0.81186  0.14636
 0.55015  0.81328  0.14778
 0.60620  0.81470  0.14920
 0.66224  0.81612  0.15062
 0.71829  0.81754  0.15204
 0.77433  0.81896  0.15346
 0.83038  0.82038  0.15488
 0.88642  0.82180  0.15630
 0.94247  0.82322  0.15772
 0.99851  0.82464  0.15914
 0.10458  0.85933  0.13920
 0.16062  0.86075  0.14062
 0.21667  0.86217  0.14204
 0.27271  0.86359  0.14346
 0.32876  0.86501  0.14488
 0.38480  0.86643  0.14630
 0.44085  0.86785  0.14772
 0.49689  0.86927  0.14914
 0.55294  0.87069  0.15056
 0.60898  0.87211  0.15198
 0.66503  0.87353  0.15340
 0.72107  0.87495  0.15482
 0.77712  0.87637  0.15624
 0.83317  0.87779  0.15767
 0.88921  0.87921  0.15909
 0.94526  0.88063  0.16051
 1.00000  0.88205  0.16193
 0.10737  0.91674  0.14199
 0.16341  0.91816  0.14341
 0.21946  0.91958  0.14483
 0.27550  0.92100  0.14625
 0.33155  0.92242  0.14767
 0.38759  0.92384  0.14909
 0.44364  0.92526  0.15051
 0.49968  0.92668  0.15193
 0.55573  0.92810  0.15335
 0.61177  0.92952  0.15477
 0.66782  0.93094  0.15619
 0.72386  0.93236  0.15761
 0.77991  0.93378  0.15903
 0.83595  0.93520  0.16045
 0.89200  0.93662  0.16187
 0.94804  0.93804  0.16329
 1.00000  0.93946  0.16471
 0.11015  0.97415  0.14478
 0.16620  0.97557  0.14620
 0.22224  0.97699  0.14762
 0.27829  0.97841  0.14904
 0.33433  0.97983  0.15046
 0.39038  0.98125  0.15188
 0.44642  0.98267  0.15330
 0.50247  0.98410  0.15472
 0.55852  0.98552  0.15614
 0.61456  0.98694  0.15756
 0.67061  0.98836  0.15898
 0.72665  0.98978  0.16040
 0.78270  0.99120  0.16182
 0.83874  0.99262  0.16324
 0.89479  0.99404  0.16466
 0.95083  0.99546  0.16608
 1.00000  0.99688  0.16750
 0.06608  0.05608  0.15533
 0.12213  0.05750  0.15675
 0.17817  0.05892  0.15817
 0.23422  0.06034  0.15959
 0.29026  0.06176  0.16101
 0.34631  0.06318  0.16243
 0.40235  0.06460  0.16385
 0.45840  0.06602  0.16527
 0.51445  0.06745  0.16670
 0.57049  0.06887  0.16812
 0.62654  0.07029  0.16954
 0.68258  0.07171  0.17096
 0.73863  0.07313  0.17238
 0.79467  0.07455  0.17380
 0.85072  0.07597  0.17522
 0.90676  0.07739  0.17664
 0.96281  0.07881  0.17806
 0.06887  0.11350  0.15812
 0.12492  0.11492  0.15954
 0.18096  0.11634  0.16096
 0.23701  0.11776  0.16238
 0.29305  0.11918  0.16380
 0.34910  0.12060  0.16522
 0.40514  0.12202  0.16664
 0.46119  0.12344  0.16806
 0.51723  0.12486  0.16948
 0.57328  0.12628  0.17090
 0.62932  0.12770  0.17232
 0.68537  0.12912  0.17374
 0.74141  0.13054  0.17516
 0.79746  0.13196  0.17658
 0.85350  0.13338  0.17800
 0.90955  0.13480  0.17942
 0.96560  0.13622  0.18085
 0.07166  0.17091  0.16091
 0.12770  0.17233  0.16233
 0.18375  0.17375  0.16375
 0.23980  0.17517  0.16517
 0.29584  0.17659  0.16659
 0.35189  0.17801  0.16801
 0.40793  0.17943  0.16943
 0.46398  0.18085  0.17085
 0.52002  0.18227  0.17227
 0.57607  0.18369  0.17369
 0.63211  0.18511  0.17511
 0.68816  0.18653  0.17653
 0.74420  0.18795  0.17795
 0.80025  0.18937  0.17937
 0.85629  0.19079  0.18079
 0.91234  0.19221  0.18221
 0.96838  0.19363  0.18363
 0.07445  0.22832  0.16370
 0.13049  0.22974  0.16512
 0.18654  0.23116  0.16654
 0.24258  0.23258  0.16796
 0.29863  0.23400  0.16938
 0.35467  0.23542  0.17080
 0.41072  0.23684  0.17222
 0.46676  0.23826  0.17364
 0.52281  0.23968  0.17506
 0.57886  0.24110  0.17648
 0.63490  0.24253  0.17790
 0.69095  0.24395  0.17932
 0.74699  0.24537  0.18074
 0.80304  0.24679  0.18216
 0.85908  0.24821  0.18358
 0.91513  0.24963  0.18500
 0.97117  0.25105  0.18642
 0.07724  0.28574  0.16649
 0.13328  0.28716  0.16791
 0.18933  0.28858  0.16933
 0.24537  0.29000  0.17075
 0.30142  0.29142  0.17217
 0.35746  0.29284  0.17359
 0.41351  0.29426  0.17501
 0.46955  0.29568  0.17643
 0.52560  0.29710  0.17785
 0.58164  0.29852  0.17927
 0.63769  0.29994  0.18069
 0.69373  0.30136  0.18211
 0.74978  0.30278  0.18353
 0.80582  0.30420  0.18495
 0.86187  0.30562  0.18637
 0.91791  0.30704  0.18779
 0.97396  0.30846  0.18921
 0.08002  0.34315  0.16927
 0.13607  0.34457  0.17069
 0.19211  0.34599  0.17211
 0.24816  0.34741  0.17353
 0.30421  0.34883  0.17496
 0.36025  0.35025  0.17638
 0.41630  0.35167  0.17780
 0.47234  0.35309  0.17922
 0.52839  0.35451  0.18064
 0.58443  0.35593  0.18206
 0.64048  0.35735  0.18348
 0.69652  0.35877  0.18490
 0.75257  0.36019  0.18632
 0.80861  0.36161  0.18774
 0.86466  0.36303  0.18916
 0.92070  0.36445  0.19058
 0.97675  0.36587  0.19200
 0.08281  0.40056  0.17206
 0.13886  0.40198  0.17348
 0.19490  0.40340  0.17490
 0.25095  0.40482  0.17632
 0.30699  0.40624  0.17774
 0.36304  0.40766  0.17916
 0.41908  0.40908  0.18058
 0.47513  0.41050  0.18200
 0.53117  0.41192  0.18342
 0.58722  0.41334  0.18484
 0.64327  0.41476  0.18626
 0.69931  0.41619  0.18769
 0.75536  0.41761  0.18911
 0.81140  0.41903  0.19053
 0.86745  0.42045  0.19195
 0.92349  0.42187  0.19337
 0.97954  0.42329  0.19479
 0.08560  0.45798  0.17485
 0.14165  0.45940  0.17627
 0.19769  0.46082  0.17769
 0.25374  0.46224  0.17911
 0.30978  0.46366  0.18053
 0.36583  0.46508  0.18195
 0.42187  0.46650  0.18337
 0.47792  0.46792  0.18479
 0.53396  0.46934  0.18621
 0.59001  0.47076  0.18763
 0.64605  0.47218  0.18905
 0.70210  0.47360  0.19047
 0.75814  0.47502  0.19189
 0.81419  0.47644  0.19331
 0.87023  0.47786  0.19473
 0.92628  0.47928  0.19615
 0.98232  0.48070  0.19757
 0.08839  0.51539  0.17764
 0.14443  0.51681  0.17906
 0.20048  0.51823  0.18048
 0.25652  0.51965  0.18190
 0.31257  0.52107  0.18332
 0.36862  0.52249  0.18474
 0.42466  0.52391  0.18616
 0.48071  0.52533  0.18758
 0.53675  0.52675  0.18900
 0.59280  0.52817  0.19042
 0.64884  0.52959  0.19184
 0.70489  0.53101  0.19326
 0.76093  0.53243  0.19468
 0.81698  0.53385  0.19610
 0.87302  0.53527  0.19752
 0.92907  0.53669  0.19894
 0.98511  0.53811  0.20036
 0.09118  0.57280  0.18043
 0.14722  0.57422  0.18185
 0.20327  0.57564  0.18327
 0.25931  0.57706  0.18469
 0.31536  0.57848  0.18611
 0.37140  0.57990  0.18753
 0.42745  0.58132  0.18895
 0.48349  0.58274  0.19037
 0.53954  0.58416  0.19179
 0.59558  0.58558  0.19321
 0.65163  0.58700  0.19463
 0.70768  0.58842  0.19605
 0.76372  0.58985  0.19747
 0.81977  0.59127  0.19889
 0.87581  0.59269  0.20031
 0.93186  0.59411  0.20173
 0.98790  0.59553  0.20315
 0.09397  0.63022  0.18322
 0.15001  0.63164  0.18464
 0.20606  0.63306  0.18606
 0.26210  0.63448  0.18748
 0.31815  0.63590  0.18890
 0.37419  0.63732  0.19032
 0.43024  0.63874  0.19174
 0.48628  0.64016  0.19316
 0.54233  0.64158  0.19458
 0.59837  0.64300  0.19600
 0.65442  0.64442  0.19742
 0.71046  0.64584  0.19884
 0.76651  0.64726  0.20026
 0.82255  0.64868  0.20168
 0.87860  0.65010  0.20310
 0.93464  0.65152  0.20452
 0.99069  0.65294  0.20594
 0.09675  0.68763  0.18600
 0.15280  0.68905  0.18742
 0.20884  0.69047  0.18884
 0.26489  0.69189  0.19026
 0.32093  0.69331  0.19168
 0.37698  0.69473  0.19310
 0.43303  0.69615  0.19453
 0.48907  0.69757  0.19595
 0.54512  0.69899  0.19737
 0.60116  0.70041  0.19879
 0.65721  0.70183  0.20021
 0.71325  0.70325  0.20163
 0.76930  0.70467  0.20305
 0.82534  0.70609  0.20447
 0.88139  0.70751  0.20589
 0.93743  0.70893  0.20731
 0.99348  0.71035  0.20873
 0.09954  0.74504  0.18879
 0.15559  0.74646  0.19021
 0.21163  0.74788  0.19163
 0.26768  0.74930  0.19305
 0.32372  0.75072  0.19447
 0.37977  0.75214  0.19589
 0.43581  0.75356  0.19731
 0.49186  0.75498  0.19873
 0.54790  0.75640  0.20015
 0.60395  0.75782  0.20157
 0.65999  0.75924  0.20299
 0.71604  0.76066  0.20441
 0.77209  0.76209  0.20584
 0.82813  0.76351  0.20726
 0.88418  0.76493  0.20868
 0.94022  0.76635  0.21010
 0.99627  0.76777  0.21152
 0.10233  0.80246  0.19158
 0.15838  0.80388  0.19300
 0.21442  0.80530  0.19442
 0.27047  0.80672  0.19584
 0.32651  0.80814  0.19726
 0.38256  0.80956  0.19868
 0.43860  0.81098  0.20010
 0.49465  0.81240  0.20152
 0.55069  0.81382  0.20294
 0.60674  0.81524  0.20436
 0.66278  0.81666  0.20578
 0.71883  0.81808  0.20720
 0.77487  0.81950  0.20862
 0.83092  0.82092  0.21004
 0.88696  0.82234  0.21146
 0.94301  0.82376  0.21288
 0.99905  0.82518  0.21430
 0.10512  0.85987  0.19437
 0.16116  0.86129  0.19579
 0.21721  0.86271  0.19721
 0.27325  0.86413  0.19863
 0.32930  0.86555  0.20005
 0.38534  0.86697  0.20147
 0.44139  0.86839  0.20289
 0.49744  0.86981  0.20431
 0.55348  0.87123  0.20573
 0.60953  0.87265  0.20715
 0.66557  0.87407  0.20857
 0.72162  0.87549  0.20999
 0.77766  0.87691  0.21141
 0.83371  0.87833  0.21283
 0.88975  0.87975  0.21425
 0.94580  0.88117  0.21567
 1.00000  0.88259  0.21709
 0.10791  0.91728  0.19716
 0.16395  0.91870  0.19858
 0.22000  0.92012  0.20000
 0.27604  0.92154  0.20142
 0.33209  0.92296  0.20284
 0.38813  0.92438  0.20426
 0.44418  0.92580  0.20568
 0.50022  0.92722  0.20710
 0.55627  0.92864  0.20852
 0.61231  0.93006  0.20994
 0.66836  0.93148  0.21136
 0.72440  0.93290  0.21278
 0.78045  0.93432  0.21420
 0.83649  0.93575  0.21562
 0.89254  0.93717  0.21704
 0.94859  0.93859  0.21846
 1.00000  0.94001  0.21988
 0.11069  0.97469  0.19994
 0.16674  0.97612  0.20137
 0.22279  0.97754  0.20279
 0.27883  0.97896  0.20421
 0.33488  0.98038  0.20563
 0.39092  0.98180  0.20705
 0.44697  0.98322  0.20847
 0.50301  0.98464  0.20989
 0.55906  0.98606  0.21131
 0.61510  0.98748  0.21273
 0.67115  0.98890  0.21415
 0.72719  0.99032  0.21557
 0.78324  0.99174  0.21699
 0.83928  0.99316  0.21841
 0.89533  0.99458  0.21983
 0.95137  0.99600  0.22125
 1.00000  0.99742  0.22267
 0.06662  0.05662  0.21050
 0.12267  0.05804  0.21192
 0.17872  0.05947  0.21334
 0.23476  0.06089  0.21476
 0.29081  0.06231  0.21618
 0.34685  0.06373  0.21760
 0.40290  0.06515  0.21902
 0.45894  0.06657  0.22044
 0.51499  0.06799  0.22186
 0.57103  0.06941  0.22328
 0.62708  0.07083  0.22470
 0.68312  0.07225  0.22612
 0.73917  0.07367  0.22754
 0.79521  0.07509  0.22896
 0.85126  0.07651  0.23038
 0.90730  0.07793  0.23180
 0.96335  0.07935  0.23322
