src/assets/luts/portra-400.cube
TITLE "Portra 400"
LUT_3D_SIZE 9
DOMAIN_MIN 0.0 0.0 0.0
DOMAIN_MAX 1.0 1.0 1.0
# LumEdit built-in LUT · 柯达 Portra，柔和暖肤
 0.06500  0.05500  0.04500
 0.17709  0.05784  0.04784
 0.28918  0.06068  0.05068
 0.40127  0.06352  0.05352
 0.51336  0.06636  0.05636
 0.62545  0.06920  0.05920
 0.73754  0.07204  0.06204
 0.84963  0.07488  0.06488
 0.96172  0.07772  0.06772
 0.07058  0.16983  0.05058
 0.18267  0.17267  0.05342
 0.29476  0.17551  0.05626
 0.40685  0.17835  0.05910
 0.51894  0.18119  0.06194
 0.63103  0.18403  0.06478
 0.74312  0.18687  0.06762
 0.85521  0.18971  0.07046
 0.96730  0.19255  0.07330
 0.07615  0.28465  0.05615
 0.18824  0.28749  0.05899
 0.30033  0.29033  0.06183
 0.41242  0.29317  0.06467
 0.52452  0.29602  0.06752
 0.63661  0.29886  0.07036
 0.74870  0.30170  0.07320
 0.86079  0.30454  0.07604
 0.97288  0.30738  0.07888
 0.08173  0.39948  0.06173
 0.19382  0.40232  0.06457
 0.30591  0.40516  0.06741
 0.41800  0.40800  0.07025
 0.53009  0.41084  0.07309
 0.64218  0.41368  0.07593
 0.75427  0.41652  0.07877
 0.86636  0.41936  0.08161
 0.97845  0.42220  0.08445
 0.08731  0.51431  0.06731
 0.19940  0.51715  0.07015
 0.31149  0.51999  0.07299
 0.42358  0.52283  0.07583
 0.53567  0.52567  0.07867
 0.64776  0.52851  0.08151
 0.75985  0.53135  0.08435
 0.87194  0.53419  0.08719
 0.98403  0.53703  0.09003
 0.09288  0.62913  0.07288
 0.20497  0.63197  0.07572
 0.31706  0.63481  0.07856
 0.42915  0.63765  0.08140
 0.54124  0.64049  0.08424
 0.65333  0.64333  0.08709
 0.76543  0.64618  0.08993
 0.87752  0.64902  0.09277
 0.98961  0.65186  0.09561
 0.09846  0.74396  0.07846
 0.21055  0.74680  0.08130
 0.32264  0.74964  0.08414
 0.43473  0.75248  0.08698
 0.54682  0.75532  0.08982
 0.65891  0.75816  0.09266
 0.77100  0.76100  0.09550
 0.88309  0.76384  0.09834
 0.99518  0.76668  0.10118
 0.10404  0.85879  0.08404
 0.21613  0.86163  0.08688
 0.32822  0.86447  0.08972
 0.44031  0.86731  0.09256
 0.55240  0.87015  0.09540
 0.66449  0.87299  0.09824
 0.77658  0.87583  0.10108
 0.88867  0.87867  0.10392
 1.00000  0.88151  0.10676
 0.10961  0.97361  0.08961
 0.22170  0.97645  0.09245
 0.33379  0.97929  0.09529
 0.44588  0.98213  0.09813
 0.55797  0.98497  0.10097
 0.67006  0.98781  0.10381
 0.78216  0.99066  0.10665
 0.89425  0.99350  0.10950
 1.00000  0.99634  0.11234
 0.06608  0.05608  0.15533
 0.17817  0.05892  0.15817
 0.29026  0.06176  0.16101
 0.40235  0.06460  0.16385
 0.51445  0.06745  0.16670
 0.62654  0.07029  0.16954
 0.73863  0.07313  0.17238
 0.85072  0.07597  0.17522
 0.96281  0.07881  0.17806
 0.07166  0.17091  0.16091
 0.18375  0.17375  0.16375
 0.29584  0.17659  0.16659
 0.40793  0.17943  0.16943
 0.52002  0.18227  0.17227
 0.63211  0.18511  0.17511
 0.74420  0.18795  0.17795
 0.85629  0.19079  0.18079
 0.96838  0.19363  0.18363
 0.07724  0.28574  0.16649
 0.18933  0.28858  0.16933
 0.30142  0.29142  0.17217
 0.41351  0.29426  0.17501
 0.52560  0.29710  0.17785
 0.63769  0.29994  0.18069
 0.74978  0.30278  0.18353
 0.86187  0.30562  0.18637
 0.97396  0.30846  0.18921
 0.08281  0.40056  0.17206
 0.19490  0.40340  0.17490
 0.30699  0.40624  0.17774
 0.41908  0.40908  0.18058
 0.53117  0.41192  0.18342
 0.64327  0.41476  0.18626
 0.75536  0.41761  0.18911
 0.86745  0.42045  0.19195
 0.97954  0.42329  0.19479
 0.08839  0.51539  0.17764
 0.20048  0.51823  0.18048
 0.31257  0.52107  0.18332
 0.42466  0.52391  0.18616
 0.53675  0.52675  0.18900
 0.64884  0.52959  0.19184
 0.76093  0.53243  0.19468
 0.87302  0.53527  0.19752
 0.98511  0.53811  0.20036
 0.09397  0.63022  0.18322
 0.20606  0.63306  0.18606
 0.31815  0.63590  0.18890
 0.43024  0.63874  0.19174
 0.54233  0.64158  0.19458
 0.65442  0.64442  0.19742
 0.76651  0.64726  0.20026
 0.87860  0.65010  0.20310
 0.99069  0.65294  0.20594
 0.09954  0.74504  0.18879
 0.21163  0.74788  0.19163
 0.32372  0.75072  0.19447
 0.43581  0.75356  0.19731
 0.54790  0.75640  0.20015
 0.65999  0.75924  0.20299
 0.77209  0.76209  0.20584
 0.88418  0.76493  0.20868
 0.99627  0.76777  0.21152
 0.10512  0.85987  0.19437
 0.21721  0.86271  0.19721
 0.32930  0.86555  0.20005
 0.44139  0.86839  0.20289
 0.55348  0.87123  0.20573
 0.66557  0.87407  0.20857
 0.77766  0.87691  0.21141
 0.88975  0.87975  0.21425
 1.00000  0.88259  0.21709
 0.11069  0.97469  0.19994
 0.22279  0.97754  0.20279
 0.33488  0.98038  0.20563
 0.44697  0.98322  0.20847
 0.55906  0.98606  0.21131
 0.67115  0.98890  0.21415
 0.78324  0.99174  0.21699
 0.89533  0.99458  0.21983
 1.00000  0.99742  0.22267
 0.06717  0.05717  0.26567
 0.17926  0.06001  0.26851
 0.29135  0.06285  0.27135
 0.40344  0.06569  0.27419
 0.51553  0.06853  0.27703
 0.62762  0.07137  0.27987
 0.73971  0.07421  0.28271
 0.85180  0.07705  0.28555
 0.96389  0.07989  0.28839
 0.07274  0.17199  0.27124
 0.18483  0.17483  0.27408
 0.29692  0.17767  0.27692
 0.40901  0.18051  0.27976
 0.52110  0.18335  0.28260
 0.63320  0.18620  0.28545
 0.74529  0.18904  0.28829
 0.85738  0.19188  0.29113
 0.96947  0.19472  0.29397
 0.07832  0.28682  0.27682
 0.19041  0.28966  0.27966
 0.30250  0.29250  0.28250
 0.41459  0.29534  0.28534
 0.52668  0.29818  0.28818
 0.63877  0.30102  0.29102
 0.75086  0.30386  0.29386
 0.86295  0.30670  0.29670
 0.97504  0.30954  0.29954
 0.08390  0.40165  0.28240
 0.19599  0.40449  0.28524
 0.30808  0.40733  0.28808
 0.42017  0.41017  0.29092
 0.53226  0.41301  0.29376
 0.64435  0.41585  0.29660
 0.75644  0.41869  0.29944
 0.86853  0.42153  0.30228
 0.98062  0.42437  0.30512
 0.08947  0.51647  0.28797
 0.20156  0.51931  0.29081
 0.31365  0.52215  0.29365
 0.42574  0.52499  0.29649
 0.53783  0.52783  0.29933
 0.64992  0.53067  0.30217
 0.76202  0.53352  0.30502
 0.87411  0.53636  0.30786
 0.98620  0.53920  0.31070
 0.09505  0.63130  0.29355
 0.20714  0.63414  0.29639
 0.31923  0.63698  0.29923
 0.43132  0.63982  0.30207
 0.54341  0.64266  0.30491
 0.65550  0.64550  0.30775
 0.76759  0.64834  0.31059
 0.87968  0.65118  0.31343
 0.99177  0.65402  0.31627
 0.10062  0.74613  0.29912
 0.21272  0.74897  0.30197
 0.32481  0.75181  0.30481
 0.43690  0.75465  0.30765
 0.54899  0.75749  0.31049
 0.66108  0.76033  0.31333
 0.77317  0.76317  0.31617
 0.88526  0.76601  0.31901
 0.99735  0.76885  0.32185
 0.10620  0.86095  0.30470
 0.21829  0.86379  0.30754
 0.33038  0.86663  0.31038
 0.44247  0.86947  0.31322
 0.55456  0.87231  0.31606
 0.66665  0.87515  0.31890
 0.77874  0.87799  0.32174
 0.89084  0.88084  0.32459
 1.00000  0.88368  0.32743
 0.11178  0.97578  0.31028
 0.22387  0.97862  0.31312
 0.33596  0.98146  0.31596
 0.44805  0.98430  0.31880
 0.56014  0.98714  0.32164
 0.67223  0.98998  0.32448
 0.78432  0.99282  0.32732
 0.89641  0.99566  0.33016
 1.00000  0.99850  0.33300
 0.06825  0.05825  0.37600
 0.18034  0.06109  0.37884
 0.29243  0.06393  0.38168
 0.40452  0.06677  0.38452
 0.51661  0.06961  0.38736
 0.62870  0.07245  0.39020
 0.74079  0.07529  0.39304
 0.85288  0.07813  0.39588
 0.96497  0.08097  0.39872
 0.07383  0.17308  0.38158
 0.18592  0.17592  0.38442
 0.29801  0.17876  0.38726
 0.41010  0.18160  0.39010
 0.52219  0.18444  0.39294
 0.63428  0.18728  0.39578
 0.74637  0.19012  0.39862
 0.85846  0.19296  0.40146
 0.97055  0.19580  0.40430
 0.07940  0.28790  0.38715
 0.19149  0.29074  0.38999
 0.30358  0.29358  0.39283
 0.41567  0.29642  0.39567
 0.52776  0.29926  0.39851
 0.63985  0.30210  0.40135
 0.75195  0.30495  0.40420
 0.86404  0.30779  0.40704
 0.97613  0.31063  0.40988
 0.08498  0.40273  0.39273
 0.19707  0.40557  0.39557
 0.30916  0.40841  0.39841
 0.42125  0.41125  0.40125
 0.53334  0.41409  0.40409
 0.64543  0.41693  0.40693
 0.75752  0.41977  0.40977
 0.86961  0.42261  0.41261
 0.98170  0.42545  0.41545
 0.09056  0.51755  0.39831
 0.20265  0.52040  0.40115
 0.31474  0.52324  0.40399
 0.42683  0.52608  0.40683
 0.53892  0.52892  0.40967
 0.65101  0.53176  0.41251
 0.76310  0.53460  0.41535
 0.87519  0.53744  0.41819
 0.98728  0.54028  0.42103
 0.09613  0.63238  0.40388
 0.20822  0.63522  0.40672
 0.32031  0.63806  0.40956
 0.43240  0.64090  0.41240
 0.54449  0.64374  0.41524
 0.65658  0.64658  0.41808
 0.76867  0.64942  0.42092
 0.88077  0.65227  0.42377
 0.99286  0.65511  0.42661
 0.10171  0.74721  0.40946
 0.21380  0.75005  0.41230
 0.32589  0.75289  0.41514
 0.43798  0.75573  0.41798
 0.55007  0.75857  0.42082
 0.66216  0.76141  0.42366
 0.77425  0.76425  0.42650
 0.88634  0.76709  0.42934
 0.99843  0.76993  0.43218
 0.10728  0.86203  0.41503
 0.21938  0.86488  0.41787
 0.33147  0.86772  0.42072
 0.44356  0.87056  0.42356
 0.55565  0.87340  0.42640
 0.66774  0.87624  0.42924
 0.77983  0.87908  0.43208
 0.89192  0.88192  0.43492
 1.00000  0.88476  0.43776
 0.11286  0.97686  0.42061
 0.22495  0.97970  0.42345
 0.33704  0.98254  0.42629
 0.44913  0.98538  0.42913
 0.56122  0.98822  0.43197
 0.67331  0.99106  0.43481
 0.78540  0.99390  0.43765
 0.89749  0.99674  0.44049
 1.00000  0.99958  0.44334
 0.06933  0.05933  0.48633
 0.18142  0.06217  0.48917
 0.29351  0.06501  0.49201
 0.40560  0.06785  0.49485
 0.51769  0.07069  0.49769
 0.62978  0.07353  0.50053
 0.74188  0.07637  0.50338
 0.85397  0.07922  0.50622
 0.96606  0.08206  0.50906
 0.07491  0.17416  0.49191
 0.18700  0.17700  0.49475
 0.29909  0.17984  0.49759
 0.41118  0.18268  0.50043
 0.52327  0.18552  0.50327
 0.63536  0.18836  0.50611
 0.74745  0.19120  0.50895
 0.85954  0.19404  0.51179
 0.97163  0.19688  0.51463
 0.08048  0.28898  0.49749
 0.19258  0.29183  0.50033
 0.30467  0.29467  0.50317
 0.41676  0.29751  0.50601
 0.52885  0.30035  0.50885
 0.64094  0.30319  0.51169
 0.75303  0.30603  0.51453
 0.86512  0.30887  0.51737
 0.97721  0.31171  0.52021
 0.08606  0.40381  0.50306
 0.19815  0.40665  0.50590
 0.31024  0.40949  0.50874
 0.42233  0.41233  0.51158
 0.53442  0.41517  0.51442
 0.64651  0.41801  0.51726
 0.75860  0.42085  0.52010
 0.87070  0.42370  0.52294
 0.98279  0.42654  0.52579
 0.09164  0.51864  0.50864
 0.20373  0.52148  0.51148
 0.31582  0.52432  0.51432
 0.42791  0.52716  0.51716
 0.54000  0.53000  0.52000
 0.65209  0.53284  0.52284
 0.76418  0.53568  0.52568
 0.87627  0.53852  0.52852
 0.98836  0.54136  0.53136
 0.09721  0.63346  0.51421
 0.20930  0.63631  0.51706
 0.32140  0.63915  0.51990
 0.43349  0.64199  0.52274
 0.54558  0.64483  0.52558
 0.65767  0.64767  0.52842
 0.76976  0.65051  0.53126
 0.88185  0.65335  0.53410
 0.99394  0.65619  0.53694
 0.10279  0.74829  0.51979
 0.21488  0.75113  0.52263
 0.32697  0.75397  0.52547
 0.43906  0.75681  0.52831
 0.55115  0.75965  0.53115
 0.66324  0.76249  0.53399
 0.77533  0.76533  0.53683
 0.88742  0.76817  0.53967
 0.99952  0.77102  0.54252
 0.10837  0.86312  0.52537
 0.22046  0.86596  0.52821
 0.33255  0.86880  0.53105
 0.44464  0.87164  0.53389
 0.55673  0.87448  0.53673
 0.66882  0.87732  0.53957
 0.78091  0.88016  0.54241
 0.89300  0.88300  0.54525
 1.00000  0.88584  0.54809
 0.11394  0.97794  0.53094
 0.22603  0.98078  0.53378
 0.33813  0.98362  0.53663
 0.45022  0.98647  0.53947
 0.56231  0.98931  0.54231
 0.67440  0.99215  0.54515
 0.78649  0.99499  0.54799
 0.89858  0.99783  0.55083
 1.00000  1.00000  0.55367
 0.07042  0.06042  0.59667
 0.18251  0.06326  0.59951
 0.29460  0.06610  0.60235
 0.40669  0.06894  0.60519
 0.51878  0.07178  0.60803
 0.63087  0.07462  0.61087
 0.74296  0.07746  0.61371
 0.85505  0.08030  0.61655
 0.96714  0.08314  0.61939
 0.07599  0.17524  0.60224
 0.18808  0.17808  0.60508
 0.30017  0.18092  0.60792
 0.41226  0.18376  0.61076
 0.52435  0.18660  0.61360
 0.63644  0.18944  0.61644
 0.74853  0.19228  0.61928
 0.86062  0.19512  0.62213
 0.97272  0.19797  0.62497
 0.08157  0.29007  0.60782
 0.19366  0.29291  0.61066
 0.30575  0.29575  0.61350
 0.41784  0.29859  0.61634
 0.52993  0.30143  0.61918
 0.64202  0.30427  0.62202
 0.75411  0.30711  0.62486
 0.86620  0.30995  0.62770
 0.97829  0.31279  0.63054
 0.08714  0.40489  0.61339
 0.19924  0.40774  0.61623
 0.31133  0.41058  0.61908
 0.42342  0.41342  0.62192
 0.53551  0.41626  0.62476
 0.64760  0.41910  0.62760
 0.75969  0.42194  0.63044
 0.87178  0.42478  0.63328
 0.98387  0.42762  0.63612
 0.09272  0.51972  0.61897
 0.20481  0.52256  0.62181
 0.31690  0.52540  0.62465
 0.42899  0.52824  0.62749
 0.54108  0.53108  0.63033
 0.65317  0.53392  0.63317
 0.76526  0.53676  0.63601
 0.87735  0.53960  0.63885
 0.98945  0.54245  0.64170
 0.09830  0.63455  0.62455
 0.21039  0.63739  0.62739
 0.32248  0.64023  0.63023
 0.43457  0.64307  0.63307
 0.54666  0.64591  0.63591
 0.65875  0.64875  0.63875
 0.77084  0.65159  0.64159
 0.88293  0.65443  0.64443
 0.99502  0.65727  0.64727
 0.10387  0.74937  0.63012
 0.21596  0.75221  0.63296
 0.32805  0.75506  0.63581
 0.44015  0.75790  0.63865
 0.55224  0.76074  0.64149
 0.66433  0.76358  0.64433
 0.77642  0.76642  0.64717
 0.88851  0.76926  0.65001
 1.00000  0.77210  0.65285
 0.10945  0.86420  0.63570
 0.22154  0.86704  0.63854
 0.33363  0.86988  0.64138
 0.44572  0.87272  0.64422
 0.55781  0.87556  0.64706
 0.66990  0.87840  0.64990
 0.78199  0.88124  0.65274
 0.89408  0.88408  0.65558
 1.00000  0.88692  0.65842
 0.11503  0.97903  0.64128
 0.22712  0.98187  0.64412
 0.33921  0.98471  0.64696
 0.45130  0.98755  0.64980
 0.56339  0.99039  0.65264
 0.67548  0.99323  0.65548
 0.78757  0.99607  0.65832
 0.89966  0.99891  0.66116
 1.00000  1.00000  0.66400
 0.07150  0.06150  0.70700
 0.18359  0.06434  0.70984
 0.29568  0.06718  0.71268
 0.40777  0.07002  0.71552
 0.51986  0.07286  0.71836
 0.63195  0.07570  0.72120
 0.74404  0.07854  0.72404
 0.85613  0.08138  0.72688
 0.96822  0.08422  0.72972
 0.07707  0.17632  0.71257
 0.18916  0.17916  0.71542
 0.30126  0.18201  0.71826
 0.41335  0.18485  0.72110
 0.52544  0.18769  0.72394
 0.63753  0.19053  0.72678
 0.74962  0.19337  0.72962
 0.86171  0.19621  0.73246
 0.97380  0.19905  0.73530
 0.08265  0.29115  0.71815
 0.19474  0.29399  0.72099
 0.30683  0.29683  0.72383
 0.41892  0.29967  0.72667
 0.53101  0.30251  0.72951
 0.64310  0.30535  0.73235
 0.75519  0.30819  0.73519
 0.86728  0.31103  0.73803
 0.97938  0.31388  0.74088
 0.08823  0.40598  0.72373
 0.20032  0.40882  0.72657
 0.31241  0.41166  0.72941
 0.42450  0.41450  0.73225
 0.53659  0.41734  0.73509
 0.64868  0.42018  0.73793
 0.76077  0.42302  0.74077
 0.87286  0.42586  0.74361
 0.98495  0.42870  0.74645
 0.09380  0.52080  0.72930
 0.20589  0.52364  0.73214
 0.31798  0.52648  0.73498
 0.43008  0.52933  0.73783
 0.54217  0.53217  0.74067
 0.65426  0.53501  0.74351
 0.76635  0.53785  0.74635
 0.87844  0.54069  0.74919
 0.99053  0.54353  0.75203
 0.09938  0.63563  0.73488
 0.21147  0.63847  0.73772
 0.32356  0.64131  0.74056
 0.43565  0.64415  0.74340
 0.54774  0.64699  0.74624
 0.65983  0.64983  0.74908
 0.77192  0.65267  0.75192
 0.88401  0.65551  0.75476
 0.99610  0.65835  0.75760
 0.10496  0.75046  0.74046
 0.21705  0.75330  0.74330
 0.32914  0.75614  0.74614
 0.44123  0.75898  0.74898
 0.55332  0.76182  0.75182
 0.66541  0.76466  0.75466
 0.77750  0.76750  0.75750
 0.88959  0.77034  0.76034
 1.00000  0.77318  0.76318
 0.11053  0.86528  0.74603
 0.22262  0.86812  0.74887
 0.33471  0.87096  0.75171
 0.44681  0.87380  0.75455
 0.55890  0.87665  0.75740
 0.67099  0.87949  0.76024
 0.78308  0.88233  0.76308
 0.89517  0.88517  0.76592
 1.00000  0.88801  0.76876
 0.11611  0.98011  0.75161
 0.22820  0.98295  0.75445
 0.34029  0.98579  0.75729
 0.45238  0.98863  0.76013
 0.56447  0.99147  0.76297
 0.67656  0.99431  0.76581
 0.78865  0.99715  0.76865
 0.90074  0.99999  0.77149
 1.00000  1.00000  0.77433
 0.07258  0.06258  0.81733
 0.18467  0.06542  0.82017
 0.29676  0.06826  0.82301
 0.40885  0.07110  0.82585
 0.52094  0.07394  0.82869
 0.63303  0.07678  0.83153
 0.74512  0.07962  0.83437
 0.85721  0.08246  0.83721
 0.96930  0.08530  0.84005
 0.07816  0.17741  0.82291
 0.19025  0.18025  0.82575
 0.30234  0.18309  0.82859
 0.41443  0.18593  0.83143
 0.52652  0.18877  0.83427
 0.63861  0.19161  0.83711
 0.75070  0.19445  0.83995
 0.86279  0.19729  0.84279
 0.97488  0.20013  0.84563
 0.08373  0.29223  0.82848
 0.19582  0.29507  0.83132
 0.30792  0.29792  0.83417
 0.42001  0.30076  0.83701
 0.53210  0.30360  0.83985
 0.64419  0.30644  0.84269
 0.75628  0.30928  0.84553
 0.86837  0.31212  0.84837
 0.98046  0.31496  0.85121
 0.08931  0.40706  0.83406
 0.20140  0.40990  0.83690
 0.31349  0.41274  0.83974
 0.42558  0.41558  0.84258
 0.53767  0.41842  0.84542
 0.64976  0.42126  0.84826
 0.76185  0.42410  0.85110
 0.87394  0.42694  0.85394
 0.98603  0.42978  0.85678
 0.09489  0.52189  0.83964
 0.20698  0.52473  0.84248
 0.31907  0.52757  0.84532
 0.43116  0.53041  0.84816
 0.54325  0.53325  0.85100
 0.65534  0.53609  0.85384
 0.76743  0.53893  0.85668
 0.87952  0.54177  0.85952
 0.99161  0.54461  0.86236
 0.10046  0.63671  0.84521
 0.21255  0.63955  0.84805
 0.32464  0.64239  0.85089
 0.43673  0.64524  0.85373
 0.54883  0.64808  0.85658
 0.66092  0.65092  0.85942
 0.77301  0.65376  0.86226
 0.88510  0.65660  0.86510
 0.99719  0.65944  0.86794
 0.10604  0.75154  0.85079
 0.21813  0.75438  0.85363
 0.33022  0.75722  0.85647
 0.44231  0.76006  0.85931
 0.55440  0.76290  0.86215
 0.66649  0.76574  0.86499
 0.77858  0.76858  0.86783
 0.89067  0.77142  0.87067
 1.00000  0.77426  0.87351
 0.11162  0.86637  0.85637
 0.22371  0.86921  0.85921
 0.33580  0.87205  0.86205
 0.44789  0.87489  0.86489
 0.55998  0.87773  0.86773
 0.67207  0.88057  0.87057
 0.78416  0.88341  0.87341
 0.89625  0.88625  0.87625
 1.00000  0.88909  0.87909
 0.11719  0.98119  0.86194
 0.22928  0.98403  0.86478
 0.34137  0.98687  0.86762
 0.45346  0.98971  0.87046
 0.56555  0.99256  0.87330
 0.67765  0.99540  0.87615
 0.78974  0.99824  0.87899
 0.90183  1.00000  0.88183
 1.00000  1.00000  0.88467
 0.07366  0.06366  0.92766
 0.18575  0.06650  0.93050
 0.29785  0.06935  0.93335
 0.40994  0.07219  0.93619
 0.52203  0.07503  0.93903
 0.63412  0.07787  0.94187
 0.74621  0.08071  0.94471
 0.85830  0.08355  0.94755
 0.97039  0.08639  0.95039
 0.07924  0.17849  0.93324
 0.19133  0.18133  0.93608
 0.30342  0.18417  0.93892
 0.41551  0.18701  0.94176
 0.52760  0.18985  0.94460
 0.63969  0.19269  0.94744
 0.75178  0.19553  0.95028
 0.86387  0.19837  0.95312
 0.97596  0.20121  0.95596
 0.08482  0.29332  0.93882
 0.19691  0.29616  0.94166
 0.30900  0.29900  0.94450
 0.42109  0.30184  0.94734
 0.53318  0.30468  0.95018
 0.64527  0.30752  0.95302
 0.75736  0.31036  0.95586
 0.86945  0.31320  0.95870
 0.98154  0.31604  0.96154
 0.09039  0.40814  0.94439
 0.20248  0.41098  0.94723
 0.31457  0.41382  0.95007
 0.42666  0.41666  0.95291
 0.53876  0.41951  0.95576
 0.65085  0.42235  0.95860
 0.76294  0.42519  0.96144
 0.87503  0.42803  0.96428
 0.98712  0.43087  0.96712
 0.09597  0.52297  0.94997
 0.20806  0.52581  0.95281
 0.32015  0.52865  0.95565
 0.43224  0.53149  0.95849
 0.54433  0.53433  0.96133
 0.65642  0.53717  0.96417
 0.76851  0.54001  0.96701
 0.88060  0.54285  0.96985
 0.99269  0.54569  0.97269
 0.10155  0.63780  0.95555
 0.21364  0.64064  0.95839
 0.32573  0.64348  0.96123
 0.43782  0.64632  0.96407
 0.54991  0.64916  0.96691
 0.66200  0.65200  0.96975
 0.77409  0.65484  0.97259
 0.88618  0.65768  0.97543
 0.99827  0.66052  0.97827
 0.10712  0.75262  0.96112
 0.21921  0.75546  0.96396
 0.33130  0.75830  0.96680
 0.44339  0.76114  0.96964
 0.55549  0.76398  0.97248
 0.66758  0.76683  0.97533
 0.77967  0.76967  0.97817
 0.89176  0.77251  0.98101
 1.00000  0.77535  0.98385
 0.11270  0.86745  0.96670
 0.22479  0.87029  0.96954
 0.33688  0.87313  0.97238
 0.44897  0.87597  0.97522
 0.56106  0.87881  0.97806
 0.67315  0.88165  0.98090
 0.78524  0.88449  0.98374
 0.89733  0.88733  0.98658
 1.00000  0.89017  0.98942
 0.11828  0.98228  0.97228
 0.23037  0.98512  0.97512
 0.34246  0.98796  0.97796
 0.45455  0.99080  0.98080
 0.56664  0.99364  0.98364
 0.67873  0.99648  0.98648
 0.79082  0.99932  0.98932
 0.90291  1.00000  0.99216
 1.00000  1.00000  0.99500
