src/assets/luts/portra-400.cube
TITLE "Portra 400"
LUT_3D_SIZE 5
DOMAIN_MIN 0.0 0.0 0.0
DOMAIN_MAX 1.0 1.0 1.0
# LumEdit built-in LUT · 柯达 Portra，柔和暖肤
 0.06500  0.05500  0.04500
 0.28918  0.06068  0.05068
 0.51336  0.06636  0.05636
 0.73754  0.07204  0.06204
 0.96172  0.07772  0.06772
 0.07615  0.28465  0.05615
 0.30033  0.29033  0.06183
 0.52452  0.29602  0.06752
 0.74870  0.30170  0.07320
 0.97288  0.30738  0.07888
 0.08731  0.51431  0.06731
 0.31149  0.51999  0.07299
 0.53567  0.52567  0.07867
 0.75985  0.53135  0.08435
 0.98403  0.53703  0.09003
 0.09846  0.74396  0.07846
 0.32264  0.74964  0.08414
 0.54682  0.75532  0.08982
 0.77100  0.76100  0.09550
 0.99518  0.76668  0.10118
 0.10961  0.97361  0.08961
 0.33379  0.97929  0.09529
 0.55797  0.98497  0.10097
 0.78216  0.99066  0.10665
 1.00000  0.99634  0.11234
 0.06717  0.05717  0.26567
 0.29135  0.06285  0.27135
 0.51553  0.06853  0.27703
 0.73971  0.07421  0.28271
 0.96389  0.07989  0.28839
 0.07832  0.28682  0.27682
 0.30250  0.29250  0.28250
 0.52668  0.29818  0.28818
 0.75086  0.30386  0.29386
 0.97504  0.30954  0.29954
 0.08947  0.51647  0.28797
 0.31365  0.52215  0.29365
 0.53783  0.52783  0.29933
 0.76202  0.53352  0.30502
 0.98620  0.53920  0.31070
 0.10062  0.74613  0.29912
 0.32481  0.75181  0.30481
 0.54899  0.75749  0.31049
 0.77317  0.76317  0.31617
 0.99735  0.76885  0.32185
 0.11178  0.97578  0.31028
 0.33596  0.98146  0.31596
 0.56014  0.98714  0.32164
 0.78432  0.99282  0.32732
 1.00000  0.99850  0.33300
 0.06933  0.05933  0.48633
 0.29351  0.06501  0.49201
 0.51769  0.07069  0.49769
 0.74188  0.07637  0.50338
 0.96606  0.08206  0.50906
 0.08048  0.28898  0.49749
 0.30467  0.29467  0.50317
 0.52885  0.30035  0.50885
 0.75303  0.30603  0.51453
 0.97721  0.31171  0.52021
 0.09164  0.51864  0.50864
 0.31582  0.52432  0.51432
 0.54000  0.53000  0.52000
 0.76418  0.53568  0.52568
 0.98836  0.54136  0.53136
 0.10279  0.74829  0.51979
 0.32697  0.75397  0.52547
 0.55115  0.75965  0.53115
 0.77533  0.76533  0.53683
 0.99952  0.77102  0.54252
 0.11394  0.97794  0.53094
 0.33813  0.98362  0.53663
 0.56231  0.98931  0.54231
 0.78649  0.99499  0.54799
 1.00000  1.00000  0.55367
 0.07150  0.06150  0.70700
 0.29568  0.06718  0.71268
 0.51986  0.07286  0.71836
 0.74404  0.07854  0.72404
 0.96822  0.08422  0.72972
 0.08265  0.29115  0.71815
 0.30683  0.29683  0.72383
 0.53101  0.30251  0.72951
 0.75519  0.30819  0.73519
 0.97938  0.31388  0.74088
 0.09380  0.52080  0.72930
 0.31798  0.52648  0.73498
 0.54217  0.53217  0.74067
 0.76635  0.53785  0.74635
 0.99053  0.54353  0.75203
 0.10496  0.75046  0.74046
 0.32914  0.75614  0.74614
 0.55332  0.76182  0.75182
 0.77750  0.76750  0.75750
 1.00000  0.77318  0.76318
 0.11611  0.98011  0.75161
 0.34029  0.98579  0.75729
 0.56447  0.99147  0.76297
 0.78865  0.99715  0.76865
 1.00000  1.00000  0.77433
 0.07366  0.06366  0.92766
 0.29785  0.06935  0.93335
 0.52203  0.07503  0.93903
 0.74621  0.08071  0.94471
 0.97039  0.08639  0.95039
 0.08482  0.29332  0.93882
 0.30900  0.29900  0.94450
 0.53318  0.30468  0.95018
 0.75736  0.31036  0.95586
 0.98154  0.31604  0.96154
 0.09597  0.52297  0.94997
 0.32015  0.52865  0.95565
 0.54433  0.53433  0.96133
 0.76851  0.54001  0.96701
 0.99269  0.54569  0.97269
 0.10712  0.75262  0.96112
 0.33130  0.75830  0.96680
 0.55549  0.76398  0.97248
 0.77967  0.76967  0.97817
 1.00000  0.77535  0.98385
 0.11828  0.98228  0.97228
 0.34246  0.98796  0.97796
 0.56664  0.99364  0.98364
 0.79082  0.99932  0.98932
 1.00000  1.00000  0.99500
