src/assets/luts/soft-cream.cube
TITLE "柔肤奶油"
LUT_3D_SIZE 17
DOMAIN_MIN 0.0 0.0 0.0
DOMAIN_MAX 1.0 1.0 1.0
# LumEdit built-in LUT · 明亮柔和，奶油肌
 0.12200  0.11000  0.10000
 0.17431  0.11168  0.10168
 0.22661  0.11336  0.10336
 0.27892  0.11505  0.10505
 0.33123  0.11673  0.10673
 0.38353  0.11841  0.10841
 0.43584  0.12009  0.11009
 0.48815  0.12177  0.11177
 0.54046  0.12345  0.11345
 0.59276  0.12514  0.11514
 0.64507  0.12682  0.11682
 0.69738  0.12850  0.11850
 0.74968  0.13018  0.12018
 0.80199  0.13186  0.12186
 0.85430  0.13355  0.12355
 0.90660  0.13523  0.12523
 0.95891  0.13691  0.12691
 0.12530  0.16393  0.10330
 0.17761  0.16561  0.10498
 0.22992  0.16729  0.10667
 0.28222  0.16897  0.10835
 0.33453  0.17065  0.11003
 0.38684  0.17234  0.11171
 0.43914  0.17402  0.11339
 0.49145  0.17570  0.11507
 0.54376  0.17738  0.11676
 0.59606  0.17906  0.11844
 0.64837  0.18075  0.12012
 0.70068  0.18243  0.12180
 0.75298  0.18411  0.12348
 0.80529  0.18579  0.12517
 0.85760  0.18747  0.12685
 0.90991  0.18915  0.12853
 0.96221  0.19084  0.13021
 0.12860  0.21785  0.10660
 0.18091  0.21954  0.10829
 0.23322  0.22122  0.10997
 0.28552  0.22290  0.11165
 0.33783  0.22458  0.11333
 0.39014  0.22626  0.11501
 0.44244  0.22795  0.11669
 0.49475  0.22963  0.11838
 0.54706  0.23131  0.12006
 0.59937  0.23299  0.12174
 0.65167  0.23467  0.12342
 0.70398  0.23635  0.12510
 0.75629  0.23804  0.12679
 0.80859  0.23972  0.12847
 0.86090  0.24140  0.13015
 0.91321  0.24308  0.13183
 0.96551  0.24476  0.13351
 0.13191  0.27178  0.10991
 0.18421  0.27346  0.11159
 0.23652  0.27514  0.11327
 0.28883  0.27683  0.11495
 0.34113  0.27851  0.11663
 0.39344  0.28019  0.11831
 0.44575  0.28187  0.12000
 0.49805  0.28355  0.12168
 0.55036  0.28524  0.12336
 0.60267  0.28692  0.12504
 0.65497  0.28860  0.12672
 0.70728  0.29028  0.12841
 0.75959  0.29196  0.13009
 0.81190  0.29364  0.13177
 0.86420  0.29533  0.13345
 0.91651  0.29701  0.13513
 0.96882  0.29869  0.13682
 0.13521  0.32571  0.11321
 0.18751  0.32739  0.11489
 0.23982  0.32907  0.11657
 0.29213  0.33075  0.11825
 0.34443  0.33243  0.11993
 0.39674  0.33412  0.12162
 0.44905  0.33580  0.12330
 0.50136  0.33748  0.12498
 0.55366  0.33916  0.12666
 0.60597  0.34084  0.12834
 0.65828  0.34253  0.13003
 0.71058  0.34421  0.13171
 0.76289  0.34589  0.13339
 0.81520  0.34757  0.13507
 0.86750  0.34925  0.13675
 0.91981  0.35094  0.13844
 0.97212  0.35262  0.14012
 0.13851  0.37963  0.11651
 0.19082  0.38132  0.11819
 0.24312  0.38300  0.11987
 0.29543  0.38468  0.12156
 0.34774  0.38636  0.12324
 0.40004  0.38804  0.12492
 0.45235  0.38973  0.12660
 0.50466  0.39141  0.12828
 0.55696  0.39309  0.12996
 0.60927  0.39477  0.13165
 0.66158  0.39645  0.13333
 0.71389  0.39813  0.13501
 0.76619  0.39982  0.13669
 0.81850  0.40150  0.13837
 0.87081  0.40318  0.14006
 0.92311  0.40486  0.14174
 0.97542  0.40654  0.14342
 0.14181  0.43356  0.11981
 0.19412  0.43524  0.12149
 0.24643  0.43693  0.12317
 0.29873  0.43861  0.12486
 0.35104  0.44029  0.12654
 0.40335  0.44197  0.12822
 0.45565  0.44365  0.12990
 0.50796  0.44533  0.13158
 0.56027  0.44702  0.13327
 0.61257  0.44870  0.13495
 0.66488  0.45038  0.13663
 0.71719  0.45206  0.13831
 0.76949  0.45374  0.13999
 0.82180  0.45543  0.14168
 0.87411  0.45711  0.14336
 0.92641  0.45879  0.14504
 0.97872  0.46047  0.14672
 0.14511  0.48749  0.12311
 0.19742  0.48917  0.12479
 0.24973  0.49085  0.12648
 0.30203  0.49253  0.12816
 0.35434  0.49422  0.12984
 0.40665  0.49590  0.13152
 0.45895  0.49758  0.13320
 0.51126  0.49926  0.13489
 0.56357  0.50094  0.13657
 0.61587  0.50263  0.13825
 0.66818  0.50431  0.13993
 0.72049  0.50599  0.14161
 0.77280  0.50767  0.14330
 0.82510  0.50935  0.14498
 0.87741  0.51103  0.14666
 0.92972  0.51272  0.14834
 0.98202  0.51440  0.15002
 0.14841  0.54141  0.12641
 0.20072  0.54310  0.12810
 0.25303  0.54478  0.12978
 0.30534  0.54646  0.13146
 0.35764  0.54814  0.13314
 0.40995  0.54982  0.13482
 0.46226  0.55151  0.13651
 0.51456  0.55319  0.13819
 0.56687  0.55487  0.13987
 0.61918  0.55655  0.14155
 0.67148  0.55823  0.14323
 0.72379  0.55992  0.14492
 0.77610  0.56160  0.14660
 0.82840  0.56328  0.14828
 0.88071  0.56496  0.14996
 0.93302  0.56664  0.15164
 0.98533  0.56832  0.15332
 0.15172  0.59534  0.12972
 0.20402  0.59702  0.13140
 0.25633  0.59871  0.13308
 0.30864  0.60039  0.13476
 0.36094  0.60207  0.13644
 0.41325  0.60375  0.13813
 0.46556  0.60543  0.13981
 0.51787  0.60712  0.14149
 0.57017  0.60880  0.14317
 0.62248  0.61048  0.14485
 0.67479  0.61216  0.14654
 0.72709  0.61384  0.14822
 0.77940  0.61552  0.14990
 0.83171  0.61721  0.15158
 0.88401  0.61889  0.15326
 0.93632  0.62057  0.15494
 0.98863  0.62225  0.15663
 0.15502  0.64927  0.13302
 0.20733  0.65095  0.13470
 0.25963  0.65263  0.13638
 0.31194  0.65431  0.13806
 0.36425  0.65600  0.13975
 0.41655  0.65768  0.14143
 0.46886  0.65936  0.14311
 0.52117  0.66104  0.14479
 0.57347  0.66272  0.14647
 0.62578  0.66441  0.14816
 0.67809  0.66609  0.14984
 0.73039  0.66777  0.15152
 0.78270  0.66945  0.15320
 0.83501  0.67113  0.15488
 0.88732  0.67281  0.15656
 0.93962  0.67450  0.15825
 0.99193  0.67618  0.15993
 0.15832  0.70320  0.13632
 0.21063  0.70488  0.13800
 0.26293  0.70656  0.13968
 0.31524  0.70824  0.14137
 0.36755  0.70992  0.14305
 0.41985  0.71161  0.14473
 0.47216  0.71329  0.14641
 0.52447  0.71497  0.14809
 0.57678  0.71665  0.14978
 0.62908  0.71833  0.15146
 0.68139  0.72001  0.15314
 0.73370  0.72170  0.15482
 0.78600  0.72338  0.15650
 0.83831  0.72506  0.15818
 0.89062  0.72674  0.15987
 0.94292  0.72842  0.16155
 0.99523  0.73011  0.16323
 0.16162  0.75712  0.13962
 0.21393  0.75880  0.14130
 0.26624  0.76049  0.14299
 0.31854  0.76217  0.14467
 0.37085  0.76385  0.14635
 0.42316  0.76553  0.14803
 0.47546  0.76721  0.14971
 0.52777  0.76890  0.15140
 0.58008  0.77058  0.15308
 0.63238  0.77226  0.15476
 0.68469  0.77394  0.15644
 0.73700  0.77562  0.15812
 0.78930  0.77730  0.15980
 0.84161  0.77899  0.16149
 0.89392  0.78067  0.16317
 0.94623  0.78235  0.16485
 0.99853  0.78403  0.16653
 0.16492  0.81105  0.14292
 0.21723  0.81273  0.14461
 0.26954  0.81441  0.14629
 0.32184  0.81610  0.14797
 0.37415  0.81778  0.14965
 0.42646  0.81946  0.15133
 0.47877  0.82114  0.15302
 0.53107  0.82282  0.15470
 0.58338  0.82450  0.15638
 0.63569  0.82619  0.15806
 0.68799  0.82787  0.15974
 0.74030  0.82955  0.16142
 0.79261  0.83123  0.16311
 0.84491  0.83291  0.16479
 0.89722  0.83460  0.16647
 0.94953  0.83628  0.16815
 1.00000  0.83796  0.16983
 0.16823  0.86498  0.14623
 0.22053  0.86666  0.14791
 0.27284  0.86834  0.14959
 0.32515  0.87002  0.15127
 0.37745  0.87170  0.15295
 0.42976  0.87339  0.15464
 0.48207  0.87507  0.15632
 0.53437  0.87675  0.15800
 0.58668  0.87843  0.15968
 0.63899  0.88011  0.16136
 0.69129  0.88180  0.16304
 0.74360  0.88348  0.16473
 0.79591  0.88516  0.16641
 0.84822  0.88684  0.16809
 0.90052  0.88852  0.16977
 0.95283  0.89020  0.17145
 1.00000  0.89189  0.17314
 0.17153  0.91890  0.14953
 0.22383  0.92058  0.15121
 0.27614  0.92227  0.15289
 0.32845  0.92395  0.15457
 0.38076  0.92563  0.15626
 0.43306  0.92731  0.15794
 0.48537  0.92899  0.15962
 0.53768  0.93068  0.16130
 0.58998  0.93236  0.16298
 0.64229  0.93404  0.16466
 0.69460  0.93572  0.16635
 0.74690  0.93740  0.16803
 0.79921  0.93909  0.16971
 0.85152  0.94077  0.17139
 0.90382  0.94245  0.17307
 0.95613  0.94413  0.17476
 1.00000  0.94581  0.17644
 0.17483  0.97283  0.15283
 0.22714  0.97451  0.15451
 0.27944  0.97619  0.15619
 0.33175  0.97788  0.15788
 0.38406  0.97956  0.15956
 0.43636  0.98124  0.16124
 0.48867  0.98292  0.16292
 0.54098  0.98460  0.16460
 0.59329  0.98629  0.16628
 0.64559  0.98797  0.16797
 0.69790  0.98965  0.16965
 0.75021  0.99133  0.17133
 0.80251  0.99301  0.17301
 0.85482  0.99469  0.17469
 0.90713  0.99638  0.17638
 0.95943  0.99806  0.17806
 1.00000  0.99974  0.17974
 0.12264  0.11064  0.15127
 0.17495  0.11232  0.15295
 0.22725  0.11401  0.15463
 0.27956  0.11569  0.15631
 0.33187  0.11737  0.15799
 0.38418  0.11905  0.15968
 0.43648  0.12073  0.16136
 0.48879  0.12241  0.16304
 0.54110  0.12410  0.16472
 0.59340  0.12578  0.16640
 0.64571  0.12746  0.16808
 0.69802  0.12914  0.16977
 0.75032  0.13082  0.17145
 0.80263  0.13251  0.17313
 0.85494  0.13419  0.17481
 0.90724  0.13587  0.17649
 0.95955  0.13755  0.17818
 0.12594  0.16457  0.15457
 0.17825  0.16625  0.15625
 0.23056  0.16793  0.15793
 0.28286  0.16961  0.15961
 0.33517  0.17130  0.16130
 0.38748  0.17298  0.16298
 0.43978  0.17466  0.16466
 0.49209  0.17634  0.16634
 0.54440  0.17802  0.16802
 0.59671  0.17971  0.16970
 0.64901  0.18139  0.17139
 0.70132  0.18307  0.17307
 0.75363  0.18475  0.17475
 0.80593  0.18643  0.17643
 0.85824  0.18811  0.17811
 0.91055  0.18980  0.17980
 0.96285  0.19148  0.18148
 0.12924  0.21849  0.15787
 0.18155  0.22018  0.15955
 0.23386  0.22186  0.16123
 0.28617  0.22354  0.16292
 0.33847  0.22522  0.16460
 0.39078  0.22690  0.16628
 0.44309  0.22859  0.16796
 0.49539  0.23027  0.16964
 0.54770  0.23195  0.17132
 0.60001  0.23363  0.17301
 0.65231  0.23531  0.17469
 0.70462  0.23700  0.17637
 0.75693  0.23868  0.17805
 0.80923  0.24036  0.17973
 0.86154  0.24204  0.18142
 0.91385  0.24372  0.18310
 0.96616  0.24540  0.18478
 0.13255  0.27242  0.16117
 0.18485  0.27410  0.16285
 0.23716  0.27579  0.16454
 0.28947  0.27747  0.16622
 0.34177  0.27915  0.16790
 0.39408  0.28083  0.16958
 0.44639  0.28251  0.17126
 0.49869  0.28419  0.17294
 0.55100  0.28588  0.17463
 0.60331  0.28756  0.17631
 0.65562  0.28924  0.17799
 0.70792  0.29092  0.17967
 0.76023  0.29260  0.18135
 0.81254  0.29429  0.18304
 0.86484  0.29597  0.18472
 0.91715  0.29765  0.18640
 0.96946  0.29933  0.18808
 0.13585  0.32635  0.16447
 0.18816  0.32803  0.16616
 0.24046  0.32971  0.16784
 0.29277  0.33139  0.16952
 0.34508  0.33308  0.17120
 0.39738  0.33476  0.17288
 0.44969  0.33644  0.17456
 0.50200  0.33812  0.17625
 0.55430  0.33980  0.17793
 0.60661  0.34149  0.17961
 0.65892  0.34317  0.18129
 0.71122  0.34485  0.18297
 0.76353  0.34653  0.18466
 0.81584  0.34821  0.18634
 0.86815  0.34989  0.18802
 0.92045  0.35158  0.18970
 0.97276  0.35326  0.19138
 0.13915  0.38028  0.16778
 0.19146  0.38196  0.16946
 0.24376  0.38364  0.17114
 0.29607  0.38532  0.17282
 0.34838  0.38700  0.17450
 0.40069  0.38869  0.17618
 0.45299  0.39037  0.17787
 0.50530  0.39205  0.17955
 0.55761  0.39373  0.18123
 0.60991  0.39541  0.18291
 0.66222  0.39709  0.18459
 0.71453  0.39878  0.18628
 0.76683  0.40046  0.18796
 0.81914  0.40214  0.18964
 0.87145  0.40382  0.19132
 0.92375  0.40550  0.19300
 0.97606  0.40719  0.19469
 0.14245  0.43420  0.17108
 0.19476  0.43588  0.17276
 0.24707  0.43757  0.17444
 0.29937  0.43925  0.17612
 0.35168  0.44093  0.17780
 0.40399  0.44261  0.17949
 0.45629  0.44429  0.18117
 0.50860  0.44598  0.18285
 0.56091  0.44766  0.18453
 0.61321  0.44934  0.18621
 0.66552  0.45102  0.18790
 0.71783  0.45270  0.18958
 0.77014  0.45438  0.19126
 0.82244  0.45607  0.19294
 0.87475  0.45775  0.19462
 0.92706  0.45943  0.19631
 0.97936  0.46111  0.19799
 0.14575  0.48813  0.17438
 0.19806  0.48981  0.17606
 0.25037  0.49149  0.17774
 0.30267  0.49318  0.17943
 0.35498  0.49486  0.18111
 0.40729  0.49654  0.18279
 0.45960  0.49822  0.18447
 0.51190  0.49990  0.18615
 0.56421  0.50158  0.18783
 0.61652  0.50327  0.18952
 0.66882  0.50495  0.19120
 0.72113  0.50663  0.19288
 0.77344  0.50831  0.19456
 0.82574  0.50999  0.19624
 0.87805  0.51168  0.19793
 0.93036  0.51336  0.19961
 0.98266  0.51504  0.20129
 0.14906  0.54206  0.17768
 0.20136  0.54374  0.17936
 0.25367  0.54542  0.18104
 0.30598  0.54710  0.18273
 0.35828  0.54878  0.18441
 0.41059  0.55047  0.18609
 0.46290  0.55215  0.18777
 0.51520  0.55383  0.18945
 0.56751  0.55551  0.19114
 0.61982  0.55719  0.19282
 0.67213  0.55888  0.19450
 0.72443  0.56056  0.19618
 0.77674  0.56224  0.19786
 0.82905  0.56392  0.19955
 0.88135  0.56560  0.20123
 0.93366  0.56728  0.20291
 0.98597  0.56897  0.20459
 0.15236  0.59598  0.18098
 0.20466  0.59766  0.18266
 0.25697  0.59935  0.18435
 0.30928  0.60103  0.18603
 0.36159  0.60271  0.18771
 0.41389  0.60439  0.18939
 0.46620  0.60607  0.19107
 0.51851  0.60776  0.19276
 0.57081  0.60944  0.19444
 0.62312  0.61112  0.19612
 0.67543  0.61280  0.19780
 0.72773  0.61448  0.19948
 0.78004  0.61617  0.20117
 0.83235  0.61785  0.20285
 0.88465  0.61953  0.20453
 0.93696  0.62121  0.20621
 0.98927  0.62289  0.20789
 0.15566  0.64991  0.18428
 0.20797  0.65159  0.18597
 0.26027  0.65327  0.18765
 0.31258  0.65496  0.18933
 0.36489  0.65664  0.19101
 0.41719  0.65832  0.19269
 0.46950  0.66000  0.19438
 0.52181  0.66168  0.19606
 0.57411  0.66336  0.19774
 0.62642  0.66505  0.19942
 0.67873  0.66673  0.20110
 0.73104  0.66841  0.20279
 0.78334  0.67009  0.20447
 0.83565  0.67177  0.20615
 0.88796  0.67346  0.20783
 0.94026  0.67514  0.20951
 0.99257  0.67682  0.21119
 0.15896  0.70384  0.18759
 0.21127  0.70552  0.18927
 0.26358  0.70720  0.19095
 0.31588  0.70888  0.19263
 0.36819  0.71056  0.19431
 0.42050  0.71225  0.19600
 0.47280  0.71393  0.19768
 0.52511  0.71561  0.19936
 0.57742  0.71729  0.20104
 0.62972  0.71897  0.20272
 0.68203  0.72066  0.20441
 0.73434  0.72234  0.20609
 0.78664  0.72402  0.20777
 0.83895  0.72570  0.20945
 0.89126  0.72738  0.21113
 0.94356  0.72907  0.21281
 0.99587  0.73075  0.21450
 0.16226  0.75776  0.19089
 0.21457  0.75945  0.19257
 0.26688  0.76113  0.19425
 0.31918  0.76281  0.19593
 0.37149  0.76449  0.19762
 0.42380  0.76617  0.19930
 0.47610  0.76785  0.20098
 0.52841  0.76954  0.20266
 0.58072  0.77122  0.20434
 0.63303  0.77290  0.20603
 0.68533  0.77458  0.20771
 0.73764  0.77626  0.20939
 0.78995  0.77795  0.21107
 0.84225  0.77963  0.21275
 0.89456  0.78131  0.21443
 0.94687  0.78299  0.21612
 0.99917  0.78467  0.21780
 0.16557  0.81169  0.19419
 0.21787  0.81337  0.19587
 0.27018  0.81505  0.19755
 0.32249  0.81674  0.19924
 0.37479  0.81842  0.20092
 0.42710  0.82010  0.20260
 0.47941  0.82178  0.20428
 0.53171  0.82346  0.20596
 0.58402  0.82515  0.20765
 0.63633  0.82683  0.20933
 0.68863  0.82851  0.21101
 0.74094  0.83019  0.21269
 0.79325  0.83187  0.21437
 0.84556  0.83356  0.21605
 0.89786  0.83524  0.21774
 0.95017  0.83692  0.21942
 1.00000  0.83860  0.22110
 0.16887  0.86562  0.19749
 0.22117  0.86730  0.19917
 0.27348  0.86898  0.20086
 0.32579  0.87066  0.20254
 0.37810  0.87235  0.20422
 0.43040  0.87403  0.20590
 0.48271  0.87571  0.20758
 0.53502  0.87739  0.20927
 0.58732  0.87907  0.21095
 0.63963  0.88075  0.21263
 0.69194  0.88244  0.21431
 0.74424  0.88412  0.21599
 0.79655  0.88580  0.21768
 0.84886  0.88748  0.21936
 0.90116  0.88916  0.22104
 0.95347  0.89085  0.22272
 1.00000  0.89253  0.22440
 0.17217  0.91954  0.20079
 0.22448  0.92123  0.20248
 0.27678  0.92291  0.20416
 0.32909  0.92459  0.20584
 0.38140  0.92627  0.20752
 0.43370  0.92795  0.20920
 0.48601  0.92964  0.21089
 0.53832  0.93132  0.21257
 0.59062  0.93300  0.21425
 0.64293  0.93468  0.21593
 0.69524  0.93636  0.21761
 0.74754  0.93805  0.21929
 0.79985  0.93973  0.22098
 0.85216  0.94141  0.22266
 0.90447  0.94309  0.22434
 0.95677  0.94477  0.22602
 1.00000  0.94645  0.22770
 0.17547  0.97347  0.20410
 0.22778  0.97515  0.20578
 0.28008  0.97683  0.20746
 0.33239  0.97852  0.20914
 0.38470  0.98020  0.21082
 0.43701  0.98188  0.21251
 0.48931  0.98356  0.21419
 0.54162  0.98524  0.21587
 0.59393  0.98693  0.21755
 0.64623  0.98861  0.21923
 0.69854  0.99029  0.22091
 0.75085  0.99197  0.22260
 0.80315  0.99365  0.22428
 0.85546  0.99534  0.22596
 0.90777  0.99702  0.22764
 0.96007  0.99870  0.22932
 1.00000  1.00000  0.23101
 0.12328  0.11128  0.20253
 0.17559  0.11296  0.20421
 0.22790  0.11465  0.20590
 0.28020  0.11633  0.20758
 0.33251  0.11801  0.20926
 0.38482  0.11969  0.21094
 0.43712  0.12137  0.21262
 0.48943  0.12306  0.21431
 0.54174  0.12474  0.21599
 0.59404  0.12642  0.21767
 0.64635  0.12810  0.21935
 0.69866  0.12978  0.22103
 0.75097  0.13146  0.22271
 0.80327  0.13315  0.22440
 0.85558  0.13483  0.22608
 0.90789  0.13651  0.22776
 0.96019  0.13819  0.22944
 0.12658  0.16521  0.20583
 0.17889  0.16689  0.20752
 0.23120  0.16857  0.20920
 0.28351  0.17025  0.21088
 0.33581  0.17194  0.21256
 0.38812  0.17362  0.21424
 0.44043  0.17530  0.21593
 0.49273  0.17698  0.21761
 0.54504  0.17866  0.21929
 0.59735  0.18035  0.22097
 0.64965  0.18203  0.22265
 0.70196  0.18371  0.22433
 0.75427  0.18539  0.22602
 0.80657  0.18707  0.22770
 0.85888  0.18876  0.22938
 0.91119  0.19044  0.23106
 0.96349  0.19212  0.23274
 0.12989  0.21914  0.20914
 0.18219  0.22082  0.21082
 0.23450  0.22250  0.21250
 0.28681  0.22418  0.21418
 0.33911  0.22586  0.21586
 0.39142  0.22755  0.21755
 0.44373  0.22923  0.21923
 0.49603  0.23091  0.22091
 0.54834  0.23259  0.22259
 0.60065  0.23427  0.22427
 0.65295  0.23596  0.22596
 0.70526  0.23764  0.22764
 0.75757  0.23932  0.22932
 0.80988  0.24100  0.23100
 0.86218  0.24268  0.23268
 0.91449  0.24436  0.23436
 0.96680  0.24605  0.23605
 0.13319  0.27306  0.21244
 0.18550  0.27474  0.21412
 0.23780  0.27643  0.21580
 0.29011  0.27811  0.21748
 0.34242  0.27979  0.21917
 0.39472  0.28147  0.22085
 0.44703  0.28315  0.22253
 0.49934  0.28484  0.22421
 0.55164  0.28652  0.22589
 0.60395  0.28820  0.22757
 0.65626  0.28988  0.22926
 0.70856  0.29156  0.23094
 0.76087  0.29325  0.23262
 0.81318  0.29493  0.23430
 0.86548  0.29661  0.23598
 0.91779  0.29829  0.23767
 0.97010  0.29997  0.23935
 0.13649  0.32699  0.21574
 0.18880  0.32867  0.21742
 0.24110  0.33035  0.21910
 0.29341  0.33204  0.22079
 0.34572  0.33372  0.22247
 0.39802  0.33540  0.22415
 0.45033  0.33708  0.22583
 0.50264  0.33876  0.22751
 0.55495  0.34044  0.22919
 0.60725  0.34213  0.23088
 0.65956  0.34381  0.23256
 0.71187  0.34549  0.23424
 0.76417  0.34717  0.23592
 0.81648  0.34885  0.23760
 0.86879  0.35054  0.23929
 0.92109  0.35222  0.24097
 0.97340  0.35390  0.24265
 0.13979  0.38092  0.21904
 0.19210  0.38260  0.22072
 0.24441  0.38428  0.22241
 0.29671  0.38596  0.22409
 0.34902  0.38764  0.22577
 0.40133  0.38933  0.22745
 0.45363  0.39101  0.22913
 0.50594  0.39269  0.23081
 0.55825  0.39437  0.23250
 0.61055  0.39605  0.23418
 0.66286  0.39774  0.23586
 0.71517  0.39942  0.23754
 0.76747  0.40110  0.23922
 0.81978  0.40278  0.24091
 0.87209  0.40446  0.24259
 0.92440  0.40614  0.24427
 0.97670  0.40783  0.24595
 0.14309  0.43484  0.22234
 0.19540  0.43653  0.22403
 0.24771  0.43821  0.22571
 0.30001  0.43989  0.22739
 0.35232  0.44157  0.22907
 0.40463  0.44325  0.23075
 0.45693  0.44493  0.23244
 0.50924  0.44662  0.23412
 0.56155  0.44830  0.23580
 0.61386  0.44998  0.23748
 0.66616  0.45166  0.23916
 0.71847  0.45334  0.24084
 0.77078  0.45503  0.24253
 0.82308  0.45671  0.24421
 0.87539  0.45839  0.24589
 0.92770  0.46007  0.24757
 0.98000  0.46175  0.24925
 0.14640  0.48877  0.22565
 0.19870  0.49045  0.22733
 0.25101  0.49213  0.22901
 0.30332  0.49382  0.23069
 0.35562  0.49550  0.23237
 0.40793  0.49718  0.23406
 0.46024  0.49886  0.23574
 0.51254  0.50054  0.23742
 0.56485  0.50223  0.23910
 0.61716  0.50391  0.24078
 0.66946  0.50559  0.24246
 0.72177  0.50727  0.24415
 0.77408  0.50895  0.24583
 0.82639  0.51063  0.24751
 0.87869  0.51232  0.24919
 0.93100  0.51400  0.25087
 0.98331  0.51568  0.25256
 0.14970  0.54270  0.22895
 0.20200  0.54438  0.23063
 0.25431  0.54606  0.23231
 0.30662  0.54774  0.23399
 0.35892  0.54943  0.23567
 0.41123  0.55111  0.23736
 0.46354  0.55279  0.23904
 0.51585  0.55447  0.24072
 0.56815  0.55615  0.24240
 0.62046  0.55783  0.24408
 0.67277  0.55952  0.24577
 0.72507  0.56120  0.24745
 0.77738  0.56288  0.24913
 0.82969  0.56456  0.25081
 0.88199  0.56624  0.25249
 0.93430  0.56793  0.25418
 0.98661  0.56961  0.25586
 0.15300  0.59662  0.23225
 0.20531  0.59831  0.23393
 0.25761  0.59999  0.23561
 0.30992  0.60167  0.23729
 0.36223  0.60335  0.23898
 0.41453  0.60503  0.24066
 0.46684  0.60672  0.24234
 0.51915  0.60840  0.24402
 0.57145  0.61008  0.24570
 0.62376  0.61176  0.24739
 0.67607  0.61344  0.24907
 0.72837  0.61512  0.25075
 0.78068  0.61681  0.25243
 0.83299  0.61849  0.25411
 0.88530  0.62017  0.25580
 0.93760  0.62185  0.25748
 0.98991  0.62353  0.25916
 0.15630  0.65055  0.23555
 0.20861  0.65223  0.23723
 0.26092  0.65392  0.23891
 0.31322  0.65560  0.24060
 0.36553  0.65728  0.24228
 0.41784  0.65896  0.24396
 0.47014  0.66064  0.24564
 0.52245  0.66232  0.24732
 0.57476  0.66401  0.24901
 0.62706  0.66569  0.25069
 0.67937  0.66737  0.25237
 0.73168  0.66905  0.25405
 0.78398  0.67073  0.25573
 0.83629  0.67242  0.25742
 0.88860  0.67410  0.25910
 0.94090  0.67578  0.26078
 0.99321  0.67746  0.26246
 0.15960  0.70448  0.23885
 0.21191  0.70616  0.24053
 0.26422  0.70784  0.24222
 0.31652  0.70952  0.24390
 0.36883  0.71121  0.24558
 0.42114  0.71289  0.24726
 0.47344  0.71457  0.24894
 0.52575  0.71625  0.25063
 0.57806  0.71793  0.25231
 0.63037  0.71962  0.25399
 0.68267  0.72130  0.25567
 0.73498  0.72298  0.25735
 0.78729  0.72466  0.25904
 0.83959  0.72634  0.26072
 0.89190  0.72802  0.26240
 0.94421  0.72971  0.26408
 0.99651  0.73139  0.26576
 0.16290  0.75840  0.24215
 0.21521  0.76009  0.24384
 0.26752  0.76177  0.24552
 0.31983  0.76345  0.24720
 0.37213  0.76513  0.24888
 0.42444  0.76681  0.25056
 0.47675  0.76850  0.25225
 0.52905  0.77018  0.25393
 0.58136  0.77186  0.25561
 0.63367  0.77354  0.25729
 0.68597  0.77522  0.25897
 0.73828  0.77691  0.26066
 0.79059  0.77859  0.26234
 0.84289  0.78027  0.26402
 0.89520  0.78195  0.26570
 0.94751  0.78363  0.26738
 0.99981  0.78531  0.26906
 0.16621  0.81233  0.24546
 0.21851  0.81401  0.24714
 0.27082  0.81570  0.24882
 0.32313  0.81738  0.25050
 0.37543  0.81906  0.25218
 0.42774  0.82074  0.25387
 0.48005  0.82242  0.25555
 0.53235  0.82411  0.25723
 0.58466  0.82579  0.25891
 0.63697  0.82747  0.26059
 0.68928  0.82915  0.26228
 0.74158  0.83083  0.26396
 0.79389  0.83251  0.26564
 0.84620  0.83420  0.26732
 0.89850  0.83588  0.26900
 0.95081  0.83756  0.27068
 1.00000  0.83924  0.27237
 0.16951  0.86626  0.24876
 0.22182  0.86794  0.25044
 0.27412  0.86962  0.25212
 0.32643  0.87130  0.25380
 0.37874  0.87299  0.25549
 0.43104  0.87467  0.25717
 0.48335  0.87635  0.25885
 0.53566  0.87803  0.26053
 0.58796  0.87971  0.26221
 0.64027  0.88140  0.26390
 0.69258  0.88308  0.26558
 0.74488  0.88476  0.26726
 0.79719  0.88644  0.26894
 0.84950  0.88812  0.27062
 0.90180  0.88980  0.27230
 0.95411  0.89149  0.27399
 1.00000  0.89317  0.27567
 0.17281  0.92019  0.25206
 0.22512  0.92187  0.25374
 0.27742  0.92355  0.25542
 0.32973  0.92523  0.25711
 0.38204  0.92691  0.25879
 0.43434  0.92860  0.26047
 0.48665  0.93028  0.26215
 0.53896  0.93196  0.26383
 0.59127  0.93364  0.26552
 0.64357  0.93532  0.26720
 0.69588  0.93700  0.26888
 0.74819  0.93869  0.27056
 0.80049  0.94037  0.27224
 0.85280  0.94205  0.27393
 0.90511  0.94373  0.27561
 0.95741  0.94541  0.27729
 1.00000  0.94710  0.27897
 0.17611  0.97411  0.25536
 0.22842  0.97579  0.25704
 0.28073  0.97748  0.25873
 0.33303  0.97916  0.26041
 0.38534  0.98084  0.26209
 0.43765  0.98252  0.26377
 0.48995  0.98420  0.26545
 0.54226  0.98589  0.26714
 0.59457  0.98757  0.26882
 0.64687  0.98925  0.27050
 0.69918  0.99093  0.27218
 0.75149  0.99261  0.27386
 0.80380  0.99430  0.27554
 0.85610  0.99598  0.27723
 0.90841  0.99766  0.27891
 0.96072  0.99934  0.28059
 1.00000  1.00000  0.28227
 0.12392  0.11192  0.25380
 0.17623  0.11361  0.25548
 0.22854  0.11529  0.25716
 0.28084  0.11697  0.25884
 0.33315  0.11865  0.26053
 0.38546  0.12033  0.26221
 0.43777  0.12201  0.26389
 0.49007  0.12370  0.26557
 0.54238  0.12538  0.26725
 0.59469  0.12706  0.26894
 0.64699  0.12874  0.27062
 0.69930  0.13042  0.27230
 0.75161  0.13211  0.27398
 0.80391  0.13379  0.27566
 0.85622  0.13547  0.27735
 0.90853  0.13715  0.27903
 0.96083  0.13883  0.28071
