src/assets/luts/soft-cream.cube
TITLE "柔肤奶油"
LUT_3D_SIZE 9
DOMAIN_MIN 0.0 0.0 0.0
DOMAIN_MAX 1.0 1.0 1.0
# LumEdit built-in LUT · 明亮柔和，奶油肌
 0.12200  0.11000  0.10000
 0.22661  0.11336  0.10336
 0.33123  0.11673  0.10673
 0.43584  0.12009  0.11009
 0.54046  0.12345  0.11345
 0.64507  0.12682  0.11682
 0.74968  0.13018  0.12018
 0.85430  0.13355  0.12355
 0.95891  0.13691  0.12691
 0.12860  0.21785  0.10660
 0.23322  0.22122  0.10997
 0.33783  0.22458  0.11333
 0.44244  0.22795  0.11669
 0.54706  0.23131  0.12006
 0.65167  0.23467  0.12342
 0.75629  0.23804  0.12679
 0.86090  0.24140  0.13015
 0.96551  0.24476  0.13351
 0.13521  0.32571  0.11321
 0.23982  0.32907  0.11657
 0.34443  0.33243  0.11993
 0.44905  0.33580  0.12330
 0.55366  0.33916  0.12666
 0.65828  0.34253  0.13003
 0.76289  0.34589  0.13339
 0.86750  0.34925  0.13675
 0.97212  0.35262  0.14012
 0.14181  0.43356  0.11981
 0.24643  0.43693  0.12317
 0.35104  0.44029  0.12654
 0.45565  0.44365  0.12990
 0.56027  0.44702  0.13327
 0.66488  0.45038  0.13663
 0.76949  0.45374  0.13999
 0.87411  0.45711  0.14336
 0.97872  0.46047  0.14672
 0.14841  0.54141  0.12641
 0.25303  0.54478  0.12978
 0.35764  0.54814  0.13314
 0.46226  0.55151  0.13651
 0.56687  0.55487  0.13987
 0.67148  0.55823  0.14323
 0.77610  0.56160  0.14660
 0.88071  0.56496  0.14996
 0.98533  0.56832  0.15332
 0.15502  0.64927  0.13302
 0.25963  0.65263  0.13638
 0.36425  0.65600  0.13975
 0.46886  0.65936  0.14311
 0.57347  0.66272  0.14647
 0.67809  0.66609  0.14984
 0.78270  0.66945  0.15320
 0.88732  0.67281  0.15656
 0.99193  0.67618  0.15993
 0.16162  0.75712  0.13962
 0.26624  0.76049  0.14299
 0.37085  0.76385  0.14635
 0.47546  0.76721  0.14971
 0.58008  0.77058  0.15308
 0.68469  0.77394  0.15644
 0.78930  0.77730  0.15980
 0.89392  0.78067  0.16317
 0.99853  0.78403  0.16653
 0.16823  0.86498  0.14623
 0.27284  0.86834  0.14959
 0.37745  0.87170  0.15295
 0.48207  0.87507  0.15632
 0.58668  0.87843  0.15968
 0.69129  0.88180  0.16304
 0.79591  0.88516  0.16641
 0.90052  0.88852  0.16977
 1.00000  0.89189  0.17314
 0.17483  0.97283  0.15283
 0.27944  0.97619  0.15619
 0.38406  0.97956  0.15956
 0.48867  0.98292  0.16292
 0.59329  0.98629  0.16628
 0.69790  0.98965  0.16965
 0.80251  0.99301  0.17301
 0.90713  0.99638  0.17638
 1.00000  0.99974  0.17974
 0.12328  0.11128  0.20253
 0.22790  0.11465  0.20590
 0.33251  0.11801  0.20926
 0.43712  0.12137  0.21262
 0.54174  0.12474  0.21599
 0.64635  0.12810  0.21935
 0.75097  0.13146  0.22271
 0.85558  0.13483  0.22608
 0.96019  0.13819  0.22944
 0.12989  0.21914  0.20914
 0.23450  0.22250  0.21250
 0.33911  0.22586  0.21586
 0.44373  0.22923  0.21923
 0.54834  0.23259  0.22259
 0.65295  0.23596  0.22596
 0.75757  0.23932  0.22932
 0.86218  0.24268  0.23268
 0.96680  0.24605  0.23605
 0.13649  0.32699  0.21574
 0.24110  0.33035  0.21910
 0.34572  0.33372  0.22247
 0.45033  0.33708  0.22583
 0.55495  0.34044  0.22919
 0.65956  0.34381  0.23256
 0.76417  0.34717  0.23592
 0.86879  0.35054  0.23929
 0.97340  0.35390  0.24265
 0.14309  0.43484  0.22234
 0.24771  0.43821  0.22571
 0.35232  0.44157  0.22907
 0.45693  0.44493  0.23244
 0.56155  0.44830  0.23580
 0.66616  0.45166  0.23916
 0.77078  0.45503  0.24253
 0.87539  0.45839  0.24589
 0.98000  0.46175  0.24925
 0.14970  0.54270  0.22895
 0.25431  0.54606  0.23231
 0.35892  0.54943  0.23567
 0.46354  0.55279  0.23904
 0.56815  0.55615  0.24240
 0.67277  0.55952  0.24577
 0.77738  0.56288  0.24913
 0.88199  0.56624  0.25249
 0.98661  0.56961  0.25586
 0.15630  0.65055  0.23555
 0.26092  0.65392  0.23891
 0.36553  0.65728  0.24228
 0.47014  0.66064  0.24564
 0.57476  0.66401  0.24901
 0.67937  0.66737  0.25237
 0.78398  0.67073  0.25573
 0.88860  0.67410  0.25910
 0.99321  0.67746  0.26246
 0.16290  0.75840  0.24215
 0.26752  0.76177  0.24552
 0.37213  0.76513  0.24888
 0.47675  0.76850  0.25225
 0.58136  0.77186  0.25561
 0.68597  0.77522  0.25897
 0.79059  0.77859  0.26234
 0.89520  0.78195  0.26570
 0.99981  0.78531  0.26906
 0.16951  0.86626  0.24876
 0.27412  0.86962  0.25212
 0.37874  0.87299  0.25549
 0.48335  0.87635  0.25885
 0.58796  0.87971  0.26221
 0.69258  0.88308  0.26558
 0.79719  0.88644  0.26894
 0.90180  0.88980  0.27230
 1.00000  0.89317  0.27567
 0.17611  0.97411  0.25536
 0.28073  0.97748  0.25873
 0.38534  0.98084  0.26209
 0.48995  0.98420  0.26545
 0.59457  0.98757  0.26882
 0.69918  0.99093  0.27218
 0.80380  0.99430  0.27554
 0.90841  0.99766  0.27891
 1.00000  1.00000  0.28227
 0.12457  0.11257  0.30506
 0.22918  0.11593  0.30843
 0.33379  0.11929  0.31179
 0.43841  0.12266  0.31516
 0.54302  0.12602  0.31852
 0.64763  0.12938  0.32188
 0.75225  0.13275  0.32525
 0.85686  0.13611  0.32861
 0.96148  0.13948  0.33197
 0.13117  0.22042  0.31167
 0.23578  0.22378  0.31503
 0.34040  0.22715  0.31840
 0.44501  0.23051  0.32176
 0.54962  0.23387  0.32512
 0.65424  0.23724  0.32849
 0.75885  0.24060  0.33185
 0.86347  0.24396  0.33521
 0.96808  0.24733  0.33858
 0.13777  0.32827  0.31827
 0.24239  0.33164  0.32164
 0.34700  0.33500  0.32500
 0.45161  0.33836  0.32836
 0.55623  0.34173  0.33173
 0.66084  0.34509  0.33509
 0.76545  0.34846  0.33846
 0.87007  0.35182  0.34182
 0.97468  0.35518  0.34518
 0.14438  0.43613  0.32488
 0.24899  0.43949  0.32824
 0.35360  0.44285  0.33160
 0.45822  0.44622  0.33497
 0.56283  0.44958  0.33833
 0.66745  0.45294  0.34169
 0.77206  0.45631  0.34506
 0.87667  0.45967  0.34842
 0.98129  0.46304  0.35179
 0.15098  0.54398  0.33148
 0.25559  0.54734  0.33484
 0.36021  0.55071  0.33821
 0.46482  0.55407  0.34157
 0.56943  0.55743  0.34493
 0.67405  0.56080  0.34830
 0.77866  0.56416  0.35166
 0.88328  0.56753  0.35503
 0.98789  0.57089  0.35839
 0.15758  0.65183  0.33808
 0.26220  0.65520  0.34145
 0.36681  0.65856  0.34481
 0.47142  0.66192  0.34817
 0.57604  0.66529  0.35154
 0.68065  0.66865  0.35490
 0.78527  0.67202  0.35827
 0.88988  0.67538  0.36163
 0.99449  0.67874  0.36499
 0.16419  0.75969  0.34469
 0.26880  0.76305  0.34805
 0.37341  0.76642  0.35141
 0.47803  0.76978  0.35478
 0.58264  0.77314  0.35814
 0.68726  0.77651  0.36151
 0.79187  0.77987  0.36487
 0.89648  0.78323  0.36823
 1.00000  0.78660  0.37160
 0.17079  0.86754  0.35129
 0.27541  0.87091  0.35465
 0.38002  0.87427  0.35802
 0.48463  0.87763  0.36138
 0.58925  0.88100  0.36475
 0.69386  0.88436  0.36811
 0.79847  0.88772  0.37147
 0.90309  0.89109  0.37484
 1.00000  0.89445  0.37820
 0.17739  0.97540  0.35789
 0.28201  0.97876  0.36126
 0.38662  0.98212  0.36462
 0.49124  0.98549  0.36799
 0.59585  0.98885  0.37135
 0.70046  0.99221  0.37471
 0.80508  0.99558  0.37808
 0.90969  0.99894  0.38144
 1.00000  1.00000  0.38481
 0.12585  0.11385  0.40760
 0.23046  0.11721  0.41096
 0.33508  0.12057  0.41432
 0.43969  0.12394  0.41769
 0.54430  0.12730  0.42105
 0.64892  0.13067  0.42442
 0.75353  0.13403  0.42778
 0.85814  0.13739  0.43114
 0.96276  0.14076  0.43451
 0.13245  0.22170  0.41420
 0.23707  0.22507  0.41757
 0.34168  0.22843  0.42093
 0.44629  0.23179  0.42429
 0.55091  0.23516  0.42766
 0.65552  0.23852  0.43102
 0.76013  0.24188  0.43438
 0.86475  0.24525  0.43775
 0.96936  0.24861  0.44111
 0.13906  0.32955  0.42081
 0.24367  0.33292  0.42417
 0.34828  0.33628  0.42753
 0.45290  0.33965  0.43090
 0.55751  0.34301  0.43426
 0.66212  0.34637  0.43762
 0.76674  0.34974  0.44099
 0.87135  0.35310  0.44435
 0.97597  0.35646  0.44771
 0.14566  0.43741  0.42741
 0.25027  0.44077  0.43077
 0.35489  0.44414  0.43414
 0.45950  0.44750  0.43750
 0.56411  0.45086  0.44086
 0.66873  0.45423  0.44423
 0.77334  0.45759  0.44759
 0.87796  0.46096  0.45095
 0.98257  0.46432  0.45432
 0.15226  0.54526  0.43401
 0.25688  0.54863  0.43738
 0.36149  0.55199  0.44074
 0.46610  0.55535  0.44410
 0.57072  0.55872  0.44747
 0.67533  0.56208  0.45083
 0.77995  0.56544  0.45419
 0.88456  0.56881  0.45756
 0.98917  0.57217  0.46092
 0.15887  0.65312  0.44062
 0.26348  0.65648  0.44398
 0.36809  0.65984  0.44734
 0.47271  0.66321  0.45071
 0.57732  0.66657  0.45407
 0.68193  0.66993  0.45743
 0.78655  0.67330  0.46080
 0.89116  0.67666  0.46416
 0.99578  0.68003  0.46753
 0.16547  0.76097  0.44722
 0.27008  0.76433  0.45058
 0.37470  0.76770  0.45395
 0.47931  0.77106  0.45731
 0.58393  0.77442  0.46068
 0.68854  0.77779  0.46404
 0.79315  0.78115  0.46740
 0.89777  0.78452  0.47077
 1.00000  0.78788  0.47413
 0.17207  0.86882  0.45382
 0.27669  0.87219  0.45719
 0.38130  0.87555  0.46055
 0.48591  0.87891  0.46391
 0.59053  0.88228  0.46728
 0.69514  0.88564  0.47064
 0.79976  0.88901  0.47401
 0.90437  0.89237  0.47737
 1.00000  0.89573  0.48073
 0.17868  0.97668  0.46043
 0.28329  0.98004  0.46379
 0.38790  0.98341  0.46715
 0.49252  0.98677  0.47052
 0.59713  0.99013  0.47388
 0.70175  0.99350  0.47725
 0.80636  0.99686  0.48061
 0.91097  1.00000  0.48397
 1.00000  1.00000  0.48734
 0.12713  0.11513  0.51013
 0.23174  0.11849  0.51349
 0.33636  0.12186  0.51686
 0.44097  0.12522  0.52022
 0.54558  0.12859  0.52358
 0.65020  0.13195  0.52695
 0.75481  0.13531  0.53031
 0.85943  0.13868  0.53368
 0.96404  0.14204  0.53704
 0.13373  0.22298  0.51673
 0.23835  0.22635  0.52010
 0.34296  0.22971  0.52346
 0.44758  0.23307  0.52682
 0.55219  0.23644  0.53019
 0.65680  0.23980  0.53355
 0.76142  0.24317  0.53692
 0.86603  0.24653  0.54028
 0.97064  0.24989  0.54364
 0.14034  0.33084  0.52334
 0.24495  0.33420  0.52670
 0.34957  0.33757  0.53007
 0.45418  0.34093  0.53343
 0.55879  0.34429  0.53679
 0.66341  0.34766  0.54016
 0.76802  0.35102  0.54352
 0.87263  0.35438  0.54688
 0.97725  0.35775  0.55025
 0.14694  0.43869  0.52994
 0.25156  0.44205  0.53331
 0.35617  0.44542  0.53667
 0.46078  0.44878  0.54003
 0.56540  0.45215  0.54340
 0.67001  0.45551  0.54676
 0.77462  0.45887  0.55012
 0.87924  0.46224  0.55349
 0.98385  0.46560  0.55685
 0.15354  0.54655  0.53655
 0.25816  0.54991  0.53991
 0.36277  0.55327  0.54327
 0.46739  0.55664  0.54664
 0.57200  0.56000  0.55000
 0.67661  0.56336  0.55336
 0.78123  0.56673  0.55673
 0.88584  0.57009  0.56009
 0.99046  0.57346  0.56346
 0.16015  0.65440  0.54315
 0.26476  0.65776  0.54651
 0.36938  0.66113  0.54988
 0.47399  0.66449  0.55324
 0.57860  0.66785  0.55660
 0.68322  0.67122  0.55997
 0.78783  0.67458  0.56333
 0.89244  0.67795  0.56669
 0.99706  0.68131  0.57006
 0.16675  0.76225  0.54975
 0.27137  0.76562  0.55312
 0.37598  0.76898  0.55648
 0.48059  0.77234  0.55984
 0.58521  0.77571  0.56321
 0.68982  0.77907  0.56657
 0.79444  0.78243  0.56994
 0.89905  0.78580  0.57330
 1.00000  0.78916  0.57666
 0.17336  0.87011  0.55636
 0.27797  0.87347  0.55972
 0.38258  0.87683  0.56308
 0.48720  0.88020  0.56645
 0.59181  0.88356  0.56981
 0.69643  0.88692  0.57317
 0.80104  0.89029  0.57654
 0.90565  0.89365  0.57990
 1.00000  0.89702  0.58327
 0.17996  0.97796  0.56296
 0.28457  0.98132  0.56632
 0.38919  0.98469  0.56969
 0.49380  0.98805  0.57305
 0.59841  0.99141  0.57641
 0.70303  0.99478  0.57978
 0.80764  0.99814  0.58314
 0.91226  1.00000  0.58651
 1.00000  1.00000  0.58987
 0.12841  0.11641  0.61266
 0.23303  0.11978  0.61603
 0.33764  0.12314  0.61939
 0.44225  0.12650  0.62275
 0.54687  0.12987  0.62612
 0.65148  0.13323  0.62948
 0.75609  0.13659  0.63284
 0.86071  0.13996  0.63621
 0.96532  0.14332  0.63957
 0.13502  0.22427  0.61927
 0.23963  0.22763  0.62263
 0.34424  0.23099  0.62599
 0.44886  0.23436  0.62936
 0.55347  0.23772  0.63272
 0.65809  0.24108  0.63609
 0.76270  0.24445  0.63945
 0.86731  0.24781  0.64281
 0.97193  0.25118  0.64618
 0.14162  0.33212  0.62587
 0.24623  0.33548  0.62923
 0.35085  0.33885  0.63260
 0.45546  0.34221  0.63596
 0.56008  0.34557  0.63933
 0.66469  0.34894  0.64269
 0.76930  0.35230  0.64605
 0.87392  0.35567  0.64942
 0.97853  0.35903  0.65278
 0.14822  0.43997  0.63247
 0.25284  0.44334  0.63584
 0.35745  0.44670  0.63920
 0.46207  0.45006  0.64257
 0.56668  0.45343  0.64593
 0.67129  0.45679  0.64929
 0.77591  0.46016  0.65266
 0.88052  0.46352  0.65602
 0.98513  0.46688  0.65938
 0.15483  0.54783  0.63908
 0.25944  0.55119  0.64244
 0.36406  0.55456  0.64580
 0.46867  0.55792  0.64917
 0.57328  0.56128  0.65253
 0.67790  0.56465  0.65590
 0.78251  0.56801  0.65926
 0.88712  0.57137  0.66262
 0.99174  0.57474  0.66599
 0.16143  0.65568  0.64568
 0.26604  0.65904  0.64904
 0.37066  0.66241  0.65241
 0.47527  0.66577  0.65577
 0.57989  0.66914  0.65914
 0.68450  0.67250  0.66250
 0.78911  0.67586  0.66586
 0.89373  0.67923  0.66923
 0.99834  0.68259  0.67259
 0.16803  0.76354  0.65229
 0.27265  0.76690  0.65565
 0.37726  0.77026  0.65901
 0.48188  0.77363  0.66238
 0.58649  0.77699  0.66574
 0.69110  0.78035  0.66910
 0.79572  0.78372  0.67247
 0.90033  0.78708  0.67583
 1.00000  0.79045  0.67919
 0.17464  0.87139  0.65889
 0.27925  0.87475  0.66225
 0.38387  0.87812  0.66562
 0.48848  0.88148  0.66898
 0.59309  0.88484  0.67234
 0.69771  0.88821  0.67571
 0.80232  0.89157  0.67907
 0.90694  0.89494  0.68243
 1.00000  0.89830  0.68580
 0.18124  0.97924  0.66549
 0.28586  0.98261  0.66886
 0.39047  0.98597  0.67222
 0.49508  0.98933  0.67558
 0.59970  0.99270  0.67895
 0.70431  0.99606  0.68231
 0.80893  0.99943  0.68568
 0.91354  1.00000  0.68904
 1.00000  1.00000  0.69240
 0.12970  0.11769  0.71520
 0.23431  0.12106  0.71856
 0.33892  0.12442  0.72192
 0.44354  0.12779  0.72529
 0.54815  0.13115  0.72865
 0.65276  0.13451  0.73201
 0.75738  0.13788  0.73538
 0.86199  0.14124  0.73874
 0.96661  0.14460  0.74211
 0.13630  0.22555  0.72180
 0.24091  0.22891  0.72516
 0.34553  0.23228  0.72853
 0.45014  0.23564  0.73189
 0.55475  0.23900  0.73525
 0.65937  0.24237  0.73862
 0.76398  0.24573  0.74198
 0.86860  0.24909  0.74534
 0.97321  0.25246  0.74871
 0.14290  0.33340  0.72840
 0.24752  0.33677  0.73177
 0.35213  0.34013  0.73513
 0.45674  0.34349  0.73849
 0.56136  0.34686  0.74186
 0.66597  0.35022  0.74522
 0.77059  0.35358  0.74859
 0.87520  0.35695  0.75195
 0.97981  0.36031  0.75531
 0.14951  0.44126  0.73501
 0.25412  0.44462  0.73837
 0.35873  0.44798  0.74173
 0.46335  0.45135  0.74510
 0.56796  0.45471  0.74846
 0.67257  0.45807  0.75182
 0.77719  0.46144  0.75519
 0.88180  0.46480  0.75855
 0.98642  0.46817  0.76192
 0.15611  0.54911  0.74161
 0.26072  0.55247  0.74497
 0.36534  0.55584  0.74834
 0.46995  0.55920  0.75170
 0.57456  0.56256  0.75507
 0.67918  0.56593  0.75843
 0.78379  0.56929  0.76179
 0.88841  0.57266  0.76516
 0.99302  0.57602  0.76852
 0.16271  0.65696  0.74821
 0.26733  0.66033  0.75158
 0.37194  0.66369  0.75494
 0.47656  0.66705  0.75831
 0.58117  0.67042  0.76167
 0.68578  0.67378  0.76503
 0.79040  0.67715  0.76840
 0.89501  0.68051  0.77176
 0.99962  0.68387  0.77512
 0.16932  0.76482  0.75482
 0.27393  0.76818  0.75818
 0.37854  0.77154  0.76154
 0.48316  0.77491  0.76491
 0.58777  0.77827  0.76827
 0.69239  0.78164  0.77164
 0.79700  0.78500  0.77500
 0.90161  0.78836  0.77836
 1.00000  0.79173  0.78173
 0.17592  0.87267  0.76142
 0.28053  0.87604  0.76479
 0.38515  0.87940  0.76815
 0.48976  0.88276  0.77151
 0.59438  0.88613  0.77488
 0.69899  0.88949  0.77824
 0.80360  0.89285  0.78160
 0.90822  0.89622  0.78497
 1.00000  0.89958  0.78833
 0.18253  0.98053  0.76802
 0.28714  0.98389  0.77139
 0.39175  0.98725  0.77475
 0.49637  0.99062  0.77812
 0.60098  0.99398  0.78148
 0.70559  0.99734  0.78484
 0.81021  1.00000  0.78821
 0.91482  1.00000  0.79157
 1.00000  1.00000  0.79493
 0.13098  0.11898  0.81773
 0.23559  0.12234  0.82109
 0.34021  0.12570  0.82446
 0.44482  0.12907  0.82782
 0.54943  0.13243  0.83118
 0.65405  0.13580  0.83455
 0.75866  0.13916  0.83791
 0.86327  0.14252  0.84127
 0.96789  0.14589  0.84464
 0.13758  0.22683  0.82433
 0.24219  0.23019  0.82770
 0.34681  0.23356  0.83106
 0.45142  0.23692  0.83442
 0.55604  0.24029  0.83779
 0.66065  0.24365  0.84115
 0.76526  0.24701  0.84451
 0.86988  0.25038  0.84788
 0.97449  0.25374  0.85124
 0.14419  0.33469  0.83094
 0.24880  0.33805  0.83430
 0.35341  0.34141  0.83766
 0.45803  0.34478  0.84103
 0.56264  0.34814  0.84439
 0.66725  0.35150  0.84775
 0.77187  0.35487  0.85112
 0.87648  0.35823  0.85448
 0.98110  0.36159  0.85784
 0.15079  0.44254  0.83754
 0.25540  0.44590  0.84090
 0.36002  0.44927  0.84427
 0.46463  0.45263  0.84763
 0.56924  0.45599  0.85099
 0.67386  0.45936  0.85436
 0.77847  0.46272  0.85772
 0.88309  0.46609  0.86109
 0.98770  0.46945  0.86445
 0.15739  0.55039  0.84414
 0.26201  0.55376  0.84751
 0.36662  0.55712  0.85087
 0.47123  0.56048  0.85423
 0.57585  0.56385  0.85760
 0.68046  0.56721  0.86096
 0.78507  0.57058  0.86433
 0.88969  0.57394  0.86769
 0.99430  0.57730  0.87105
 0.16400  0.65825  0.85075
 0.26861  0.66161  0.85411
 0.37322  0.66497  0.85747
 0.47784  0.66834  0.86084
 0.58245  0.67170  0.86420
 0.68707  0.67507  0.86756
 0.79168  0.67843  0.87093
 0.89629  0.68179  0.87429
 1.00000  0.68516  0.87766
 0.17060  0.76610  0.85735
 0.27521  0.76946  0.86071
 0.37983  0.77283  0.86408
 0.48444  0.77619  0.86744
 0.58906  0.77955  0.87081
 0.69367  0.78292  0.87417
 0.79828  0.78628  0.87753
 0.90290  0.78965  0.88090
 1.00000  0.79301  0.88426
 0.17720  0.87395  0.86395
 0.28182  0.87732  0.86732
 0.38643  0.88068  0.87068
 0.49105  0.88404  0.87404
 0.59566  0.88741  0.87741
 0.70027  0.89077  0.88077
 0.80489  0.89414  0.88414
 0.90950  0.89750  0.88750
 1.00000  0.90086  0.89086
 0.18381  0.98181  0.87056
 0.28842  0.98517  0.87392
 0.39303  0.98853  0.87729
 0.49765  0.99190  0.88065
 0.60226  0.99526  0.88401
 0.70688  0.99863  0.88738
 0.81149  1.00000  0.89074
 0.91610  1.00000  0.89410
 1.00000  1.00000  0.89747
 0.13226  0.12026  0.92026
 0.23687  0.12362  0.92362
 0.34149  0.12699  0.92699
 0.44610  0.13035  0.93035
 0.55072  0.13371  0.93372
 0.65533  0.13708  0.93708
 0.75994  0.14044  0.94044
 0.86456  0.14381  0.94381
 0.96917  0.14717  0.94717
 0.13886  0.22811  0.92686
 0.24348  0.23148  0.93023
 0.34809  0.23484  0.93359
 0.45271  0.23820  0.93695
 0.55732  0.24157  0.94032
 0.66193  0.24493  0.94368
 0.76655  0.24830  0.94705
 0.87116  0.25166  0.95041
 0.97577  0.25502  0.95377
 0.14547  0.33597  0.93347
 0.25008  0.33933  0.93683
 0.35470  0.34270  0.94020
 0.45931  0.34606  0.94356
 0.56392  0.34942  0.94692
 0.66854  0.35279  0.95029
 0.77315  0.35615  0.95365
 0.87776  0.35951  0.95701
 0.98238  0.36288  0.96038
 0.15207  0.44382  0.94007
 0.25668  0.44718  0.94344
 0.36130  0.45055  0.94680
 0.46591  0.45391  0.95016
 0.57053  0.45728  0.95353
 0.67514  0.46064  0.95689
 0.77975  0.46400  0.96025
 0.88437  0.46737  0.96362
 0.98898  0.47073  0.96698
 0.15868  0.55168  0.94667
 0.26329  0.55504  0.95004
 0.36790  0.55840  0.95340
 0.47252  0.56177  0.95677
 0.57713  0.56513  0.96013
 0.68174  0.56849  0.96349
 0.78636  0.57186  0.96686
 0.89097  0.57522  0.97022
 0.99559  0.57859  0.97359
 0.16528  0.65953  0.95328
 0.26989  0.66289  0.95664
 0.37451  0.66626  0.96001
 0.47912  0.66962  0.96337
 0.58373  0.67298  0.96673
 0.68835  0.67635  0.97010
 0.79296  0.67971  0.97346
 0.89758  0.68308  0.97683
 1.00000  0.68644  0.98019
 0.17188  0.76738  0.95988
 0.27650  0.77075  0.96325
 0.38111  0.77411  0.96661
 0.48572  0.77747  0.96997
 0.59034  0.78084  0.97334
 0.69495  0.78420  0.97670
 0.79957  0.78757  0.98006
 0.90418  0.79093  0.98343
 1.00000  0.79429  0.98679
 0.17849  0.87524  0.96649
 0.28310  0.87860  0.96985
 0.38771  0.88196  0.97321
 0.49233  0.88533  0.97658
 0.59694  0.88869  0.97994
 0.70156  0.89206  0.98331
 0.80617  0.89542  0.98667
 0.91078  0.89878  0.99003
 1.00000  0.90215  0.99340
 0.18509  0.98309  0.97309
 0.28970  0.98645  0.97645
 0.39432  0.98982  0.97982
 0.49893  0.99318  0.98318
 0.60354  0.99655  0.98655
 0.70816  0.99991  0.98991
 0.81277  1.00000  0.99327
 0.91739  1.00000  0.99664
 1.00000  1.00000  1.00000
