src/assets/luts/soft-cream.cube
TITLE "柔肤奶油"
LUT_3D_SIZE 5
DOMAIN_MIN 0.0 0.0 0.0
DOMAIN_MAX 1.0 1.0 1.0
# LumEdit built-in LUT · 明亮柔和，奶油肌
 0.12200  0.11000  0.10000
 0.33123  0.11673  0.10673
 0.54046  0.12345  0.11345
 0.74968  0.13018  0.12018
 0.95891  0.13691  0.12691
 0.13521  0.32571  0.11321
 0.34443  0.33243  0.11993
 0.55366  0.33916  0.12666
 0.76289  0.34589  0.13339
 0.97212  0.35262  0.14012
 0.14841  0.54141  0.12641
 0.35764  0.54814  0.13314
 0.56687  0.55487  0.13987
 0.77610  0.56160  0.14660
 0.98533  0.56832  0.15332
 0.16162  0.75712  0.13962
 0.37085  0.76385  0.14635
 0.58008  0.77058  0.15308
 0.78930  0.77730  0.15980
 0.99853  0.78403  0.16653
 0.17483  0.97283  0.15283
 0.38406  0.97956  0.15956
 0.59329  0.98629  0.16628
 0.80251  0.99301  0.17301
 1.00000  0.99974  0.17974
 0.12457  0.11257  0.30506
 0.33379  0.11929  0.31179
 0.54302  0.12602  0.31852
 0.75225  0.13275  0.32525
 0.96148  0.13948  0.33197
 0.13777  0.32827  0.31827
 0.34700  0.33500  0.32500
 0.55623  0.34173  0.33173
 0.76545  0.34846  0.33846
 0.97468  0.35518  0.34518
 0.15098  0.54398  0.33148
 0.36021  0.55071  0.33821
 0.56943  0.55743  0.34493
 0.77866  0.56416  0.35166
 0.98789  0.57089  0.35839
 0.16419  0.75969  0.34469
 0.37341  0.76642  0.35141
 0.58264  0.77314  0.35814
 0.79187  0.77987  0.36487
 1.00000  0.78660  0.37160
 0.17739  0.97540  0.35789
 0.38662  0.98212  0.36462
 0.59585  0.98885  0.37135
 0.80508  0.99558  0.37808
 1.00000  1.00000  0.38481
 0.12713  0.11513  0.51013
 0.33636  0.12186  0.51686
 0.54558  0.12859  0.52358
 0.75481  0.13531  0.53031
 0.96404  0.14204  0.53704
 0.14034  0.33084  0.52334
 0.34957  0.33757  0.53007
 0.55879  0.34429  0.53679
 0.76802  0.35102  0.54352
 0.97725  0.35775  0.55025
 0.15354  0.54655  0.53655
 0.36277  0.55327  0.54327
 0.57200  0.56000  0.55000
 0.78123  0.56673  0.55673
 0.99046  0.57346  0.56346
 0.16675  0.76225  0.54975
 0.37598  0.76898  0.55648
 0.58521  0.77571  0.56321
 0.79444  0.78243  0.56994
 1.00000  0.78916  0.57666
 0.17996  0.97796  0.56296
 0.38919  0.98469  0.56969
 0.59841  0.99141  0.57641
 0.80764  0.99814  0.58314
 1.00000  1.00000  0.58987
 0.12970  0.11769  0.71520
 0.33892  0.12442  0.72192
 0.54815  0.13115  0.72865
 0.75738  0.13788  0.73538
 0.96661  0.14460  0.74211
 0.14290  0.33340  0.72840
 0.35213  0.34013  0.73513
 0.56136  0.34686  0.74186
 0.77059  0.35358  0.74859
 0.97981  0.36031  0.75531
 0.15611  0.54911  0.74161
 0.36534  0.55584  0.74834
 0.57456  0.56256  0.75507
 0.78379  0.56929  0.76179
 0.99302  0.57602  0.76852
 0.16932  0.76482  0.75482
 0.37854  0.77154  0.76154
 0.58777  0.77827  0.76827
 0.79700  0.78500  0.77500
 1.00000  0.79173  0.78173
 0.18253  0.98053  0.76802
 0.39175  0.98725  0.77475
 0.60098  0.99398  0.78148
 0.81021  1.00000  0.78821
 1.00000  1.00000  0.79493
 0.13226  0.12026  0.92026
 0.34149  0.12699  0.92699
 0.55072  0.13371  0.93372
 0.75994  0.14044  0.94044
 0.96917  0.14717  0.94717
 0.14547  0.33597  0.93347
 0.35470  0.34270  0.94020
 0.56392  0.34942  0.94692
 0.77315  0.35615  0.95365
 0.98238  0.36288  0.96038
 0.15868  0.55168  0.94667
 0.36790  0.55840  0.95340
 0.57713  0.56513  0.96013
 0.78636  0.57186  0.96686
 0.99559  0.57859  0.97359
 0.17188  0.76738  0.95988
 0.38111  0.77411  0.96661
 0.59034  0.78084  0.97334
 0.79957  0.78757  0.98006
 1.00000  0.79429  0.98679
 0.18509  0.98309  0.97309
 0.39432  0.98982  0.97982
 0.60354  0.99655  0.98655
 0.81277  1.00000  0.99327
 1.00000  1.00000  1.00000
