src/assets/luts/teal-orange.cube
TITLE "青橙电影"
LUT_3D_SIZE 9
DOMAIN_MIN 0.0 0.0 0.0
DOMAIN_MAX 1.0 1.0 1.0
# LumEdit built-in LUT · 阴影青、高光橙的电影配色
 0.00000  0.00000  0.00000
 0.12500  0.00000  0.00000
 0.25000  0.00000  0.00000
 0.37500  0.00000  0.00000
 0.50000  0.00000  0.00000
 0.62500  0.00000  0.00000
 0.75000  0.00000  0.00000
 0.87500  0.00000  0.00000
 1.00000  0.00000  0.00000
 0.00000  0.12500  0.00000
 0.12500  0.12500  0.00000
 0.25000  0.12500  0.00000
 0.37500  0.12500  0.00000
 0.50000  0.12500  0.00000
 0.62500  0.12500  0.00000
 0.75000  0.12500  0.00000
 0.87500  0.12500  0.00000
 1.00000  0.12500  0.00000
 0.00000  0.25000  0.00000
 0.12500  0.25000  0.00000
 0.25000  0.25000  0.00000
 0.37500  0.25000  0.00000
 0.50000  0.25000  0.00000
 0.62500  0.25000  0.00000
 0.75000  0.25000  0.00000
 0.87500  0.25000  0.00000
 1.00000  0.25000  0.00000
 0.00000  0.37500  0.00000
 0.12500  0.37500  0.00000
 0.25000  0.37500  0.00000
 0.37500  0.37500  0.00000
 0.50000  0.37500  0.00000
 0.62500  0.37500  0.00000
 0.75000  0.37500  0.00000
 0.87500  0.37500  0.00000
 0.98712  0.37734  0.00780
 0.00000  0.50000  0.00000
 0.12500  0.50000  0.00000
 0.25000  0.50000  0.00000
 0.37500  0.50000  0.00000
 0.50000  0.50000  0.00000
 0.62500  0.50000  0.00000
 0.74112  0.50062  0.00726
 0.84549  0.50193  0.02124
 0.94723  0.50324  0.03346
 0.00000  0.62500  0.00000
 0.12500  0.62500  0.00000
 0.25000  0.62500  0.00000
 0.37500  0.62500  0.00000
 0.49464  0.62414  0.00671
 0.60553  0.62218  0.02075
 0.71378  0.62022  0.03304
 0.81941  0.61825  0.04357
 0.92241  0.61629  0.05233
 0.00000  0.75000  0.00000
 0.12500  0.75000  0.00000
 0.24769  0.74790  0.00616
 0.36509  0.74267  0.02027
 0.47986  0.73743  0.03262
 0.59201  0.73220  0.04321
 0.70152  0.72697  0.05204
 0.80841  0.72174  0.05911
 0.91266  0.71651  0.06442
 0.00026  0.87190  0.00561
 0.12418  0.86340  0.01978
 0.24547  0.85489  0.03220
 0.36413  0.84639  0.04285
 0.48016  0.83789  0.05175
 0.59356  0.82939  0.05888
 0.70433  0.82088  0.06426
 0.81248  0.81238  0.06787
 0.91799  0.80388  0.06973
 0.01060  0.97259  0.03177
 0.13577  0.96082  0.04249
 0.25832  0.94905  0.05145
 0.37824  0.93728  0.05865
 0.49553  0.92550  0.06409
 0.61019  0.91373  0.06777
 0.72222  0.90196  0.06969
 0.83162  0.89018  0.06985
 0.93839  0.87841  0.06825
 0.00000  0.00000  0.12500
 0.12500  0.00000  0.12500
 0.25000  0.00000  0.12500
 0.37500  0.00000  0.12500
 0.50000  0.00000  0.12500
 0.62500  0.00000  0.12500
 0.75000  0.00000  0.12500
 0.87500  0.00000  0.12500
 1.00000  0.00000  0.12500
 0.00000  0.12500  0.12500
 0.12500  0.12500  0.12500
 0.25000  0.12500  0.12500
 0.37500  0.12500  0.12500
 0.50000  0.12500  0.12500
 0.62500  0.12500  0.12500
 0.75000  0.12500  0.12500
 0.87500  0.12500  0.12500
 1.00000  0.12500  0.12500
 0.00000  0.25000  0.12500
 0.12500  0.25000  0.12500
 0.25000  0.25000  0.12500
 0.37500  0.25000  0.12500
 0.50000  0.25000  0.12500
 0.62500  0.25000  0.12500
 0.75000  0.25000  0.12500
 0.87500  0.25000  0.12500
 1.00000  0.25000  0.12500
 0.00000  0.37500  0.12500
 0.12500  0.37500  0.12500
 0.25000  0.37500  0.12500
 0.37500  0.37500  0.12500
 0.50000  0.37500  0.12500
 0.62500  0.37500  0.12500
 0.75000  0.37500  0.12500
 0.87500  0.37500  0.12500
 0.97820  0.37909  0.13540
 0.00000  0.50000  0.12500
 0.12500  0.50000  0.12500
 0.25000  0.50000  0.12500
 0.37500  0.50000  0.12500
 0.50000  0.50000  0.12500
 0.62500  0.50000  0.12500
 0.73463  0.50112  0.13499
 0.83925  0.50243  0.14504
 0.94123  0.50374  0.15332
 0.00000  0.62500  0.12500
 0.12500  0.62500  0.12500
 0.25000  0.62500  0.12500
 0.37500  0.62500  0.12500
 0.49059  0.62339  0.13459
 0.60172  0.62143  0.14470
 0.71022  0.61947  0.15304
 0.81609  0.61751  0.15963
 0.91934  0.61554  0.16445
 0.00000  0.75000  0.12500
 0.12500  0.75000  0.12500
 0.24608  0.74591  0.13419
 0.36373  0.74067  0.14436
 0.47874  0.73544  0.15277
 0.59113  0.73021  0.15942
 0.70089  0.72498  0.16430
 0.80802  0.71974  0.16743
 0.91252  0.71451  0.16880
 0.00109  0.86866  0.13378
 0.12525  0.86016  0.14401
 0.24679  0.85165  0.15249
 0.36569  0.84315  0.15920
 0.48197  0.83465  0.16416
 0.59561  0.82614  0.16735
 0.70663  0.81764  0.16878
 0.81502  0.80914  0.16846
 0.92077  0.80064  0.16637
 0.01435  0.96811  0.15221
 0.13977  0.95633  0.15899
 0.26257  0.94456  0.16401
 0.38273  0.93279  0.16726
 0.50026  0.92101  0.16876
 0.61517  0.90924  0.16850
 0.72744  0.89747  0.16648
 0.83709  0.88569  0.16270
 0.94411  0.87392  0.15716
 0.00000  0.00000  0.25000
 0.12500  0.00000  0.25000
 0.25000  0.00000  0.25000
 0.37500  0.00000  0.25000
 0.50000  0.00000  0.25000
 0.62500  0.00000  0.25000
 0.75000  0.00000  0.25000
 0.87500  0.00000  0.25000
 1.00000  0.00000  0.25000
 0.00000  0.12500  0.25000
 0.12500  0.12500  0.25000
 0.25000  0.12500  0.25000
 0.37500  0.12500  0.25000
 0.50000  0.12500  0.25000
 0.62500  0.12500  0.25000
 0.75000  0.12500  0.25000
 0.87500  0.12500  0.25000
 1.00000  0.12500  0.25000
 0.00000  0.25000  0.25000
 0.12500  0.25000  0.25000
 0.25000  0.25000  0.25000
 0.37500  0.25000  0.25000
 0.50000  0.25000  0.25000
 0.62500  0.25000  0.25000
 0.75000  0.25000  0.25000
 0.87500  0.25000  0.25000
 1.00000  0.25000  0.25000
 0.00000  0.37500  0.25000
 0.12500  0.37500  0.25000
 0.25000  0.37500  0.25000
 0.37500  0.37500  0.25000
 0.50000  0.37500  0.25000
 0.62500  0.37500  0.25000
 0.75000  0.37500  0.25000
 0.86887  0.37626  0.25245
 0.96984  0.38083  0.26024
 0.00000  0.50000  0.25000
 0.12500  0.50000  0.25000
 0.25000  0.50000  0.25000
 0.37500  0.50000  0.25000
 0.50000  0.50000  0.25000
 0.62123  0.50031  0.25212
 0.72871  0.50162  0.25998
 0.83357  0.50293  0.26608
 0.93580  0.50423  0.27042
 0.00000  0.62500  0.25000
 0.12500  0.62500  0.25000
 0.25000  0.62500  0.25000
 0.37311  0.62461  0.25180
 0.48711  0.62264  0.25973
 0.59849  0.62068  0.26589
 0.70723  0.61872  0.27029
 0.81335  0.61676  0.27294
 0.91683  0.61480  0.27382
 0.00000  0.75000  0.25000
 0.12452  0.74914  0.25148
 0.24504  0.74391  0.25947
 0.36293  0.73868  0.26569
 0.47819  0.73345  0.27016
 0.59082  0.72821  0.27287
 0.70082  0.72298  0.27382
 0.80820  0.71775  0.27301
 0.91294  0.71252  0.27043
 0.00248  0.86542  0.25920
 0.12689  0.85691  0.26550
 0.24867  0.84841  0.27003
 0.36782  0.83991  0.27280
 0.48434  0.83141  0.27381
 0.59823  0.82290  0.27307
 0.70949  0.81440  0.27056
 0.81812  0.80590  0.26629
 0.92413  0.79739  0.26026
 0.01868  0.96362  0.26989
 0.14434  0.95184  0.27273
 0.26738  0.94007  0.27381
 0.38779  0.92830  0.27313
 0.50556  0.91653  0.27068
 0.62071  0.90475  0.26648
 0.73323  0.89298  0.26052
 0.84312  0.88121  0.25279
 0.95038  0.86943  0.24331
 0.00000  0.00000  0.37500
 0.12500  0.00000  0.37500
 0.25000  0.00000  0.37500
 0.37500  0.00000  0.37500
 0.50000  0.00000  0.37500
 0.62500  0.00000  0.37500
 0.75000  0.00000  0.37500
 0.87500  0.00000  0.37500
 1.00000  0.00000  0.37500
 0.00000  0.12500  0.37500
 0.12500  0.12500  0.37500
 0.25000  0.12500  0.37500
 0.37500  0.12500  0.37500
 0.50000  0.12500  0.37500
 0.62500  0.12500  0.37500
 0.75000  0.12500  0.37500
 0.87500  0.12500  0.37500
 1.00000  0.12500  0.37500
 0.00000  0.25000  0.37500
 0.12500  0.25000  0.37500
 0.25000  0.25000  0.37500
 0.37500  0.25000  0.37500
 0.50000  0.25000  0.37500
 0.62500  0.25000  0.37500
 0.75000  0.25000  0.37500
 0.87500  0.25000  0.37500
 1.00000  0.25000  0.37500
 0.00000  0.37500  0.37500
 0.12500  0.37500  0.37500
 0.25000  0.37500  0.37500
 0.37500  0.37500  0.37500
 0.50000  0.37500  0.37500
 0.62500  0.37500  0.37500
 0.75000  0.37500  0.37500
 0.86083  0.37800  0.37848
 0.96205  0.38258  0.38233
 0.00000  0.50000  0.37500
 0.12500  0.50000  0.37500
 0.25000  0.50000  0.37500
 0.37500  0.50000  0.37500
 0.50000  0.50000  0.37500
 0.61563  0.50081  0.37831
 0.72336  0.50212  0.38222
 0.82846  0.50343  0.38438
 0.93093  0.50473  0.38478
 0.00000  0.62500  0.37500
 0.12500  0.62500  0.37500
 0.25000  0.62500  0.37500
 0.36995  0.62386  0.37813
 0.48420  0.62190  0.38211
 0.59582  0.61993  0.38433
 0.70481  0.61797  0.38479
 0.81117  0.61601  0.38350
 0.91490  0.61405  0.38044
 0.00000  0.75000  0.37500
 0.12380  0.74715  0.37795
 0.24456  0.74191  0.38199
 0.36270  0.73668  0.38428
 0.47820  0.73145  0.38481
 0.59108  0.72622  0.38358
 0.70133  0.72098  0.38058
 0.80895  0.71575  0.37583
 0.91393  0.71052  0.36931
 0.00445  0.86217  0.38188
 0.12910  0.85367  0.38423
 0.25112  0.84517  0.38482
 0.37052  0.83667  0.38365
 0.48728  0.82816  0.38072
 0.60142  0.81966  0.37603
 0.71292  0.81116  0.36959
 0.82180  0.80266  0.36138
 0.92805  0.79415  0.35141
 0.02357  0.95913  0.38483
 0.14948  0.94736  0.38373
 0.27276  0.93558  0.38086
 0.39341  0.92381  0.37624
 0.51144  0.91204  0.36985
 0.62683  0.90026  0.36171
 0.73959  0.88849  0.35181
 0.84973  0.87672  0.34014
 0.95723  0.86494  0.32672
 0.00000  0.00000  0.50000
 0.12500  0.00000  0.50000
 0.25000  0.00000  0.50000
 0.37500  0.00000  0.50000
 0.50000  0.00000  0.50000
 0.62500  0.00000  0.50000
 0.75000  0.00000  0.50000
 0.87500  0.00000  0.50000
 1.00000  0.00000  0.50000
 0.00000  0.12500  0.50000
 0.12500  0.12500  0.50000
 0.25000  0.12500  0.50000
 0.37500  0.12500  0.50000
 0.50000  0.12500  0.50000
 0.62500  0.12500  0.50000
 0.75000  0.12500  0.50000
 0.87500  0.12500  0.50000
 1.00000  0.12500  0.50000
 0.00000  0.25000  0.50000
 0.12500  0.25000  0.50000
 0.25000  0.25000  0.50000
 0.37500  0.25000  0.50000
 0.50000  0.25000  0.50000
 0.62500  0.25000  0.50000
 0.75000  0.25000  0.50000
 0.87500  0.25000  0.50000
 0.99809  0.25058  0.50019
 0.00000  0.37500  0.50000
 0.12500  0.37500  0.50000
 0.25000  0.37500  0.50000
 0.37500  0.37500  0.50000
 0.50000  0.37500  0.50000
 0.62500  0.37500  0.50000
 0.74928  0.37517  0.50010
 0.85337  0.37975  0.50177
 0.95483  0.38433  0.50168
 0.00000  0.50000  0.50000
 0.12500  0.50000  0.50000
 0.25000  0.50000  0.50000
 0.37500  0.50000  0.50000
 0.50000  0.50000  0.50000
 0.61060  0.50131  0.50174
 0.71858  0.50262  0.50171
 0.82392  0.50392  0.49993
 0.92664  0.50523  0.49638
 0.00000  0.62500  0.50000
 0.12500  0.62500  0.50000
 0.25000  0.62500  0.50000
 0.36736  0.62311  0.50170
 0.48186  0.62115  0.50174
 0.59372  0.61919  0.50003
 0.70295  0.61722  0.49655
 0.80956  0.61526  0.49131
 0.91353  0.61330  0.48431
 0.00000  0.75000  0.50000
 0.12365  0.74515  0.50167
 0.24466  0.73992  0.50177
 0.36304  0.73469  0.50012
 0.47879  0.72945  0.49671
 0.59191  0.72422  0.49153
 0.70240  0.71899  0.48460
 0.81026  0.71376  0.47590
 0.91549  0.70852  0.46545
 0.00698  0.85893  0.50180
 0.13188  0.85043  0.50021
 0.25415  0.84193  0.49686
 0.37378  0.83342  0.49175
 0.49079  0.82492  0.48488
 0.60517  0.81642  0.47625
 0.71692  0.80792  0.46586
 0.82604  0.79941  0.45371
 0.93253  0.79091  0.43980
 0.02903  0.95464  0.49702
 0.15519  0.94287  0.49197
 0.27871  0.93109  0.48517
 0.39961  0.91932  0.47660
 0.51787  0.90755  0.46628
 0.63351  0.89577  0.45419
 0.74652  0.88400  0.44034
 0.85690  0.87223  0.42474
 0.96465  0.86046  0.40737
 0.00000  0.00000  0.62500
 0.12500  0.00000  0.62500
 0.25000  0.00000  0.62500
 0.37500  0.00000  0.62500
 0.50000  0.00000  0.62500
 0.62500  0.00000  0.62500
 0.75000  0.00000  0.62500
 0.87500  0.00000  0.62500
 1.00000  0.00000  0.62500
 0.00000  0.12500  0.62500
 0.12500  0.12500  0.62500
 0.25000  0.12500  0.62500
 0.37500  0.12500  0.62500
 0.50000  0.12500  0.62500
 0.62500  0.12500  0.62500
 0.75000  0.12500  0.62500
 0.87500  0.12500  0.62500
 1.00000  0.12500  0.62500
 0.00000  0.25000  0.62500
 0.12500  0.25000  0.62500
 0.25000  0.25000  0.62500
 0.37500  0.25000  0.62500
 0.50000  0.25000  0.62500
 0.62500  0.25000  0.62500
 0.75000  0.25000  0.62500
 0.87500  0.25000  0.62500
 0.98850  0.25357  0.62452
 0.00000  0.37500  0.62500
 0.12500  0.37500  0.62500
 0.25000  0.37500  0.62500
 0.37500  0.37500  0.62500
 0.50000  0.37500  0.62500
 0.62500  0.37500  0.62500
 0.74214  0.37691  0.62457
 0.84647  0.38149  0.62230
 0.94817  0.38607  0.61827
 0.00000  0.50000  0.62500
 0.12500  0.50000  0.62500
 0.25000  0.50000  0.62500
 0.37500  0.50000  0.62500
 0.49530  0.50050  0.62462
 0.60615  0.50181  0.62242
 0.71436  0.50311  0.61845
 0.81995  0.50442  0.61273
 0.92291  0.50573  0.60524
 0.00000  0.62500  0.62500
 0.12500  0.62500  0.62500
 0.24798  0.62432  0.62467
 0.36534  0.62236  0.62253
 0.48008  0.62040  0.61863
 0.59219  0.61844  0.61297
 0.70167  0.61648  0.60555
 0.80851  0.61451  0.59637
 0.91273  0.61255  0.58543
 0.00019  0.74839  0.62472
 0.12407  0.74316  0.62264
 0.24532  0.73792  0.61880
 0.36394  0.73269  0.61321
 0.47994  0.72746  0.60585
 0.59330  0.72223  0.59674
 0.70404  0.71700  0.58586
 0.81215  0.71176  0.57322
 0.91762  0.70653  0.55883
 0.01009  0.85569  0.61898
 0.13523  0.84719  0.61345
 0.25774  0.83869  0.60615
 0.37762  0.83018  0.59710
 0.49487  0.82168  0.58629
 0.60950  0.81318  0.57372
 0.72149  0.80467  0.55939
 0.83086  0.79617  0.54330
 0.93759  0.78767  0.52545
 0.03506  0.95015  0.60645
 0.16146  0.93838  0.59747
 0.28523  0.92661  0.58672
 0.40637  0.91483  0.57421
 0.52488  0.90306  0.55995
 0.64076  0.89129  0.54392
 0.75402  0.87951  0.52613
 0.86464  0.86774  0.50659
 0.97263  0.85597  0.48528
 0.00000  0.00000  0.75000
 0.12500  0.00000  0.75000
 0.25000  0.00000  0.75000
 0.37500  0.00000  0.75000
 0.50000  0.00000  0.75000
 0.62500  0.00000  0.75000
 0.75000  0.00000  0.75000
 0.87500  0.00000  0.75000
 1.00000  0.00000  0.75000
 0.00000  0.12500  0.75000
 0.12500  0.12500  0.75000
 0.25000  0.12500  0.75000
 0.37500  0.12500  0.75000
 0.50000  0.12500  0.75000
 0.62500  0.12500  0.75000
 0.75000  0.12500  0.75000
 0.87500  0.12500  0.75000
 1.00000  0.12500  0.75000
 0.00000  0.25000  0.75000
 0.12500  0.25000  0.75000
 0.25000  0.25000  0.75000
 0.37500  0.25000  0.75000
 0.50000  0.25000  0.75000
 0.62500  0.25000  0.75000
 0.75000  0.25000  0.75000
 0.87500  0.25000  0.75000
 0.97949  0.25656  0.74610
 0.00000  0.37500  0.75000
 0.12500  0.37500  0.75000
 0.25000  0.37500  0.75000
 0.37500  0.37500  0.75000
 0.50000  0.37500  0.75000
 0.62500  0.37500  0.75000
 0.73557  0.37866  0.74630
 0.84014  0.38324  0.74009
 0.94209  0.38782  0.73212
 0.00000  0.50000  0.75000
 0.12500  0.50000  0.75000
 0.25000  0.50000  0.75000
 0.37500  0.50000  0.75000
 0.49116  0.50100  0.74650
 0.60226  0.50231  0.74035
 0.71072  0.50361  0.73244
 0.81655  0.50492  0.72278
 0.91976  0.50623  0.71135
 0.00000  0.62500  0.75000
 0.12500  0.62500  0.75000
 0.24628  0.62358  0.74669
 0.36389  0.62161  0.74061
 0.47887  0.61965  0.73276
 0.59122  0.61769  0.72316
 0.70095  0.61573  0.71180
 0.80804  0.61377  0.69868
 0.91250  0.61180  0.68380
 0.00093  0.74640  0.74688
 0.12506  0.74116  0.74086
 0.24655  0.73593  0.73308
 0.36542  0.73070  0.72355
 0.48166  0.72547  0.71225
 0.59527  0.72023  0.69919
 0.70625  0.71500  0.68437
 0.81460  0.70977  0.66780
 0.92032  0.70454  0.64946
 0.01376  0.85245  0.73340
 0.13914  0.84395  0.72393
 0.26190  0.83544  0.71270
 0.38202  0.82694  0.69970
 0.49952  0.81844  0.68495
 0.61439  0.80993  0.66844
 0.72663  0.80143  0.65017
 0.83624  0.79293  0.63013
 0.94322  0.78443  0.60834
 0.04166  0.94566  0.71314
 0.16830  0.93389  0.70021
 0.29232  0.92212  0.68553
 0.41370  0.91034  0.66908
 0.53246  0.89857  0.65087
 0.64858  0.88680  0.63090
 0.76208  0.87502  0.60917
 0.87295  0.86325  0.58568
 0.98119  0.85148  0.56044
 0.00000  0.00000  0.87500
 0.12500  0.00000  0.87500
 0.25000  0.00000  0.87500
 0.37500  0.00000  0.87500
 0.50000  0.00000  0.87500
 0.62500  0.00000  0.87500
 0.75000  0.00000  0.87500
 0.87500  0.00000  0.87500
 1.00000  0.00000  0.87500
 0.00000  0.12500  0.87500
 0.12500  0.12500  0.87500
 0.25000  0.12500  0.87500
 0.37500  0.12500  0.87500
 0.50000  0.12500  0.87500
 0.62500  0.12500  0.87500
 0.75000  0.12500  0.87500
 0.87500  0.12500  0.87500
 1.00000  0.12500  0.87500
 0.00000  0.25000  0.87500
 0.12500  0.25000  0.87500
 0.25000  0.25000  0.87500
 0.37500  0.25000  0.87500
 0.50000  0.25000  0.87500
 0.62500  0.25000  0.87500
 0.75000  0.25000  0.87500
 0.87012  0.25171  0.87339
 0.97105  0.25955  0.86494
 0.00000  0.37500  0.87500
 0.12500  0.37500  0.87500
 0.25000  0.37500  0.87500
 0.37500  0.37500  0.87500
 0.50000  0.37500  0.87500
 0.62211  0.37583  0.87367
 0.72956  0.38041  0.86528
 0.83438  0.38498  0.85513
 0.93657  0.38956  0.84321
 0.00000  0.50000  0.87500
 0.12500  0.50000  0.87500
 0.25000  0.50000  0.87500
 0.37363  0.50019  0.87395
 0.48760  0.50150  0.86562
 0.59893  0.50280  0.85553
 0.70764  0.50411  0.84368
 0.81372  0.50542  0.83008
 0.91717  0.50673  0.81471
 0.00000  0.62500  0.87500
 0.12467  0.62479  0.87422
 0.24516  0.62283  0.86596
 0.36301  0.62087  0.85593
 0.47824  0.61890  0.84415
 0.59083  0.61694  0.83061
 0.70080  0.61498  0.81530
 0.80813  0.61302  0.79824
 0.91284  0.61105  0.77942
 0.00224  0.74440  0.86629
 0.12661  0.73917  0.85633
 0.24835  0.73394  0.84462
 0.36747  0.72870  0.83114
 0.48395  0.72347  0.81590
 0.59780  0.71824  0.79890
 0.70903  0.71300  0.78014
 0.81762  0.70777  0.75962
 0.92359  0.70254  0.73734
 0.01800  0.84921  0.84508
 0.14363  0.84070  0.83166
 0.26663  0.83220  0.81649
 0.38700  0.82370  0.79956
 0.50474  0.81520  0.78086
 0.61985  0.80669  0.76041
 0.73233  0.79819  0.73819
 0.84219  0.78969  0.71422
 0.94941  0.78118  0.68848
 0.04883  0.94117  0.81708
 0.17571  0.92940  0.80021
 0.29997  0.91763  0.78158
 0.42160  0.90585  0.76119
 0.54060  0.89408  0.73904
 0.65697  0.88231  0.71513
 0.77071  0.87054  0.68946
 0.88183  0.85876  0.66203
 0.99031  0.84699  0.63284
 0.00000  0.00000  1.00000
 0.12500  0.00000  1.00000
 0.25000  0.00000  1.00000
 0.37500  0.00000  1.00000
 0.50000  0.00000  1.00000
 0.62500  0.00000  1.00000
 0.75000  0.00000  1.00000
 0.87500  0.00000  1.00000
 1.00000  0.00000  1.00000
 0.00000  0.12500  1.00000
 0.12500  0.12500  1.00000
 0.25000  0.12500  1.00000
 0.37500  0.12500  1.00000
 0.50000  0.12500  1.00000
 0.62500  0.12500  1.00000
 0.75000  0.12500  1.00000
 0.87500  0.12500  1.00000
 1.00000  0.12500  1.00000
 0.00000  0.25000  1.00000
 0.12500  0.25000  1.00000
 0.25000  0.25000  1.00000
 0.37500  0.25000  1.00000
 0.50000  0.25000  1.00000
 0.62500  0.25000  1.00000
 0.75000  0.25000  1.00000
 0.86200  0.25470  0.99342
 0.96317  0.26255  0.98102
 0.00000  0.37500  1.00000
 0.12500  0.37500  1.00000
 0.25000  0.37500  1.00000
 0.37500  0.37500  1.00000
 0.50000  0.37500  1.00000
 0.61643  0.37757  0.99384
 0.72412  0.38215  0.98151
 0.82919  0.38673  0.96741
 0.93162  0.39131  0.95156
 0.00000  0.50000  1.00000
 0.12500  0.50000  1.00000
 0.25000  0.50000  1.00000
 0.37039  0.50069  0.99426
 0.48460  0.50199  0.98199
 0.59618  0.50330  0.96796
 0.70513  0.50461  0.95217
 0.81146  0.50592  0.93462
 0.91515  0.50723  0.91532
 0.00000  0.62500  1.00000
 0.12387  0.62404  0.99468
 0.24460  0.62208  0.98248
 0.36270  0.62012  0.96851
 0.47817  0.61816  0.95279
 0.59101  0.61619  0.93530
 0.70122  0.61423  0.91606
 0.80880  0.61227  0.89505
 0.91375  0.61031  0.87229
 0.00412  0.74240  0.98296
 0.12874  0.73717  0.96906
 0.25072  0.73194  0.95340
 0.37008  0.72671  0.93598
 0.48681  0.72147  0.91680
 0.60091  0.71624  0.89586
 0.71237  0.71101  0.87316
 0.82121  0.70578  0.84870
 0.92742  0.70054  0.82248
 0.02280  0.84597  0.95400
 0.14868  0.83746  0.93665
 0.27192  0.82896  0.91753
 0.39254  0.82046  0.89666
 0.51052  0.81195  0.87402
 0.62588  0.80345  0.84963
 0.73861  0.79495  0.82347
 0.84871  0.78645  0.79556
 0.95617  0.77794  0.76588
 0.05656  0.93668  0.91827
 0.18369  0.92491  0.89746
 0.30820  0.91314  0.87489
 0.43007  0.90137  0.85056
 0.54932  0.88959  0.82446
 0.66593  0.87782  0.79661
 0.77992  0.86605  0.76700
 0.89127  0.85427  0.73563
 1.00000  0.84250  0.70250
