src/assets/luts/teal-orange.cube
TITLE "青橙电影"
LUT_3D_SIZE 5
DOMAIN_MIN 0.0 0.0 0.0
DOMAIN_MAX 1.0 1.0 1.0
# LumEdit built-in LUT · 阴影青、高光橙的电影配色
 0.00000  0.00000  0.00000
 0.25000  0.00000  0.00000
 0.50000  0.00000  0.00000
 0.75000  0.00000  0.00000
 1.00000  0.00000  0.00000
 0.00000  0.25000  0.00000
 0.25000  0.25000  0.00000
 0.50000  0.25000  0.00000
 0.75000  0.25000  0.00000
 1.00000  0.25000  0.00000
 0.00000  0.50000  0.00000
 0.25000  0.50000  0.00000
 0.50000  0.50000  0.00000
 0.74112  0.50062  0.00726
 0.94723  0.50324  0.03346
 0.00000  0.75000  0.00000
 0.24769  0.74790  0.00616
 0.47986  0.73743  0.03262
 0.70152  0.72697  0.05204
 0.91266  0.71651  0.06442
 0.01060  0.97259  0.03177
 0.25832  0.94905  0.05145
 0.49553  0.92550  0.06409
 0.72222  0.90196  0.06969
 0.93839  0.87841  0.06825
 0.00000  0.00000  0.25000
 0.25000  0.00000  0.25000
 0.50000  0.00000  0.25000
 0.75000  0.00000  0.25000
 1.00000  0.00000  0.25000
 0.00000  0.25000  0.25000
 0.25000  0.25000  0.25000
 0.50000  0.25000  0.25000
 0.75000  0.25000  0.25000
 1.00000  0.25000  0.25000
 0.00000  0.50000  0.25000
 0.25000  0.50000  0.25000
 0.50000  0.50000  0.25000
 0.72871  0.50162  0.25998
 0.93580  0.50423  0.27042
 0.00000  0.75000  0.25000
 0.24504  0.74391  0.25947
 0.47819  0.73345  0.27016
 0.70082  0.72298  0.27382
 0.91294  0.71252  0.27043
 0.01868  0.96362  0.26989
 0.26738  0.94007  0.27381
 0.50556  0.91653  0.27068
 0.73323  0.89298  0.26052
 0.95038  0.86943  0.24331
 0.00000  0.00000  0.50000
 0.25000  0.00000  0.50000
 0.50000  0.00000  0.50000
 0.75000  0.00000  0.50000
 1.00000  0.00000  0.50000
 0.00000  0.25000  0.50000
 0.25000  0.25000  0.50000
 0.50000  0.25000  0.50000
 0.75000  0.25000  0.50000
 0.99809  0.25058  0.50019
 0.00000  0.50000  0.50000
 0.25000  0.50000  0.50000
 0.50000  0.50000  0.50000
 0.71858  0.50262  0.50171
 0.92664  0.50523  0.49638
 0.00000  0.75000  0.50000
 0.24466  0.73992  0.50177
 0.47879  0.72945  0.49671
 0.70240  0.71899  0.48460
 0.91549  0.70852  0.46545
 0.02903  0.95464  0.49702
 0.27871  0.93109  0.48517
 0.51787  0.90755  0.46628
 0.74652  0.88400  0.44034
 0.96465  0.86046  0.40737
 0.00000  0.00000  0.75000
 0.25000  0.00000  0.75000
 0.50000  0.00000  0.75000
 0.75000  0.00000  0.75000
 1.00000  0.00000  0.75000
 0.00000  0.25000  0.75000
 0.25000  0.25000  0.75000
 0.50000  0.25000  0.75000
 0.75000  0.25000  0.75000
 0.97949  0.25656  0.74610
 0.00000  0.50000  0.75000
 0.25000  0.50000  0.75000
 0.49116  0.50100  0.74650
 0.71072  0.50361  0.73244
 0.91976  0.50623  0.71135
 0.00093  0.74640  0.74688
 0.24655  0.73593  0.73308
 0.48166  0.72547  0.71225
 0.70625  0.71500  0.68437
 0.92032  0.70454  0.64946
 0.04166  0.94566  0.71314
 0.29232  0.92212  0.68553
 0.53246  0.89857  0.65087
 0.76208  0.87502  0.60917
 0.98119  0.85148  0.56044
 0.00000  0.00000  1.00000
 0.25000  0.00000  1.00000
 0.50000  0.00000  1.00000
 0.75000  0.00000  1.00000
 1.00000  0.00000  1.00000
 0.00000  0.25000  1.00000
 0.25000  0.25000  1.00000
 0.50000  0.25000  1.00000
 0.75000  0.25000  1.00000
 0.96317  0.26255  0.98102
 0.00000  0.50000  1.00000
 0.25000  0.50000  1.00000
 0.48460  0.50199  0.98199
 0.70513  0.50461  0.95217
 0.91515  0.50723  0.91532
 0.00412  0.74240  0.98296
 0.25072  0.73194  0.95340
 0.48681  0.72147  0.91680
 0.71237  0.71101  0.87316
 0.92742  0.70054  0.82248
 0.05656  0.93668  0.91827
 0.30820  0.91314  0.87489
 0.54932  0.88959  0.82446
 0.77992  0.86605  0.76700
 1.00000  0.84250  0.70250
