src/assets/luts/teal-orange.cube
TITLE "青橙电影"
LUT_3D_SIZE 17
DOMAIN_MIN 0.0 0.0 0.0
DOMAIN_MAX 1.0 1.0 1.0
# LumEdit built-in LUT · 阴影青、高光橙的电影配色
 0.00000  0.00000  0.00000
 0.06250  0.00000  0.00000
 0.12500  0.00000  0.00000
 0.18750  0.00000  0.00000
 0.25000  0.00000  0.00000
 0.31250  0.00000  0.00000
 0.37500  0.00000  0.00000
 0.43750  0.00000  0.00000
 0.50000  0.00000  0.00000
 0.56250  0.00000  0.00000
 0.62500  0.00000  0.00000
 0.68750  0.00000  0.00000
 0.75000  0.00000  0.00000
 0.81250  0.00000  0.00000
 0.87500  0.00000  0.00000
 0.93750  0.00000  0.00000
 1.00000  0.00000  0.00000
 0.00000  0.06250  0.00000
 0.06250  0.06250  0.00000
 0.12500  0.06250  0.00000
 0.18750  0.06250  0.00000
 0.25000  0.06250  0.00000
 0.31250  0.06250  0.00000
 0.37500  0.06250  0.00000
 0.43750  0.06250  0.00000
 0.50000  0.06250  0.00000
 0.56250  0.06250  0.00000
 0.62500  0.06250  0.00000
 0.68750  0.06250  0.00000
 0.75000  0.06250  0.00000
 0.81250  0.06250  0.00000
 0.87500  0.06250  0.00000
 0.93750  0.06250  0.00000
 1.00000  0.06250  0.00000
 0.00000  0.12500  0.00000
 0.06250  0.12500  0.00000
 0.12500  0.12500  0.00000
 0.18750  0.12500  0.00000
 0.25000  0.12500  0.00000
 0.31250  0.12500  0.00000
 0.37500  0.12500  0.00000
 0.43750  0.12500  0.00000
 0.50000  0.12500  0.00000
 0.56250  0.12500  0.00000
 0.62500  0.12500  0.00000
 0.68750  0.12500  0.00000
 0.75000  0.12500  0.00000
 0.81250  0.12500  0.00000
 0.87500  0.12500  0.00000
 0.93750  0.12500  0.00000
 1.00000  0.12500  0.00000
 0.00000  0.18750  0.00000
 0.06250  0.18750  0.00000
 0.12500  0.18750  0.00000
 0.18750  0.18750  0.00000
 0.25000  0.18750  0.00000
 0.31250  0.18750  0.00000
 0.37500  0.18750  0.00000
 0.43750  0.18750  0.00000
 0.50000  0.18750  0.00000
 0.56250  0.18750  0.00000
 0.62500  0.18750  0.00000
 0.68750  0.18750  0.00000
 0.75000  0.18750  0.00000
 0.81250  0.18750  0.00000
 0.87500  0.18750  0.00000
 0.93750  0.18750  0.00000
 1.00000  0.18750  0.00000
 0.00000  0.25000  0.00000
 0.06250  0.25000  0.00000
 0.12500  0.25000  0.00000
 0.18750  0.25000  0.00000
 0.25000  0.25000  0.00000
 0.31250  0.25000  0.00000
 0.37500  0.25000  0.00000
 0.43750  0.25000  0.00000
 0.50000  0.25000  0.00000
 0.56250  0.25000  0.00000
 0.62500  0.25000  0.00000
 0.68750  0.25000  0.00000
 0.75000  0.25000  0.00000
 0.81250  0.25000  0.00000
 0.87500  0.25000  0.00000
 0.93750  0.25000  0.00000
 1.00000  0.25000  0.00000
 0.00000  0.31250  0.00000
 0.06250  0.31250  0.00000
 0.12500  0.31250  0.00000
 0.18750  0.31250  0.00000
 0.25000  0.31250  0.00000
 0.31250  0.31250  0.00000
 0.37500  0.31250  0.00000
 0.43750  0.31250  0.00000
 0.50000  0.31250  0.00000
 0.56250  0.31250  0.00000
 0.62500  0.31250  0.00000
 0.68750  0.31250  0.00000
 0.75000  0.31250  0.00000
 0.81250  0.31250  0.00000
 0.87500  0.31250  0.00000
 0.93750  0.31250  0.00000
 1.00000  0.31250  0.00000
 0.00000  0.37500  0.00000
 0.06250  0.37500  0.00000
 0.12500  0.37500  0.00000
 0.18750  0.37500  0.00000
 0.25000  0.37500  0.00000
 0.31250  0.37500  0.00000
 0.37500  0.37500  0.00000
 0.43750  0.37500  0.00000
 0.50000  0.37500  0.00000
 0.56250  0.37500  0.00000
 0.62500  0.37500  0.00000
 0.68750  0.37500  0.00000
 0.75000  0.37500  0.00000
 0.81250  0.37500  0.00000
 0.87500  0.37500  0.00000
 0.93721  0.37505  0.00018
 0.98712  0.37734  0.00780
 0.00000  0.43750  0.00000
 0.06250  0.43750  0.00000
 0.12500  0.43750  0.00000
 0.18750  0.43750  0.00000
 0.25000  0.43750  0.00000
 0.31250  0.43750  0.00000
 0.37500  0.43750  0.00000
 0.43750  0.43750  0.00000
 0.50000  0.43750  0.00000
 0.56250  0.43750  0.00000
 0.62500  0.43750  0.00000
 0.68750  0.43750  0.00000
 0.75000  0.43750  0.00000
 0.81250  0.43750  0.00000
 0.86418  0.43895  0.00753
 0.91507  0.44042  0.01472
 0.96529  0.44190  0.02148
 0.00000  0.50000  0.00000
 0.06250  0.50000  0.00000
 0.12500  0.50000  0.00000
 0.18750  0.50000  0.00000
 0.25000  0.50000  0.00000
 0.31250  0.50000  0.00000
 0.37500  0.50000  0.00000
 0.43750  0.50000  0.00000
 0.50000  0.50000  0.00000
 0.56250  0.50000  0.00000
 0.62500  0.50000  0.00000
 0.68750  0.50000  0.00000
 0.74112  0.50062  0.00726
 0.79363  0.50128  0.01447
 0.84549  0.50193  0.02124
 0.89669  0.50258  0.02757
 0.94723  0.50324  0.03346
 0.00000  0.56250  0.00000
 0.06250  0.56250  0.00000
 0.12500  0.56250  0.00000
 0.18750  0.56250  0.00000
 0.25000  0.56250  0.00000
 0.31250  0.56250  0.00000
 0.37500  0.56250  0.00000
 0.43750  0.56250  0.00000
 0.50000  0.56250  0.00000
 0.56250  0.56250  0.00000
 0.61794  0.56235  0.00698
 0.67208  0.56219  0.01421
 0.72557  0.56202  0.02100
 0.77840  0.56186  0.02734
 0.83057  0.56170  0.03325
 0.88208  0.56153  0.03872
 0.93293  0.56137  0.04374
 0.00000  0.62500  0.00000
 0.06250  0.62500  0.00000
 0.12500  0.62500  0.00000
 0.18750  0.62500  0.00000
 0.25000  0.62500  0.00000
 0.31250  0.62500  0.00000
 0.37500  0.62500  0.00000
 0.43750  0.62500  0.00000
 0.49464  0.62414  0.00671
 0.55042  0.62316  0.01395
 0.60553  0.62218  0.02075
 0.65999  0.62120  0.02712
 0.71378  0.62022  0.03304
 0.76693  0.61923  0.03852
 0.81941  0.61825  0.04357
 0.87124  0.61727  0.04817
 0.92241  0.61629  0.05233
 0.00000  0.68750  0.00000
 0.06250  0.68750  0.00000
 0.12500  0.68750  0.00000
 0.18750  0.68750  0.00000
 0.25000  0.68750  0.00000
 0.31250  0.68750  0.00000
 0.37123  0.68599  0.00643
 0.42863  0.68419  0.01369
 0.48537  0.68239  0.02051
 0.54146  0.68059  0.02689
 0.59688  0.67880  0.03283
 0.65166  0.67700  0.03833
 0.70577  0.67520  0.04339
 0.75923  0.67340  0.04801
 0.81202  0.67160  0.05219
 0.86417  0.66980  0.05593
 0.91565  0.66800  0.05923
 0.00000  0.75000  0.00000
 0.06250  0.75000  0.00000
 0.12500  0.75000  0.00000
 0.18750  0.75000  0.00000
 0.24769  0.74790  0.00616
 0.30672  0.74528  0.01343
 0.36509  0.74267  0.02027
 0.42281  0.74005  0.02666
 0.47986  0.73743  0.03262
 0.53626  0.73482  0.03814
 0.59201  0.73220  0.04321
 0.64709  0.72959  0.04785
 0.70152  0.72697  0.05204
 0.75529  0.72435  0.05580
 0.80841  0.72174  0.05911
 0.86086  0.71912  0.06199
 0.91266  0.71651  0.06442
 0.00000  0.81250  0.00000
 0.06250  0.81250  0.00000
 0.12403  0.80987  0.00588
 0.18469  0.80644  0.01317
 0.24469  0.80300  0.02003
 0.30404  0.79957  0.02644
 0.36273  0.79613  0.03241
 0.42076  0.79270  0.03794
 0.47813  0.78927  0.04303
 0.53484  0.78583  0.04768
 0.59090  0.78240  0.05190
 0.64630  0.77897  0.05567
 0.70104  0.77553  0.05900
 0.75513  0.77210  0.06189
 0.80856  0.76866  0.06434
 0.86133  0.76523  0.06635
 0.91344  0.76180  0.06792
 0.00026  0.87190  0.00561
 0.06255  0.86765  0.01291
 0.12418  0.86340  0.01978
 0.18515  0.85915  0.02621
 0.24547  0.85489  0.03220
 0.30513  0.85064  0.03774
 0.36413  0.84639  0.04285
 0.42247  0.84214  0.04752
 0.48016  0.83789  0.05175
 0.53719  0.83364  0.05554
 0.59356  0.82939  0.05888
 0.64928  0.82513  0.06179
 0.70433  0.82088  0.06426
 0.75873  0.81663  0.06629
 0.81248  0.81238  0.06787
 0.86556  0.80813  0.06902
 0.91799  0.80388  0.06973
 0.00354  0.92385  0.01954
 0.06615  0.91878  0.02598
 0.12809  0.91371  0.03198
 0.18938  0.90865  0.03755
 0.25001  0.90358  0.04267
 0.30998  0.89851  0.04736
 0.36930  0.89344  0.05160
 0.42796  0.88837  0.05540
 0.48596  0.88330  0.05877
 0.54330  0.87823  0.06169
 0.59999  0.87316  0.06418
 0.65602  0.86809  0.06622
 0.71139  0.86302  0.06782
 0.76611  0.85796  0.06899
 0.82017  0.85289  0.06971
 0.87357  0.84782  0.07000
 0.92631  0.84275  0.06984
 0.01060  0.97259  0.03177
 0.07351  0.96671  0.03735
 0.13577  0.96082  0.04249
 0.19738  0.95494  0.04719
 0.25832  0.94905  0.05145
 0.31861  0.94316  0.05527
 0.37824  0.93728  0.05865
 0.43721  0.93139  0.06159
 0.49553  0.92550  0.06409
 0.55319  0.91962  0.06615
 0.61019  0.91373  0.06777
 0.66653  0.90784  0.06895
 0.72222  0.90196  0.06969
 0.77725  0.89607  0.06999
 0.83162  0.89018  0.06985
 0.88534  0.88430  0.06927
 0.93839  0.87841  0.06825
 0.00000  0.00000  0.06250
 0.06250  0.00000  0.06250
 0.12500  0.00000  0.06250
 0.18750  0.00000  0.06250
 0.25000  0.00000  0.06250
 0.31250  0.00000  0.06250
 0.37500  0.00000  0.06250
 0.43750  0.00000  0.06250
 0.50000  0.00000  0.06250
 0.56250  0.00000  0.06250
 0.62500  0.00000  0.06250
 0.68750  0.00000  0.06250
 0.75000  0.00000  0.06250
 0.81250  0.00000  0.06250
 0.87500  0.00000  0.06250
 0.93750  0.00000  0.06250
 1.00000  0.00000  0.06250
 0.00000  0.06250  0.06250
 0.06250  0.06250  0.06250
 0.12500  0.06250  0.06250
 0.18750  0.06250  0.06250
 0.25000  0.06250  0.06250
 0.31250  0.06250  0.06250
 0.37500  0.06250  0.06250
 0.43750  0.06250  0.06250
 0.50000  0.06250  0.06250
 0.56250  0.06250  0.06250
 0.62500  0.06250  0.06250
 0.68750  0.06250  0.06250
 0.75000  0.06250  0.06250
 0.81250  0.06250  0.06250
 0.87500  0.06250  0.06250
 0.93750  0.06250  0.06250
 1.00000  0.06250  0.06250
 0.00000  0.12500  0.06250
 0.06250  0.12500  0.06250
 0.12500  0.12500  0.06250
 0.18750  0.12500  0.06250
 0.25000  0.12500  0.06250
 0.31250  0.12500  0.06250
 0.37500  0.12500  0.06250
 0.43750  0.12500  0.06250
 0.50000  0.12500  0.06250
 0.56250  0.12500  0.06250
 0.62500  0.12500  0.06250
 0.68750  0.12500  0.06250
 0.75000  0.12500  0.06250
 0.81250  0.12500  0.06250
 0.87500  0.12500  0.06250
 0.93750  0.12500  0.06250
 1.00000  0.12500  0.06250
 0.00000  0.18750  0.06250
 0.06250  0.18750  0.06250
 0.12500  0.18750  0.06250
 0.18750  0.18750  0.06250
 0.25000  0.18750  0.06250
 0.31250  0.18750  0.06250
 0.37500  0.18750  0.06250
 0.43750  0.18750  0.06250
 0.50000  0.18750  0.06250
 0.56250  0.18750  0.06250
 0.62500  0.18750  0.06250
 0.68750  0.18750  0.06250
 0.75000  0.18750  0.06250
 0.81250  0.18750  0.06250
 0.87500  0.18750  0.06250
 0.93750  0.18750  0.06250
 1.00000  0.18750  0.06250
 0.00000  0.25000  0.06250
 0.06250  0.25000  0.06250
 0.12500  0.25000  0.06250
 0.18750  0.25000  0.06250
 0.25000  0.25000  0.06250
 0.31250  0.25000  0.06250
 0.37500  0.25000  0.06250
 0.43750  0.25000  0.06250
 0.50000  0.25000  0.06250
 0.56250  0.25000  0.06250
 0.62500  0.25000  0.06250
 0.68750  0.25000  0.06250
 0.75000  0.25000  0.06250
 0.81250  0.25000  0.06250
 0.87500  0.25000  0.06250
 0.93750  0.25000  0.06250
 1.00000  0.25000  0.06250
 0.00000  0.31250  0.06250
 0.06250  0.31250  0.06250
 0.12500  0.31250  0.06250
 0.18750  0.31250  0.06250
 0.25000  0.31250  0.06250
 0.31250  0.31250  0.06250
 0.37500  0.31250  0.06250
 0.43750  0.31250  0.06250
 0.50000  0.31250  0.06250
 0.56250  0.31250  0.06250
 0.62500  0.31250  0.06250
 0.68750  0.31250  0.06250
 0.75000  0.31250  0.06250
 0.81250  0.31250  0.06250
 0.87500  0.31250  0.06250
 0.93750  0.31250  0.06250
 1.00000  0.31250  0.06250
 0.00000  0.37500  0.06250
 0.06250  0.37500  0.06250
 0.12500  0.37500  0.06250
 0.18750  0.37500  0.06250
 0.25000  0.37500  0.06250
 0.31250  0.37500  0.06250
 0.37500  0.37500  0.06250
 0.43750  0.37500  0.06250
 0.50000  0.37500  0.06250
 0.56250  0.37500  0.06250
 0.62500  0.37500  0.06250
 0.68750  0.37500  0.06250
 0.75000  0.37500  0.06250
 0.81250  0.37500  0.06250
 0.87500  0.37500  0.06250
 0.93262  0.37593  0.06531
 0.98259  0.37822  0.07194
 0.00000  0.43750  0.06250
 0.06250  0.43750  0.06250
 0.12500  0.43750  0.06250
 0.18750  0.43750  0.06250
 0.25000  0.43750  0.06250
 0.31250  0.43750  0.06250
 0.37500  0.43750  0.06250
 0.43750  0.43750  0.06250
 0.50000  0.43750  0.06250
 0.56250  0.43750  0.06250
 0.62500  0.43750  0.06250
 0.68750  0.43750  0.06250
 0.75000  0.43750  0.06250
 0.80866  0.43804  0.06506
 0.86026  0.43951  0.07171
 0.91120  0.44098  0.07792
 0.96149  0.44246  0.08368
 0.00000  0.50000  0.06250
 0.06250  0.50000  0.06250
 0.12500  0.50000  0.06250
 0.18750  0.50000  0.06250
 0.25000  0.50000  0.06250
 0.31250  0.50000  0.06250
 0.37500  0.50000  0.06250
 0.43750  0.50000  0.06250
 0.50000  0.50000  0.06250
 0.56250  0.50000  0.06250
 0.62500  0.50000  0.06250
 0.68458  0.50022  0.06480
 0.73781  0.50087  0.07147
 0.79038  0.50152  0.07769
 0.84230  0.50218  0.08348
 0.89356  0.50283  0.08883
 0.94416  0.50349  0.09373
 0.00000  0.56250  0.06250
 0.06250  0.56250  0.06250
 0.12500  0.56250  0.06250
 0.18750  0.56250  0.06250
 0.25000  0.56250  0.06250
 0.31250  0.56250  0.06250
 0.37500  0.56250  0.06250
 0.43750  0.56250  0.06250
 0.50000  0.56250  0.06250
 0.56038  0.56245  0.06455
 0.61524  0.56229  0.07123
 0.66944  0.56212  0.07747
 0.72299  0.56196  0.08328
 0.77587  0.56180  0.08864
 0.82810  0.56163  0.09356
 0.87968  0.56147  0.09804
 0.93059  0.56131  0.10208
 0.00000  0.62500  0.06250
 0.06250  0.62500  0.06250
 0.12500  0.62500  0.06250
 0.18750  0.62500  0.06250
 0.25000  0.62500  0.06250
 0.31250  0.62500  0.06250
 0.37500  0.62500  0.06250
 0.43606  0.62475  0.06430
 0.49255  0.62377  0.07099
 0.54838  0.62279  0.07725
 0.60356  0.62180  0.08307
 0.65807  0.62082  0.08845
 0.71193  0.61984  0.09339
 0.76514  0.61886  0.09788
 0.81768  0.61788  0.10194
 0.86957  0.61690  0.10556
 0.92080  0.61592  0.10874
 0.00000  0.68750  0.06250
 0.06250  0.68750  0.06250
 0.12500  0.68750  0.06250
 0.18750  0.68750  0.06250
 0.25000  0.68750  0.06250
 0.31162  0.68710  0.06404
 0.36974  0.68530  0.07076
 0.42720  0.68351  0.07703
 0.48401  0.68171  0.08286
 0.54015  0.67991  0.08826
 0.59564  0.67811  0.09321
 0.65047  0.67631  0.09773
 0.70465  0.67451  0.10180
 0.75817  0.67271  0.10543
 0.81103  0.67091  0.10863
 0.86323  0.66912  0.11138
 0.91478  0.66732  0.11369
 0.00000  0.75000  0.06250
 0.06250  0.75000  0.06250
 0.12500  0.75000  0.06250
 0.18707  0.74952  0.06379
 0.24681  0.74690  0.07052
 0.30590  0.74429  0.07681
 0.36434  0.74167  0.08266
 0.42211  0.73905  0.08807
 0.47923  0.73644  0.09304
 0.53569  0.73382  0.09757
 0.59150  0.73120  0.10166
 0.64664  0.72859  0.10531
 0.70113  0.72597  0.10852
 0.75497  0.72336  0.11129
 0.80814  0.72074  0.11362
 0.86066  0.71812  0.11551
 0.91252  0.71551  0.11696
 0.00000  0.81250  0.06250
 0.06239  0.81199  0.06353
 0.12377  0.80856  0.07028
 0.18449  0.80513  0.07658
 0.24455  0.80169  0.08245
 0.30396  0.79826  0.08788
 0.36270  0.79483  0.09286
 0.42079  0.79139  0.09741
 0.47823  0.78796  0.10151
 0.53500  0.78452  0.10518
 0.59112  0.78109  0.10841
 0.64658  0.77766  0.11119
 0.70139  0.77422  0.11354
 0.75553  0.77079  0.11545
 0.80902  0.76735  0.11691
 0.86186  0.76392  0.11794
 0.91403  0.76049  0.11852
 0.00060  0.87028  0.07004
 0.06295  0.86603  0.07636
 0.12464  0.86178  0.08224
 0.18568  0.85753  0.08768
 0.24606  0.85327  0.09269
 0.30578  0.84902  0.09725
 0.36484  0.84477  0.10137
 0.42324  0.84052  0.10505
 0.48099  0.83627  0.10830
 0.53808  0.83202  0.11110
 0.59452  0.82777  0.11346
 0.65029  0.82351  0.11538
 0.70541  0.81926  0.11687
 0.75987  0.81501  0.11791
 0.81368  0.81076  0.11851
 0.86682  0.80651  0.11867
 0.91931  0.80226  0.11839
 0.00462  0.92192  0.08203
 0.06728  0.91685  0.08749
 0.12929  0.91178  0.09251
 0.19064  0.90671  0.09709
 0.25133  0.90164  0.10123
 0.31136  0.89658  0.10493
 0.37074  0.89151  0.10818
 0.42946  0.88644  0.11100
 0.48752  0.88137  0.11338
 0.54493  0.87630  0.11532
 0.60168  0.87123  0.11682
 0.65777  0.86616  0.11788
 0.71320  0.86109  0.11850
 0.76798  0.85602  0.11867
 0.82210  0.85095  0.11841
 0.87556  0.84589  0.11771
 0.92836  0.84082  0.11657
 0.01240  0.97035  0.09233
 0.07538  0.96446  0.09693
 0.13770  0.95858  0.10108
 0.19937  0.95269  0.10480
 0.26037  0.94680  0.10807
 0.32072  0.94092  0.11091
 0.38041  0.93503  0.11330
 0.43945  0.92914  0.11526
 0.49783  0.92326  0.11677
 0.55555  0.91737  0.11785
 0.61261  0.91148  0.11848
 0.66901  0.90560  0.11868
 0.72476  0.89971  0.11843
 0.77985  0.89383  0.11774
 0.83428  0.88794  0.11662
 0.88806  0.88205  0.11505
 0.94118  0.87617  0.11305
 0.00000  0.00000  0.12500
 0.06250  0.00000  0.12500
 0.12500  0.00000  0.12500
 0.18750  0.00000  0.12500
 0.25000  0.00000  0.12500
 0.31250  0.00000  0.12500
 0.37500  0.00000  0.12500
 0.43750  0.00000  0.12500
 0.50000  0.00000  0.12500
 0.56250  0.00000  0.12500
 0.62500  0.00000  0.12500
 0.68750  0.00000  0.12500
 0.75000  0.00000  0.12500
 0.81250  0.00000  0.12500
 0.87500  0.00000  0.12500
 0.93750  0.00000  0.12500
 1.00000  0.00000  0.12500
 0.00000  0.06250  0.12500
 0.06250  0.06250  0.12500
 0.12500  0.06250  0.12500
 0.18750  0.06250  0.12500
 0.25000  0.06250  0.12500
 0.31250  0.06250  0.12500
 0.37500  0.06250  0.12500
 0.43750  0.06250  0.12500
 0.50000  0.06250  0.12500
 0.56250  0.06250  0.12500
 0.62500  0.06250  0.12500
 0.68750  0.06250  0.12500
 0.75000  0.06250  0.12500
 0.81250  0.06250  0.12500
 0.87500  0.06250  0.12500
 0.93750  0.06250  0.12500
 1.00000  0.06250  0.12500
 0.00000  0.12500  0.12500
 0.06250  0.12500  0.12500
 0.12500  0.12500  0.12500
 0.18750  0.12500  0.12500
 0.25000  0.12500  0.12500
 0.31250  0.12500  0.12500
 0.37500  0.12500  0.12500
 0.43750  0.12500  0.12500
 0.50000  0.12500  0.12500
 0.56250  0.12500  0.12500
 0.62500  0.12500  0.12500
 0.68750  0.12500  0.12500
 0.75000  0.12500  0.12500
 0.81250  0.12500  0.12500
 0.87500  0.12500  0.12500
 0.93750  0.12500  0.12500
 1.00000  0.12500  0.12500
 0.00000  0.18750  0.12500
 0.06250  0.18750  0.12500
 0.12500  0.18750  0.12500
 0.18750  0.18750  0.12500
 0.25000  0.18750  0.12500
 0.31250  0.18750  0.12500
 0.37500  0.18750  0.12500
 0.43750  0.18750  0.12500
 0.50000  0.18750  0.12500
 0.56250  0.18750  0.12500
 0.62500  0.18750  0.12500
 0.68750  0.18750  0.12500
 0.75000  0.18750  0.12500
 0.81250  0.18750  0.12500
 0.87500  0.18750  0.12500
 0.93750  0.18750  0.12500
 1.00000  0.18750  0.12500
 0.00000  0.25000  0.12500
 0.06250  0.25000  0.12500
 0.12500  0.25000  0.12500
 0.18750  0.25000  0.12500
 0.25000  0.25000  0.12500
 0.31250  0.25000  0.12500
 0.37500  0.25000  0.12500
 0.43750  0.25000  0.12500
 0.50000  0.25000  0.12500
 0.56250  0.25000  0.12500
 0.62500  0.25000  0.12500
 0.68750  0.25000  0.12500
 0.75000  0.25000  0.12500
 0.81250  0.25000  0.12500
 0.87500  0.25000  0.12500
 0.93750  0.25000  0.12500
 1.00000  0.25000  0.12500
 0.00000  0.31250  0.12500
 0.06250  0.31250  0.12500
 0.12500  0.31250  0.12500
 0.18750  0.31250  0.12500
 0.25000  0.31250  0.12500
 0.31250  0.31250  0.12500
 0.37500  0.31250  0.12500
 0.43750  0.31250  0.12500
 0.50000  0.31250  0.12500
 0.56250  0.31250  0.12500
 0.62500  0.31250  0.12500
 0.68750  0.31250  0.12500
 0.75000  0.31250  0.12500
 0.81250  0.31250  0.12500
 0.87500  0.31250  0.12500
 0.93750  0.31250  0.12500
 1.00000  0.31250  0.12500
 0.00000  0.37500  0.12500
 0.06250  0.37500  0.12500
 0.12500  0.37500  0.12500
 0.18750  0.37500  0.12500
 0.25000  0.37500  0.12500
 0.31250  0.37500  0.12500
 0.37500  0.37500  0.12500
 0.43750  0.37500  0.12500
 0.50000  0.37500  0.12500
 0.56250  0.37500  0.12500
 0.62500  0.37500  0.12500
 0.68750  0.37500  0.12500
 0.75000  0.37500  0.12500
 0.81250  0.37500  0.12500
 0.87500  0.37500  0.12500
 0.92816  0.37680  0.12975
 0.97820  0.37909  0.13540
 0.00000  0.43750  0.12500
 0.06250  0.43750  0.12500
 0.12500  0.43750  0.12500
 0.18750  0.43750  0.12500
 0.25000  0.43750  0.12500
 0.31250  0.43750  0.12500
 0.37500  0.43750  0.12500
 0.43750  0.43750  0.12500
 0.50000  0.43750  0.12500
 0.56250  0.43750  0.12500
 0.62500  0.43750  0.12500
 0.68750  0.43750  0.12500
 0.75000  0.43750  0.12500
 0.80481  0.43860  0.12953
 0.85647  0.44007  0.13520
 0.90748  0.44155  0.14042
 0.95783  0.44302  0.14520
 0.00000  0.50000  0.12500
 0.06250  0.50000  0.12500
 0.12500  0.50000  0.12500
 0.18750  0.50000  0.12500
 0.25000  0.50000  0.12500
 0.31250  0.50000  0.12500
 0.37500  0.50000  0.12500
 0.43750  0.50000  0.12500
 0.50000  0.50000  0.12500
 0.56250  0.50000  0.12500
 0.62500  0.50000  0.12500
 0.68134  0.50047  0.12931
 0.73463  0.50112  0.13499
 0.78727  0.50177  0.14023
 0.83925  0.50243  0.14504
 0.89057  0.50308  0.14940
 0.94123  0.50374  0.15332
 0.00000  0.56250  0.12500
 0.06250  0.56250  0.12500
 0.12500  0.56250  0.12500
 0.18750  0.56250  0.12500
 0.25000  0.56250  0.12500
 0.31250  0.56250  0.12500
 0.37500  0.56250  0.12500
 0.43750  0.56250  0.12500
 0.50000  0.56250  0.12500
 0.55775  0.56239  0.12910
 0.61267  0.56223  0.13479
 0.66694  0.56206  0.14005
 0.72054  0.56190  0.14487
 0.77349  0.56174  0.14924
 0.82579  0.56157  0.15318
 0.87742  0.56141  0.15667
 0.92840  0.56124  0.15973
 0.00000  0.62500  0.12500
 0.06250  0.62500  0.12500
 0.12500  0.62500  0.12500
 0.18750  0.62500  0.12500
 0.25000  0.62500  0.12500
 0.31250  0.62500  0.12500
 0.37500  0.62500  0.12500
 0.43404  0.62437  0.12888
 0.49059  0.62339  0.13459
 0.54649  0.62241  0.13986
 0.60172  0.62143  0.14470
 0.65630  0.62045  0.14909
 0.71022  0.61947  0.15304
 0.76349  0.61849  0.15655
 0.81609  0.61751  0.15963
 0.86804  0.61652  0.16226
 0.91934  0.61554  0.16445
 0.00000  0.68750  0.12500
 0.06250  0.68750  0.12500
 0.12500  0.68750  0.12500
 0.18750  0.68750  0.12500
 0.25000  0.68750  0.12500
 0.31022  0.68642  0.12866
 0.36840  0.68462  0.13439
 0.42592  0.68282  0.13968
 0.48278  0.68102  0.14453
 0.53899  0.67922  0.14894
 0.59454  0.67742  0.15290
 0.64944  0.67563  0.15643
 0.70367  0.67383  0.15952
 0.75725  0.67203  0.16217
 0.81017  0.67023  0.16438
 0.86244  0.66843  0.16615
 0.91404  0.66663  0.16748
 0.00000  0.75000  0.12500
 0.06250  0.75000  0.12500
 0.12500  0.75000  0.12500
 0.18627  0.74852  0.12844
 0.24608  0.74591  0.13419
 0.30523  0.74329  0.13949
 0.36373  0.74067  0.14436
 0.42156  0.73806  0.14878
 0.47874  0.73544  0.15277
 0.53526  0.73282  0.15631
 0.59113  0.73021  0.15942
 0.64634  0.72759  0.16208
 0.70089  0.72498  0.16430
 0.75478  0.72236  0.16609
 0.80802  0.71974  0.16743
 0.86060  0.71713  0.16834
 0.91252  0.71451  0.16880
 0.00000  0.81250  0.12500
 0.06220  0.81069  0.12822
 0.12364  0.80725  0.13398
 0.18442  0.80382  0.13930
 0.24455  0.80038  0.14419
 0.30401  0.79695  0.14863
 0.36282  0.79352  0.15263
 0.42098  0.79008  0.15619
 0.47847  0.78665  0.15931
 0.53531  0.78321  0.16199
 0.59149  0.77978  0.16423
 0.64701  0.77635  0.16603
 0.70187  0.77291  0.16739
 0.75608  0.76948  0.16831
 0.80963  0.76605  0.16879
 0.86253  0.76261  0.16884
 0.91476  0.75918  0.16844
 0.00109  0.86866  0.13378
 0.06350  0.86441  0.13912
 0.12525  0.86016  0.14401
 0.18635  0.85590  0.14847
 0.24679  0.85165  0.15249
 0.30657  0.84740  0.15606
 0.36569  0.84315  0.15920
 0.42416  0.83890  0.16190
 0.48197  0.83465  0.16416
 0.53912  0.83040  0.16597
 0.59561  0.82614  0.16735
 0.65145  0.82189  0.16829
 0.70663  0.81764  0.16878
 0.76115  0.81339  0.16884
 0.81502  0.80914  0.16846
 0.86822  0.80489  0.16764
 0.92077  0.80064  0.16637
 0.00584  0.91999  0.14384
 0.06856  0.91492  0.14831
 0.13063  0.90985  0.15235
 0.19204  0.90478  0.15594
 0.25279  0.89971  0.15909
 0.31289  0.89464  0.16181
 0.37233  0.88957  0.16408
 0.43111  0.88450  0.16591
 0.48923  0.87944  0.16731
 0.54670  0.87437  0.16826
 0.60351  0.86930  0.16877
 0.65966  0.86423  0.16885
 0.71515  0.85916  0.16848
 0.76999  0.85409  0.16767
 0.82417  0.84902  0.16643
 0.87769  0.84395  0.16474
 0.93056  0.83888  0.16261
 0.01435  0.96811  0.15221
 0.07739  0.96222  0.15582
 0.13977  0.95633  0.15899
 0.20150  0.95045  0.16172
 0.26257  0.94456  0.16401
 0.32298  0.93867  0.16585
 0.38273  0.93279  0.16726
 0.44183  0.92690  0.16823
 0.50026  0.92101  0.16876
 0.55804  0.91513  0.16885
 0.61517  0.90924  0.16850
 0.67163  0.90335  0.16771
 0.72744  0.89747  0.16648
 0.78259  0.89158  0.16481
 0.83709  0.88569  0.16270
 0.89093  0.87981  0.16015
 0.94411  0.87392  0.15716
 0.00000  0.00000  0.18750
 0.06250  0.00000  0.18750
 0.12500  0.00000  0.18750
 0.18750  0.00000  0.18750
 0.25000  0.00000  0.18750
 0.31250  0.00000  0.18750
 0.37500  0.00000  0.18750
 0.43750  0.00000  0.18750
 0.50000  0.00000  0.18750
 0.56250  0.00000  0.18750
 0.62500  0.00000  0.18750
 0.68750  0.00000  0.18750
 0.75000  0.00000  0.18750
 0.81250  0.00000  0.18750
 0.87500  0.00000  0.18750
 0.93750  0.00000  0.18750
 1.00000  0.00000  0.18750
