src/assets/luts/velvia.cube
TITLE "Velvia 浓郁"
LUT_3D_SIZE 17
DOMAIN_MIN 0.0 0.0 0.0
DOMAIN_MAX 1.0 1.0 1.0
# LumEdit built-in LUT · 高饱和高对比，风光利器
 0.00000  0.00000  0.00000
 0.03933  0.00000  0.00000
 0.11866  0.00000  0.00000
 0.19799  0.00000  0.00000
 0.27732  0.00000  0.00000
 0.35665  0.00000  0.00000
 0.43598  0.00000  0.00000
 0.51531  0.00000  0.00000
 0.59464  0.00000  0.00000
 0.67396  0.00000  0.00000
 0.75329  0.00000  0.00000
 0.83262  0.00000  0.00000
 0.91195  0.00000  0.00000
 0.99128  0.00000  0.00000
 1.00000  0.00000  0.00000
 1.00000  0.00000  0.00000
 1.00000  0.00000  0.00000
 0.00000  0.03447  0.00000
 0.02942  0.02942  0.00000
 0.10875  0.02438  0.00000
 0.18808  0.01933  0.00000
 0.26741  0.01429  0.00000
 0.34674  0.00924  0.00000
 0.42607  0.00420  0.00000
 0.50540  0.00000  0.00000
 0.58473  0.00000  0.00000
 0.66406  0.00000  0.00000
 0.74339  0.00000  0.00000
 0.82272  0.00000  0.00000
 0.90205  0.00000  0.00000
 0.98138  0.00000  0.00000
 1.00000  0.00000  0.00000
 1.00000  0.00000  0.00000
 1.00000  0.00000  0.00000
 0.00000  0.10894  0.00000
 0.01952  0.10389  0.00000
 0.09885  0.09885  0.00000
 0.17818  0.09380  0.00000
 0.25751  0.08876  0.00000
 0.33684  0.08371  0.00000
 0.41617  0.07866  0.00000
 0.49549  0.07362  0.00000
 0.57482  0.06857  0.00000
 0.65415  0.06353  0.00000
 0.73348  0.05848  0.00000
 0.81281  0.05344  0.00000
 0.89214  0.04839  0.00000
 0.97147  0.04335  0.00000
 1.00000  0.03830  0.00000
 1.00000  0.03325  0.00000
 1.00000  0.02821  0.00000
 0.00000  0.18341  0.00000
 0.00961  0.17836  0.00000
 0.08894  0.17332  0.00000
 0.16827  0.16827  0.00000
 0.24760  0.16323  0.00000
 0.32693  0.15818  0.00000
 0.40626  0.15313  0.00000
 0.48559  0.14809  0.00000
 0.56492  0.14304  0.00000
 0.64425  0.13800  0.00000
 0.72358  0.13295  0.00000
 0.80291  0.12791  0.00000
 0.88224  0.12286  0.00000
 0.96157  0.11782  0.00000
 1.00000  0.11277  0.00000
 1.00000  0.10772  0.00000
 1.00000  0.10268  0.00000
 0.00000  0.25788  0.00000
 0.00000  0.25283  0.00000
 0.07904  0.24779  0.00000
 0.15837  0.24274  0.00000
 0.23769  0.23769  0.00000
 0.31702  0.23265  0.00000
 0.39635  0.22760  0.00000
 0.47568  0.22256  0.00000
 0.55501  0.21751  0.00000
 0.63434  0.21247  0.00000
 0.71367  0.20742  0.00000
 0.79300  0.20238  0.00000
 0.87233  0.19733  0.00000
 0.95166  0.19228  0.00000
 1.00000  0.18724  0.00000
 1.00000  0.18219  0.00000
 1.00000  0.17715  0.00000
 0.00000  0.33235  0.00000
 0.00000  0.32730  0.00000
 0.06913  0.32226  0.00000
 0.14846  0.31721  0.00000
 0.22779  0.31216  0.00000
 0.30712  0.30712  0.00000
 0.38645  0.30207  0.00000
 0.46578  0.29703  0.00000
 0.54511  0.29198  0.00000
 0.62444  0.28694  0.00000
 0.70377  0.28189  0.00000
 0.78309  0.27685  0.00000
 0.86242  0.27180  0.00000
 0.94175  0.26675  0.00000
 1.00000  0.26171  0.00000
 1.00000  0.25666  0.00000
 1.00000  0.25162  0.00000
 0.00000  0.40682  0.00000
 0.00000  0.40177  0.00000
 0.05922  0.39672  0.00000
 0.13855  0.39168  0.00000
 0.21788  0.38663  0.00000
 0.29721  0.38159  0.00000
 0.37654  0.37654  0.00000
 0.45587  0.37150  0.00000
 0.53520  0.36645  0.00000
 0.61453  0.36141  0.00000
 0.69386  0.35636  0.00000
 0.77319  0.35131  0.00000
 0.85252  0.34627  0.00000
 0.93185  0.34122  0.00000
 1.00000  0.33618  0.00000
 1.00000  0.33113  0.00000
 1.00000  0.32609  0.00000
 0.00000  0.48129  0.00000
 0.00000  0.47624  0.00000
 0.04932  0.47119  0.00000
 0.12865  0.46615  0.00000
 0.20798  0.46110  0.00000
 0.28731  0.45606  0.00000
 0.36664  0.45101  0.00000
 0.44597  0.44597  0.00000
 0.52530  0.44092  0.00000
 0.60463  0.43588  0.00000
 0.68395  0.43083  0.00000
 0.76328  0.42578  0.00000
 0.84261  0.42074  0.00000
 0.92194  0.41569  0.00000
 1.00000  0.41065  0.00000
 1.00000  0.40560  0.00000
 1.00000  0.40056  0.00000
 0.00000  0.55575  0.00000
 0.00000  0.55071  0.00000
 0.03941  0.54566  0.00000
 0.11874  0.54062  0.00000
 0.19807  0.53557  0.00000
 0.27740  0.53053  0.00000
 0.35673  0.52548  0.00000
 0.43606  0.52044  0.00000
 0.51539  0.51539  0.00000
 0.59472  0.51034  0.00000
 0.67405  0.50530  0.00000
 0.75338  0.50025  0.00000
 0.83271  0.49521  0.00000
 0.91204  0.49016  0.00000
 0.99137  0.48512  0.00000
 1.00000  0.48007  0.00000
 1.00000  0.47502  0.00000
 0.00000  0.63022  0.00000
 0.00000  0.62518  0.00000
 0.02951  0.62013  0.00000
 0.10884  0.61509  0.00000
 0.18817  0.61004  0.00000
 0.26750  0.60500  0.00000
 0.34683  0.59995  0.00000
 0.42616  0.59491  0.00000
 0.50548  0.58986  0.00000
 0.58481  0.58481  0.00000
 0.66414  0.57977  0.00000
 0.74347  0.57472  0.00000
 0.82280  0.56968  0.00000
 0.90213  0.56463  0.00000
 0.98146  0.55959  0.00000
 1.00000  0.55454  0.00000
 1.00000  0.54949  0.00000
 0.00000  0.70469  0.00000
 0.00000  0.69965  0.00000
 0.01960  0.69460  0.00000
 0.09893  0.68956  0.00000
 0.17826  0.68451  0.00000
 0.25759  0.67947  0.00000
 0.33692  0.67442  0.00000
 0.41625  0.66937  0.00000
 0.49558  0.66433  0.00000
 0.57491  0.65928  0.00000
 0.65424  0.65424  0.00000
 0.73357  0.64919  0.00000
 0.81290  0.64415  0.00000
 0.89223  0.63910  0.00000
 0.97156  0.63406  0.00000
 1.00000  0.62901  0.00000
 1.00000  0.62396  0.00000
 0.00000  0.77916  0.00000
 0.00000  0.77412  0.00000
 0.00970  0.76907  0.00000
 0.08903  0.76403  0.00000
 0.16836  0.75898  0.00000
 0.24768  0.75394  0.00000
 0.32701  0.74889  0.00000
 0.40634  0.74384  0.00000
 0.48567  0.73880  0.00000
 0.56500  0.73375  0.00000
 0.64433  0.72871  0.00000
 0.72366  0.72366  0.00000
 0.80299  0.71862  0.00000
 0.88232  0.71357  0.00000
 0.96165  0.70852  0.00000
 1.00000  0.70348  0.00000
 1.00000  0.69843  0.00000
 0.00000  0.85363  0.00000
 0.00000  0.84859  0.00000
 0.00000  0.84354  0.00000
 0.07912  0.83850  0.00000
 0.15845  0.83345  0.00000
 0.23778  0.82840  0.00000
 0.31711  0.82336  0.00000
 0.39644  0.81831  0.00000
 0.47577  0.81327  0.00000
 0.55510  0.80822  0.00000
 0.63443  0.80318  0.00000
 0.71376  0.79813  0.00000
 0.79309  0.79309  0.00000
 0.87241  0.78804  0.00000
 0.95174  0.78299  0.00000
 1.00000  0.77795  0.00000
 1.00000  0.77290  0.00000
 0.00000  0.92810  0.00000
 0.00000  0.92306  0.00000
 0.00000  0.91801  0.00000
 0.06921  0.91297  0.00000
 0.14854  0.90792  0.00000
 0.22787  0.90287  0.00000
 0.30720  0.89783  0.00000
 0.38653  0.89278  0.00000
 0.46586  0.88774  0.00000
 0.54519  0.88269  0.00000
 0.62452  0.87765  0.00000
 0.70385  0.87260  0.00000
 0.78318  0.86755  0.00000
 0.86251  0.86251  0.00000
 0.94184  0.85746  0.00000
 1.00000  0.85242  0.00000
 1.00000  0.84737  0.00000
 0.00000  1.00000  0.00000
 0.00000  0.99753  0.00000
 0.00000  0.99248  0.00000
 0.05931  0.98743  0.00000
 0.13864  0.98239  0.00000
 0.21797  0.97734  0.00000
 0.29730  0.97230  0.00000
 0.37663  0.96725  0.00000
 0.45596  0.96221  0.00000
 0.53529  0.95716  0.00000
 0.61462  0.95212  0.00000
 0.69394  0.94707  0.00000
 0.77327  0.94202  0.00000
 0.85260  0.93698  0.00000
 0.93193  0.93193  0.00000
 1.00000  0.92689  0.00000
 1.00000  0.92184  0.00000
 0.00000  1.00000  0.00000
 0.00000  1.00000  0.00000
 0.00000  1.00000  0.00000
 0.04940  1.00000  0.00000
 0.12873  1.00000  0.00000
 0.20806  1.00000  0.00000
 0.28739  1.00000  0.00000
 0.36672  1.00000  0.00000
 0.44605  1.00000  0.00000
 0.52538  1.00000  0.00000
 0.60471  1.00000  0.00000
 0.68404  1.00000  0.00000
 0.76337  1.00000  0.00000
 0.84270  1.00000  0.00000
 0.92203  1.00000  0.00000
 1.00000  1.00000  0.00000
 1.00000  0.99631  0.00000
 0.00000  1.00000  0.00000
 0.00000  1.00000  0.00000
 0.00000  1.00000  0.00000
 0.03950  1.00000  0.00000
 0.11883  1.00000  0.00000
 0.19816  1.00000  0.00000
 0.27749  1.00000  0.00000
 0.35682  1.00000  0.00000
 0.43615  1.00000  0.00000
 0.51547  1.00000  0.00000
 0.59480  1.00000  0.00000
 0.67413  1.00000  0.00000
 0.75346  1.00000  0.00000
 0.83279  1.00000  0.00000
 0.91212  1.00000  0.00000
 0.99145  1.00000  0.00000
 1.00000  1.00000  0.00000
 0.00000  0.00000  0.04245
 0.03741  0.00000  0.03741
 0.11673  0.00000  0.03236
 0.19606  0.00000  0.02731
 0.27539  0.00000  0.02227
 0.35472  0.00000  0.01722
 0.43405  0.00000  0.01218
 0.51338  0.00000  0.00713
 0.59271  0.00000  0.00209
 0.67204  0.00000  0.00000
 0.75137  0.00000  0.00000
 0.83070  0.00000  0.00000
 0.91003  0.00000  0.00000
 0.98936  0.00000  0.00000
 1.00000  0.00000  0.00000
 1.00000  0.00000  0.00000
 1.00000  0.00000  0.00000
 0.00000  0.03255  0.03255
 0.02750  0.02750  0.02750
 0.10683  0.02245  0.02245
 0.18616  0.01741  0.01741
 0.26549  0.01236  0.01236
 0.34482  0.00732  0.00732
 0.42415  0.00227  0.00227
 0.50348  0.00000  0.00000
 0.58281  0.00000  0.00000
 0.66214  0.00000  0.00000
 0.74146  0.00000  0.00000
 0.82079  0.00000  0.00000
 0.90012  0.00000  0.00000
 0.97945  0.00000  0.00000
 1.00000  0.00000  0.00000
 1.00000  0.00000  0.00000
 1.00000  0.00000  0.00000
 0.00000  0.10701  0.02264
 0.01759  0.10197  0.01759
 0.09692  0.09692  0.01255
 0.17625  0.09188  0.00750
 0.25558  0.08683  0.00246
 0.33491  0.08179  0.00000
 0.41424  0.07674  0.00000
 0.49357  0.07170  0.00000
 0.57290  0.06665  0.00000
 0.65223  0.06160  0.00000
 0.73156  0.05656  0.00000
 0.81089  0.05151  0.00000
 0.89022  0.04647  0.00000
 0.96955  0.04142  0.00000
 1.00000  0.03638  0.00000
 1.00000  0.03133  0.00000
 1.00000  0.02629  0.00000
 0.00000  0.18148  0.01273
 0.00769  0.17644  0.00769
 0.08702  0.17139  0.00264
 0.16635  0.16635  0.00000
 0.24568  0.16130  0.00000
 0.32501  0.15626  0.00000
 0.40434  0.15121  0.00000
 0.48367  0.14616  0.00000
 0.56299  0.14112  0.00000
 0.64232  0.13607  0.00000
 0.72165  0.13103  0.00000
 0.80098  0.12598  0.00000
 0.88031  0.12094  0.00000
 0.95964  0.11589  0.00000
 1.00000  0.11085  0.00000
 1.00000  0.10580  0.00000
 1.00000  0.10075  0.00000
 0.00000  0.25595  0.00283
 0.00000  0.25091  0.00000
 0.07711  0.24586  0.00000
 0.15644  0.24082  0.00000
 0.23577  0.23577  0.00000
 0.31510  0.23073  0.00000
 0.39443  0.22568  0.00000
 0.47376  0.22063  0.00000
 0.55309  0.21559  0.00000
 0.63242  0.21054  0.00000
 0.71175  0.20550  0.00000
 0.79108  0.20045  0.00000
 0.87041  0.19541  0.00000
 0.94974  0.19036  0.00000
 1.00000  0.18532  0.00000
 1.00000  0.18027  0.00000
 1.00000  0.17522  0.00000
 0.00000  0.33042  0.00000
 0.00000  0.32538  0.00000
 0.06721  0.32033  0.00000
 0.14654  0.31529  0.00000
 0.22587  0.31024  0.00000
 0.30519  0.30519  0.00000
 0.38452  0.30015  0.00000
 0.46385  0.29510  0.00000
 0.54318  0.29006  0.00000
 0.62251  0.28501  0.00000
 0.70184  0.27997  0.00000
 0.78117  0.27492  0.00000
 0.86050  0.26988  0.00000
 0.93983  0.26483  0.00000
 1.00000  0.25978  0.00000
 1.00000  0.25474  0.00000
 1.00000  0.24969  0.00000
 0.00000  0.40489  0.00000
 0.00000  0.39985  0.00000
 0.05730  0.39480  0.00000
 0.13663  0.38976  0.00000
 0.21596  0.38471  0.00000
 0.29529  0.37966  0.00000
 0.37462  0.37462  0.00000
 0.45395  0.36957  0.00000
 0.53328  0.36453  0.00000
 0.61261  0.35948  0.00000
 0.69194  0.35444  0.00000
 0.77127  0.34939  0.00000
 0.85059  0.34435  0.00000
 0.92992  0.33930  0.00000
 1.00000  0.33425  0.00000
 1.00000  0.32921  0.00000
 1.00000  0.32416  0.00000
 0.00000  0.47936  0.00000
 0.00000  0.47432  0.00000
 0.04740  0.46927  0.00000
 0.12672  0.46422  0.00000
 0.20605  0.45918  0.00000
 0.28538  0.45413  0.00000
 0.36471  0.44909  0.00000
 0.44404  0.44404  0.00000
 0.52337  0.43900  0.00000
 0.60270  0.43395  0.00000
 0.68203  0.42891  0.00000
 0.76136  0.42386  0.00000
 0.84069  0.41881  0.00000
 0.92002  0.41377  0.00000
 0.99935  0.40872  0.00000
 1.00000  0.40368  0.00000
 1.00000  0.39863  0.00000
 0.00000  0.55383  0.00000
 0.00000  0.54879  0.00000
 0.03749  0.54374  0.00000
 0.11682  0.53869  0.00000
 0.19615  0.53365  0.00000
 0.27548  0.52860  0.00000
 0.35481  0.52356  0.00000
 0.43414  0.51851  0.00000
 0.51347  0.51347  0.00000
 0.59280  0.50842  0.00000
 0.67213  0.50338  0.00000
 0.75145  0.49833  0.00000
 0.83078  0.49328  0.00000
 0.91011  0.48824  0.00000
 0.98944  0.48319  0.00000
 1.00000  0.47815  0.00000
 1.00000  0.47310  0.00000
 0.00000  0.62830  0.00000
 0.00000  0.62326  0.00000
 0.02758  0.61821  0.00000
 0.10691  0.61316  0.00000
 0.18624  0.60812  0.00000
 0.26557  0.60307  0.00000
 0.34490  0.59803  0.00000
 0.42423  0.59298  0.00000
 0.50356  0.58794  0.00000
 0.58289  0.58289  0.00000
 0.66222  0.57784  0.00000
 0.74155  0.57280  0.00000
 0.82088  0.56775  0.00000
 0.90021  0.56271  0.00000
 0.97954  0.55766  0.00000
 1.00000  0.55262  0.00000
 1.00000  0.54757  0.00000
 0.00000  0.70277  0.00000
 0.00000  0.69772  0.00000
 0.01768  0.69268  0.00000
 0.09701  0.68763  0.00000
 0.17634  0.68259  0.00000
 0.25567  0.67754  0.00000
 0.33500  0.67250  0.00000
 0.41433  0.66745  0.00000
 0.49366  0.66241  0.00000
 0.57298  0.65736  0.00000
 0.65231  0.65231  0.00000
 0.73164  0.64727  0.00000
 0.81097  0.64222  0.00000
 0.89030  0.63718  0.00000
 0.96963  0.63213  0.00000
 1.00000  0.62709  0.00000
 1.00000  0.62204  0.00000
 0.00000  0.77724  0.00000
 0.00000  0.77219  0.00000
 0.00777  0.76715  0.00000
 0.08710  0.76210  0.00000
 0.16643  0.75706  0.00000
 0.24576  0.75201  0.00000
 0.32509  0.74697  0.00000
 0.40442  0.74192  0.00000
 0.48375  0.73687  0.00000
 0.56308  0.73183  0.00000
 0.64241  0.72678  0.00000
 0.72174  0.72174  0.00000
 0.80107  0.71669  0.00000
 0.88040  0.71165  0.00000
 0.95973  0.70660  0.00000
 1.00000  0.70156  0.00000
 1.00000  0.69651  0.00000
 0.00000  0.85171  0.00000
 0.00000  0.84666  0.00000
 0.00000  0.84162  0.00000
 0.07720  0.83657  0.00000
 0.15653  0.83153  0.00000
 0.23586  0.82648  0.00000
 0.31519  0.82144  0.00000
 0.39451  0.81639  0.00000
 0.47384  0.81134  0.00000
 0.55317  0.80630  0.00000
 0.63250  0.80125  0.00000
 0.71183  0.79621  0.00000
 0.79116  0.79116  0.00000
 0.87049  0.78612  0.00000
 0.94982  0.78107  0.00000
 1.00000  0.77602  0.00000
 1.00000  0.77098  0.00000
 0.00000  0.92618  0.00000
 0.00000  0.92113  0.00000
 0.00000  0.91609  0.00000
 0.06729  0.91104  0.00000
 0.14662  0.90600  0.00000
 0.22595  0.90095  0.00000
 0.30528  0.89590  0.00000
 0.38461  0.89086  0.00000
 0.46394  0.88581  0.00000
 0.54327  0.88077  0.00000
 0.62260  0.87572  0.00000
 0.70193  0.87068  0.00000
 0.78126  0.86563  0.00000
 0.86059  0.86059  0.00000
 0.93991  0.85554  0.00000
 1.00000  0.85049  0.00000
 1.00000  0.84545  0.00000
 0.00000  1.00000  0.00000
 0.00000  0.99560  0.00000
 0.00000  0.99056  0.00000
 0.05739  0.98551  0.00000
 0.13671  0.98047  0.00000
 0.21604  0.97542  0.00000
 0.29537  0.97037  0.00000
 0.37470  0.96533  0.00000
 0.45403  0.96028  0.00000
 0.53336  0.95524  0.00000
 0.61269  0.95019  0.00000
 0.69202  0.94515  0.00000
 0.77135  0.94010  0.00000
 0.85068  0.93505  0.00000
 0.93001  0.93001  0.00000
 1.00000  0.92496  0.00000
 1.00000  0.91992  0.00000
 0.00000  1.00000  0.00000
 0.00000  1.00000  0.00000
 0.00000  1.00000  0.00000
 0.04748  1.00000  0.00000
 0.12681  1.00000  0.00000
 0.20614  1.00000  0.00000
 0.28547  1.00000  0.00000
 0.36480  1.00000  0.00000
 0.44413  1.00000  0.00000
 0.52346  1.00000  0.00000
 0.60279  1.00000  0.00000
 0.68212  1.00000  0.00000
 0.76144  1.00000  0.00000
 0.84077  1.00000  0.00000
 0.92010  1.00000  0.00000
 0.99943  0.99943  0.00000
 1.00000  0.99439  0.00000
 0.00000  1.00000  0.00000
 0.00000  1.00000  0.00000
 0.00000  1.00000  0.00000
 0.03757  1.00000  0.00000
 0.11690  1.00000  0.00000
 0.19623  1.00000  0.00000
 0.27556  1.00000  0.00000
 0.35489  1.00000  0.00000
 0.43422  1.00000  0.00000
 0.51355  1.00000  0.00000
 0.59288  1.00000  0.00000
 0.67221  1.00000  0.00000
 0.75154  1.00000  0.00000
 0.83087  1.00000  0.00000
 0.91020  1.00000  0.00000
 0.98953  1.00000  0.00000
 1.00000  1.00000  0.00000
 0.00000  0.00000  0.12490
 0.03548  0.00000  0.11986
 0.11481  0.00000  0.11481
 0.19414  0.00000  0.10977
 0.27347  0.00000  0.10472
 0.35280  0.00000  0.09967
 0.43213  0.00000  0.09463
 0.51146  0.00000  0.08958
 0.59079  0.00000  0.08454
 0.67012  0.00000  0.07949
 0.74945  0.00000  0.07445
 0.82878  0.00000  0.06940
 0.90810  0.00000  0.06435
 0.98743  0.00000  0.05931
 1.00000  0.00000  0.05426
 1.00000  0.00000  0.04922
 1.00000  0.00000  0.04417
 0.00000  0.03062  0.11500
 0.02558  0.02558  0.10995
 0.10491  0.02053  0.10491
 0.18423  0.01548  0.09986
 0.26356  0.01044  0.09481
 0.34289  0.00539  0.08977
 0.42222  0.00035  0.08472
 0.50155  0.00000  0.07968
 0.58088  0.00000  0.07463
 0.66021  0.00000  0.06959
 0.73954  0.00000  0.06454
 0.81887  0.00000  0.05949
 0.89820  0.00000  0.05445
 0.97753  0.00000  0.04940
 1.00000  0.00000  0.04436
 1.00000  0.00000  0.03931
 1.00000  0.00000  0.03427
 0.00000  0.10509  0.10509
 0.01567  0.10005  0.10005
 0.09500  0.09500  0.09500
 0.17433  0.08995  0.08995
 0.25366  0.08491  0.08491
 0.33299  0.07986  0.07986
 0.41232  0.07482  0.07482
 0.49165  0.06977  0.06977
 0.57098  0.06473  0.06473
 0.65031  0.05968  0.05968
 0.72964  0.05463  0.05463
 0.80896  0.04959  0.04959
 0.88829  0.04454  0.04454
 0.96762  0.03950  0.03950
 1.00000  0.03445  0.03445
 1.00000  0.02941  0.02941
 1.00000  0.02436  0.02436
 0.00000  0.17956  0.09519
 0.00576  0.17451  0.09014
 0.08509  0.16947  0.08509
 0.16442  0.16442  0.08005
 0.24375  0.15938  0.07500
 0.32308  0.15433  0.06996
 0.40241  0.14929  0.06491
 0.48174  0.14424  0.05987
 0.56107  0.13920  0.05482
 0.64040  0.13415  0.04977
 0.71973  0.12910  0.04473
 0.79906  0.12406  0.03968
 0.87839  0.11901  0.03464
 0.95772  0.11397  0.02959
 1.00000  0.10892  0.02455
 1.00000  0.10388  0.01950
 1.00000  0.09883  0.01446
 0.00000  0.25403  0.08528
 0.00000  0.24898  0.08023
 0.07519  0.24394  0.07519
 0.15452  0.23889  0.07014
 0.23385  0.23385  0.06510
 0.31318  0.22880  0.06005
 0.39251  0.22376  0.05501
 0.47184  0.21871  0.04996
 0.55116  0.21366  0.04491
 0.63049  0.20862  0.03987
 0.70982  0.20357  0.03482
 0.78915  0.19853  0.02978
 0.86848  0.19348  0.02473
 0.94781  0.18844  0.01969
 1.00000  0.18339  0.01464
 1.00000  0.17835  0.00960
 1.00000  0.17330  0.00455
 0.00000  0.32850  0.07537
 0.00000  0.32345  0.07033
 0.06528  0.31841  0.06528
 0.14461  0.31336  0.06024
 0.22394  0.30832  0.05519
 0.30327  0.30327  0.05015
 0.38260  0.29823  0.04510
 0.46193  0.29318  0.04005
 0.54126  0.28813  0.03501
 0.62059  0.28309  0.02996
 0.69992  0.27804  0.02492
 0.77925  0.27300  0.01987
 0.85858  0.26795  0.01483
 0.93791  0.26291  0.00978
 1.00000  0.25786  0.00474
 1.00000  0.25282  0.00000
 1.00000  0.24777  0.00000
 0.00000  0.40297  0.06547
 0.00000  0.39792  0.06042
 0.05538  0.39288  0.05538
 0.13471  0.38783  0.05033
 0.21404  0.38279  0.04529
 0.29337  0.37774  0.04024
 0.37269  0.37269  0.03519
 0.45202  0.36765  0.03015
 0.53135  0.36260  0.02510
 0.61068  0.35756  0.02006
 0.69001  0.35251  0.01501
 0.76934  0.34747  0.00997
 0.84867  0.34242  0.00492
 0.92800  0.33738  0.00000
 1.00000  0.33233  0.00000
 1.00000  0.32728  0.00000
 1.00000  0.32224  0.00000
 0.00000  0.47744  0.05556
 0.00000  0.47239  0.05052
 0.04547  0.46735  0.04547
 0.12480  0.46230  0.04043
 0.20413  0.45726  0.03538
 0.28346  0.45221  0.03033
 0.36279  0.44716  0.02529
 0.44212  0.44212  0.02024
 0.52145  0.43707  0.01520
 0.60078  0.43203  0.01015
 0.68011  0.42698  0.00511
 0.75944  0.42194  0.00006
 0.83877  0.41689  0.00000
 0.91809  0.41185  0.00000
 0.99742  0.40680  0.00000
 1.00000  0.40175  0.00000
 1.00000  0.39671  0.00000
 0.00000  0.55191  0.04566
 0.00000  0.54686  0.04061
 0.03557  0.54182  0.03557
 0.11490  0.53677  0.03052
 0.19423  0.53173  0.02548
 0.27355  0.52668  0.02043
 0.35288  0.52163  0.01538
 0.43221  0.51659  0.01034
 0.51154  0.51154  0.00529
 0.59087  0.50650  0.00025
 0.67020  0.50145  0.00000
 0.74953  0.49641  0.00000
 0.82886  0.49136  0.00000
 0.90819  0.48631  0.00000
 0.98752  0.48127  0.00000
 1.00000  0.47622  0.00000
 1.00000  0.47118  0.00000
 0.00000  0.62638  0.03575
 0.00000  0.62133  0.03071
 0.02566  0.61629  0.02566
 0.10499  0.61124  0.02061
 0.18432  0.60619  0.01557
 0.26365  0.60115  0.01052
 0.34298  0.59610  0.00548
 0.42231  0.59106  0.00043
 0.50164  0.58601  0.00000
 0.58097  0.58097  0.00000
 0.66030  0.57592  0.00000
 0.73963  0.57088  0.00000
 0.81895  0.56583  0.00000
 0.89828  0.56078  0.00000
 0.97761  0.55574  0.00000
 1.00000  0.55069  0.00000
 1.00000  0.54565  0.00000
 0.00000  0.70085  0.02585
 0.00000  0.69580  0.02080
 0.01576  0.69076  0.01576
 0.09508  0.68571  0.01071
 0.17441  0.68066  0.00566
 0.25374  0.67562  0.00062
 0.33307  0.67057  0.00000
 0.41240  0.66553  0.00000
 0.49173  0.66048  0.00000
 0.57106  0.65544  0.00000
 0.65039  0.65039  0.00000
 0.72972  0.64534  0.00000
 0.80905  0.64030  0.00000
 0.88838  0.63525  0.00000
 0.96771  0.63021  0.00000
 1.00000  0.62516  0.00000
 1.00000  0.62012  0.00000
 0.00000  0.77532  0.01594
 0.00000  0.77027  0.01089
 0.00585  0.76522  0.00585
 0.08518  0.76018  0.00080
 0.16451  0.75513  0.00000
 0.24384  0.75009  0.00000
 0.32317  0.74504  0.00000
 0.40250  0.74000  0.00000
 0.48183  0.73495  0.00000
 0.56116  0.72991  0.00000
 0.64048  0.72486  0.00000
 0.71981  0.71981  0.00000
 0.79914  0.71477  0.00000
 0.87847  0.70972  0.00000
 0.95780  0.70468  0.00000
 1.00000  0.69963  0.00000
 1.00000  0.69459  0.00000
 0.00000  0.84979  0.00604
 0.00000  0.84474  0.00099
 0.00000  0.83969  0.00000
 0.07527  0.83465  0.00000
 0.15460  0.82960  0.00000
 0.23393  0.82456  0.00000
 0.31326  0.81951  0.00000
 0.39259  0.81447  0.00000
 0.47192  0.80942  0.00000
 0.55125  0.80437  0.00000
 0.63058  0.79933  0.00000
 0.70991  0.79428  0.00000
 0.78924  0.78924  0.00000
 0.86857  0.78419  0.00000
 0.94790  0.77915  0.00000
 1.00000  0.77410  0.00000
 1.00000  0.76906  0.00000
 0.00000  0.92425  0.00000
 0.00000  0.91921  0.00000
 0.00000  0.91416  0.00000
 0.06537  0.90912  0.00000
 0.14470  0.90407  0.00000
 0.22403  0.89903  0.00000
 0.30336  0.89398  0.00000
 0.38269  0.88894  0.00000
 0.46201  0.88389  0.00000
 0.54134  0.87884  0.00000
 0.62067  0.87380  0.00000
 0.70000  0.86875  0.00000
 0.77933  0.86371  0.00000
 0.85866  0.85866  0.00000
 0.93799  0.85362  0.00000
 1.00000  0.84857  0.00000
 1.00000  0.84352  0.00000
 0.00000  0.99872  0.00000
 0.00000  0.99368  0.00000
 0.00000  0.98863  0.00000
 0.05546  0.98359  0.00000
 0.13479  0.97854  0.00000
 0.21412  0.97350  0.00000
 0.29345  0.96845  0.00000
 0.37278  0.96340  0.00000
 0.45211  0.95836  0.00000
 0.53144  0.95331  0.00000
 0.61077  0.94827  0.00000
 0.69010  0.94322  0.00000
 0.76943  0.93818  0.00000
 0.84876  0.93313  0.00000
 0.92809  0.92809  0.00000
 1.00000  0.92304  0.00000
 1.00000  0.91799  0.00000
 0.00000  1.00000  0.00000
 0.00000  1.00000  0.00000
 0.00000  1.00000  0.00000
 0.04556  1.00000  0.00000
 0.12489  1.00000  0.00000
 0.20421  1.00000  0.00000
 0.28354  1.00000  0.00000
 0.36287  1.00000  0.00000
 0.44220  1.00000  0.00000
 0.52153  1.00000  0.00000
 0.60086  1.00000  0.00000
 0.68019  1.00000  0.00000
 0.75952  1.00000  0.00000
 0.83885  1.00000  0.00000
 0.91818  1.00000  0.00000
 0.99751  0.99751  0.00000
 1.00000  0.99246  0.00000
 0.00000  1.00000  0.00000
 0.00000  1.00000  0.00000
 0.00000  1.00000  0.00000
 0.03565  1.00000  0.00000
 0.11498  1.00000  0.00000
 0.19431  1.00000  0.00000
 0.27364  1.00000  0.00000
 0.35297  1.00000  0.00000
 0.43230  1.00000  0.00000
 0.51163  1.00000  0.00000
 0.59096  1.00000  0.00000
 0.67029  1.00000  0.00000
 0.74962  1.00000  0.00000
 0.82894  1.00000  0.00000
 0.90827  1.00000  0.00000
 0.98760  1.00000  0.00000
 1.00000  1.00000  0.00000
 0.00000  0.00000  0.20735
 0.03356  0.00000  0.20231
 0.11289  0.00000  0.19726
 0.19222  0.00000  0.19222
 0.27155  0.00000  0.18717
 0.35088  0.00000  0.18213
 0.43021  0.00000  0.17708
 0.50953  0.00000  0.17203
 0.58886  0.00000  0.16699
 0.66819  0.00000  0.16194
 0.74752  0.00000  0.15690
 0.82685  0.00000  0.15185
 0.90618  0.00000  0.14681
 0.98551  0.00000  0.14176
 1.00000  0.00000  0.13671
 1.00000  0.00000  0.13167
 1.00000  0.00000  0.12662
