src/assets/luts/velvia.cube
TITLE "Velvia 浓郁"
LUT_3D_SIZE 5
DOMAIN_MIN 0.0 0.0 0.0
DOMAIN_MAX 1.0 1.0 1.0
# LumEdit built-in LUT · 高饱和高对比，风光利器
 0.00000  0.00000  0.00000
 0.27732  0.00000  0.00000
 0.59464  0.00000  0.00000
 0.91195  0.00000  0.00000
 1.00000  0.00000  0.00000
 0.00000  0.25788  0.00000
 0.23769  0.23769  0.00000
 0.55501  0.21751  0.00000
 0.87233  0.19733  0.00000
 1.00000  0.17715  0.00000
 0.00000  0.55575  0.00000
 0.19807  0.53557  0.00000
 0.51539  0.51539  0.00000
 0.83271  0.49521  0.00000
 1.00000  0.47502  0.00000
 0.00000  0.85363  0.00000
 0.15845  0.83345  0.00000
 0.47577  0.81327  0.00000
 0.79309  0.79309  0.00000
 1.00000  0.77290  0.00000
 0.00000  1.00000  0.00000
 0.11883  1.00000  0.00000
 0.43615  1.00000  0.00000
 0.75346  1.00000  0.00000
 1.00000  1.00000  0.00000
 0.00000  0.00000  0.28980
 0.26962  0.00000  0.26962
 0.58694  0.00000  0.24944
 0.90426  0.00000  0.22926
 1.00000  0.00000  0.20907
 0.00000  0.25018  0.25018
 0.23000  0.23000  0.23000
 0.54732  0.20982  0.20982
 0.86464  0.18963  0.18963
 1.00000  0.16945  0.16945
 0.00000  0.54806  0.21056
 0.19038  0.52788  0.19038
 0.50770  0.50770  0.17019
 0.82501  0.48751  0.15001
 1.00000  0.46733  0.12983
 0.00000  0.84594  0.17094
 0.15076  0.82576  0.15076
 0.46807  0.80557  0.13057
 0.78539  0.78539  0.11039
 1.00000  0.76521  0.09021
 0.00000  1.00000  0.13132
 0.11113  1.00000  0.11113
 0.42845  1.00000  0.09095
 0.74577  1.00000  0.07077
 1.00000  1.00000  0.05058
 0.00000  0.00000  0.61961
 0.26193  0.00000  0.59943
 0.57925  0.00000  0.57925
 0.89656  0.00000  0.55906
 1.00000  0.00000  0.53888
 0.00000  0.24249  0.57999
 0.22230  0.22230  0.55980
 0.53962  0.20212  0.53962
 0.85694  0.18194  0.51944
 1.00000  0.16176  0.49926
 0.00000  0.54036  0.54036
 0.18268  0.52018  0.52018
 0.50000  0.50000  0.50000
 0.81732  0.47982  0.47982
 1.00000  0.45963  0.45963
 0.00000  0.83824  0.50074
 0.14306  0.81806  0.48056
 0.46038  0.79788  0.46038
 0.77770  0.77770  0.44020
 1.00000  0.75751  0.42001
 0.00000  1.00000  0.46112
 0.10344  1.00000  0.44094
 0.42076  1.00000  0.42076
 0.73807  1.00000  0.40057
 1.00000  1.00000  0.38039
 0.00000  0.00000  0.94942
 0.25423  0.00000  0.92923
 0.57155  0.00000  0.90905
 0.88887  0.00000  0.88887
 1.00000  0.00000  0.86868
 0.00000  0.23479  0.90979
 0.21461  0.21461  0.88961
 0.53193  0.19443  0.86943
 0.84925  0.17424  0.84925
 1.00000  0.15406  0.82906
 0.00000  0.53267  0.87017
 0.17499  0.51249  0.84999
 0.49230  0.49230  0.82980
 0.80962  0.47212  0.80962
 1.00000  0.45194  0.78944
 0.00000  0.83055  0.83055
 0.13536  0.81037  0.81037
 0.45268  0.79018  0.79018
 0.77000  0.77000  0.77000
 1.00000  0.74982  0.74982
 0.00000  1.00000  0.79093
 0.09574  1.00000  0.77074
 0.41306  1.00000  0.75056
 0.73038  1.00000  0.73038
 1.00000  1.00000  0.71020
 0.00000  0.00000  1.00000
 0.24654  0.00000  1.00000
 0.56385  0.00000  1.00000
 0.88117  0.00000  1.00000
 1.00000  0.00000  1.00000
 0.00000  0.22710  1.00000
 0.20692  0.20692  1.00000
 0.52423  0.18673  1.00000
 0.84155  0.16655  1.00000
 1.00000  0.14637  1.00000
 0.00000  0.52498  1.00000
 0.16729  0.50479  1.00000
 0.48461  0.48461  1.00000
 0.80193  0.46443  1.00000
 1.00000  0.44424  1.00000
 0.00000  0.82285  1.00000
 0.12767  0.80267  1.00000
 0.44499  0.78249  1.00000
 0.76231  0.76231  1.00000
 1.00000  0.74212  1.00000
 0.00000  1.00000  1.00000
 0.08805  1.00000  1.00000
 0.40537  1.00000  1.00000
 0.72268  1.00000  1.00000
 1.00000  1.00000  1.00000
