src/assets/luts/velvia.cube
TITLE "Velvia 浓郁"
LUT_3D_SIZE 9
DOMAIN_MIN 0.0 0.0 0.0
DOMAIN_MAX 1.0 1.0 1.0
# LumEdit built-in LUT · 高饱和高对比，风光利器
 0.00000  0.00000  0.00000
 0.11866  0.00000  0.00000
 0.27732  0.00000  0.00000
 0.43598  0.00000  0.00000
 0.59464  0.00000  0.00000
 0.75329  0.00000  0.00000
 0.91195  0.00000  0.00000
 1.00000  0.00000  0.00000
 1.00000  0.00000  0.00000
 0.00000  0.10894  0.00000
 0.09885  0.09885  0.00000
 0.25751  0.08876  0.00000
 0.41617  0.07866  0.00000
 0.57482  0.06857  0.00000
 0.73348  0.05848  0.00000
 0.89214  0.04839  0.00000
 1.00000  0.03830  0.00000
 1.00000  0.02821  0.00000
 0.00000  0.25788  0.00000
 0.07904  0.24779  0.00000
 0.23769  0.23769  0.00000
 0.39635  0.22760  0.00000
 0.55501  0.21751  0.00000
 0.71367  0.20742  0.00000
 0.87233  0.19733  0.00000
 1.00000  0.18724  0.00000
 1.00000  0.17715  0.00000
 0.00000  0.40682  0.00000
 0.05922  0.39672  0.00000
 0.21788  0.38663  0.00000
 0.37654  0.37654  0.00000
 0.53520  0.36645  0.00000
 0.69386  0.35636  0.00000
 0.85252  0.34627  0.00000
 1.00000  0.33618  0.00000
 1.00000  0.32609  0.00000
 0.00000  0.55575  0.00000
 0.03941  0.54566  0.00000
 0.19807  0.53557  0.00000
 0.35673  0.52548  0.00000
 0.51539  0.51539  0.00000
 0.67405  0.50530  0.00000
 0.83271  0.49521  0.00000
 0.99137  0.48512  0.00000
 1.00000  0.47502  0.00000
 0.00000  0.70469  0.00000
 0.01960  0.69460  0.00000
 0.17826  0.68451  0.00000
 0.33692  0.67442  0.00000
 0.49558  0.66433  0.00000
 0.65424  0.65424  0.00000
 0.81290  0.64415  0.00000
 0.97156  0.63406  0.00000
 1.00000  0.62396  0.00000
 0.00000  0.85363  0.00000
 0.00000  0.84354  0.00000
 0.15845  0.83345  0.00000
 0.31711  0.82336  0.00000
 0.47577  0.81327  0.00000
 0.63443  0.80318  0.00000
 0.79309  0.79309  0.00000
 0.95174  0.78299  0.00000
 1.00000  0.77290  0.00000
 0.00000  1.00000  0.00000
 0.00000  0.99248  0.00000
 0.13864  0.98239  0.00000
 0.29730  0.97230  0.00000
 0.45596  0.96221  0.00000
 0.61462  0.95212  0.00000
 0.77327  0.94202  0.00000
 0.93193  0.93193  0.00000
 1.00000  0.92184  0.00000
 0.00000  1.00000  0.00000
 0.00000  1.00000  0.00000
 0.11883  1.00000  0.00000
 0.27749  1.00000  0.00000
 0.43615  1.00000  0.00000
 0.59480  1.00000  0.00000
 0.75346  1.00000  0.00000
 0.91212  1.00000  0.00000
 1.00000  1.00000  0.00000
 0.00000  0.00000  0.12490
 0.11481  0.00000  0.11481
 0.27347  0.00000  0.10472
 0.43213  0.00000  0.09463
 0.59079  0.00000  0.08454
 0.74945  0.00000  0.07445
 0.90810  0.00000  0.06435
 1.00000  0.00000  0.05426
 1.00000  0.00000  0.04417
 0.00000  0.10509  0.10509
 0.09500  0.09500  0.09500
 0.25366  0.08491  0.08491
 0.41232  0.07482  0.07482
 0.57098  0.06473  0.06473
 0.72964  0.05463  0.05463
 0.88829  0.04454  0.04454
 1.00000  0.03445  0.03445
 1.00000  0.02436  0.02436
 0.00000  0.25403  0.08528
 0.07519  0.24394  0.07519
 0.23385  0.23385  0.06510
 0.39251  0.22376  0.05501
 0.55116  0.21366  0.04491
 0.70982  0.20357  0.03482
 0.86848  0.19348  0.02473
 1.00000  0.18339  0.01464
 1.00000  0.17330  0.00455
 0.00000  0.40297  0.06547
 0.05538  0.39288  0.05538
 0.21404  0.38279  0.04529
 0.37269  0.37269  0.03519
 0.53135  0.36260  0.02510
 0.69001  0.35251  0.01501
 0.84867  0.34242  0.00492
 1.00000  0.33233  0.00000
 1.00000  0.32224  0.00000
 0.00000  0.55191  0.04566
 0.03557  0.54182  0.03557
 0.19423  0.53173  0.02548
 0.35288  0.52163  0.01538
 0.51154  0.51154  0.00529
 0.67020  0.50145  0.00000
 0.82886  0.49136  0.00000
 0.98752  0.48127  0.00000
 1.00000  0.47118  0.00000
 0.00000  0.70085  0.02585
 0.01576  0.69076  0.01576
 0.17441  0.68066  0.00566
 0.33307  0.67057  0.00000
 0.49173  0.66048  0.00000
 0.65039  0.65039  0.00000
 0.80905  0.64030  0.00000
 0.96771  0.63021  0.00000
 1.00000  0.62012  0.00000
 0.00000  0.84979  0.00604
 0.00000  0.83969  0.00000
 0.15460  0.82960  0.00000
 0.31326  0.81951  0.00000
 0.47192  0.80942  0.00000
 0.63058  0.79933  0.00000
 0.78924  0.78924  0.00000
 0.94790  0.77915  0.00000
 1.00000  0.76906  0.00000
 0.00000  0.99872  0.00000
 0.00000  0.98863  0.00000
 0.13479  0.97854  0.00000
 0.29345  0.96845  0.00000
 0.45211  0.95836  0.00000
 0.61077  0.94827  0.00000
 0.76943  0.93818  0.00000
 0.92809  0.92809  0.00000
 1.00000  0.91799  0.00000
 0.00000  1.00000  0.00000
 0.00000  1.00000  0.00000
 0.11498  1.00000  0.00000
 0.27364  1.00000  0.00000
 0.43230  1.00000  0.00000
 0.59096  1.00000  0.00000
 0.74962  1.00000  0.00000
 0.90827  1.00000  0.00000
 1.00000  1.00000  0.00000
 0.00000  0.00000  0.28980
 0.11096  0.00000  0.27971
 0.26962  0.00000  0.26962
 0.42828  0.00000  0.25953
 0.58694  0.00000  0.24944
 0.74560  0.00000  0.23935
 0.90426  0.00000  0.22926
 1.00000  0.00000  0.21917
 1.00000  0.00000  0.20907
 0.00000  0.10124  0.26999
 0.09115  0.09115  0.25990
 0.24981  0.08106  0.24981
 0.40847  0.07097  0.23972
 0.56713  0.06088  0.22963
 0.72579  0.05079  0.21954
 0.88445  0.04070  0.20945
 1.00000  0.03060  0.19936
 1.00000  0.02051  0.18926
 0.00000  0.25018  0.25018
 0.07134  0.24009  0.24009
 0.23000  0.23000  0.23000
 0.38866  0.21991  0.21991
 0.54732  0.20982  0.20982
 0.70598  0.19973  0.19973
 0.86464  0.18963  0.18963
 1.00000  0.17954  0.17954
 1.00000  0.16945  0.16945
 0.00000  0.39912  0.23037
 0.05153  0.38903  0.22028
 0.21019  0.37894  0.21019
 0.36885  0.36885  0.20010
 0.52751  0.35876  0.19001
 0.68616  0.34867  0.17991
 0.84482  0.33857  0.16982
 1.00000  0.32848  0.15973
 1.00000  0.31839  0.14964
 0.00000  0.54806  0.21056
 0.03172  0.53797  0.20047
 0.19038  0.52788  0.19038
 0.34904  0.51779  0.18029
 0.50770  0.50770  0.17019
 0.66635  0.49760  0.16010
 0.82501  0.48751  0.15001
 0.98367  0.47742  0.13992
 1.00000  0.46733  0.12983
 0.00000  0.69700  0.19075
 0.01191  0.68691  0.18066
 0.17057  0.67682  0.17057
 0.32923  0.66673  0.16048
 0.48788  0.65663  0.15038
 0.64654  0.64654  0.14029
 0.80520  0.63645  0.13020
 0.96386  0.62636  0.12011
 1.00000  0.61627  0.11002
 0.00000  0.84594  0.17094
 0.00000  0.83585  0.16085
 0.15076  0.82576  0.15076
 0.30941  0.81566  0.14066
 0.46807  0.80557  0.13057
 0.62673  0.79548  0.12048
 0.78539  0.78539  0.11039
 0.94405  0.77530  0.10030
 1.00000  0.76521  0.09021
 0.00000  0.99488  0.15113
 0.00000  0.98479  0.14104
 0.13094  0.97469  0.13094
 0.28960  0.96460  0.12085
 0.44826  0.95451  0.11076
 0.60692  0.94442  0.10067
 0.76558  0.93433  0.09058
 0.92424  0.92424  0.08049
 1.00000  0.91415  0.07040
 0.00000  1.00000  0.13132
 0.00000  1.00000  0.12122
 0.11113  1.00000  0.11113
 0.26979  1.00000  0.10104
 0.42845  1.00000  0.09095
 0.58711  1.00000  0.08086
 0.74577  1.00000  0.07077
 0.90443  1.00000  0.06068
 1.00000  1.00000  0.05058
 0.00000  0.00000  0.45471
 0.10712  0.00000  0.44462
 0.26577  0.00000  0.43452
 0.42443  0.00000  0.42443
 0.58309  0.00000  0.41434
 0.74175  0.00000  0.40425
 0.90041  0.00000  0.39416
 1.00000  0.00000  0.38407
 1.00000  0.00000  0.37398
 0.00000  0.09740  0.43490
 0.08730  0.08730  0.42480
 0.24596  0.07721  0.41471
 0.40462  0.06712  0.40462
 0.56328  0.05703  0.39453
 0.72194  0.04694  0.38444
 0.88060  0.03685  0.37435
 1.00000  0.02676  0.36426
 1.00000  0.01667  0.35417
 0.00000  0.24633  0.41508
 0.06749  0.23624  0.40499
 0.22615  0.22615  0.39490
 0.38481  0.21606  0.38481
 0.54347  0.20597  0.37472
 0.70213  0.19588  0.36463
 0.86079  0.18579  0.35454
 1.00000  0.17570  0.34445
 1.00000  0.16561  0.33436
 0.00000  0.39527  0.39527
 0.04768  0.38518  0.38518
 0.20634  0.37509  0.37509
 0.36500  0.36500  0.36500
 0.52366  0.35491  0.35491
 0.68232  0.34482  0.34482
 0.84098  0.33473  0.33473
 0.99964  0.32464  0.32464
 1.00000  0.31454  0.31454
 0.00000  0.54421  0.37546
 0.02787  0.53412  0.36537
 0.18653  0.52403  0.35528
 0.34519  0.51394  0.34519
 0.50385  0.50385  0.33510
 0.66251  0.49376  0.32501
 0.82117  0.48367  0.31492
 0.97982  0.47357  0.30482
 1.00000  0.46348  0.29473
 0.00000  0.69315  0.35565
 0.00806  0.68306  0.34556
 0.16672  0.67297  0.33547
 0.32538  0.66288  0.32538
 0.48404  0.65279  0.31529
 0.64270  0.64270  0.30520
 0.80135  0.63260  0.29510
 0.96001  0.62251  0.28501
 1.00000  0.61242  0.27492
 0.00000  0.84209  0.33584
 0.00000  0.83200  0.32575
 0.14691  0.82191  0.31566
 0.30557  0.81182  0.30557
 0.46423  0.80173  0.29548
 0.62288  0.79163  0.28538
 0.78154  0.78154  0.27529
 0.94020  0.77145  0.26520
 1.00000  0.76136  0.25511
 0.00000  0.99103  0.31603
 0.00000  0.98094  0.30594
 0.12710  0.97085  0.29585
 0.28575  0.96076  0.28575
 0.44441  0.95066  0.27566
 0.60307  0.94057  0.26557
 0.76173  0.93048  0.25548
 0.92039  0.92039  0.24539
 1.00000  0.91030  0.23530
 0.00000  1.00000  0.29622
 0.00000  1.00000  0.28613
 0.10729  1.00000  0.27604
 0.26594  1.00000  0.26594
 0.42460  1.00000  0.25585
 0.58326  1.00000  0.24576
 0.74192  1.00000  0.23567
 0.90058  1.00000  0.22558
 1.00000  1.00000  0.21549
 0.00000  0.00000  0.61961
 0.10327  0.00000  0.60952
 0.26193  0.00000  0.59943
 0.42059  0.00000  0.58934
 0.57925  0.00000  0.57925
 0.73790  0.00000  0.56915
 0.89656  0.00000  0.55906
 1.00000  0.00000  0.54897
 1.00000  0.00000  0.53888
 0.00000  0.09355  0.59980
 0.08346  0.08346  0.58971
 0.24212  0.07337  0.57962
 0.40077  0.06327  0.56953
 0.55943  0.05318  0.55943
 0.71809  0.04309  0.54934
 0.87675  0.03300  0.53925
 1.00000  0.02291  0.52916
 1.00000  0.01282  0.51907
 0.00000  0.24249  0.57999
 0.06365  0.23240  0.56990
 0.22230  0.22230  0.55980
 0.38096  0.21221  0.54971
 0.53962  0.20212  0.53962
 0.69828  0.19203  0.52953
 0.85694  0.18194  0.51944
 1.00000  0.17185  0.50935
 1.00000  0.16176  0.49926
 0.00000  0.39143  0.56018
 0.04383  0.38133  0.55009
 0.20249  0.37124  0.53999
 0.36115  0.36115  0.52990
 0.51981  0.35106  0.51981
 0.67847  0.34097  0.50972
 0.83713  0.33088  0.49963
 0.99579  0.32079  0.48954
 1.00000  0.31070  0.47945
 0.00000  0.54036  0.54036
 0.02402  0.53027  0.53027
 0.18268  0.52018  0.52018
 0.34134  0.51009  0.51009
 0.50000  0.50000  0.50000
 0.65866  0.48991  0.48991
 0.81732  0.47982  0.47982
 0.97598  0.46973  0.46973
 1.00000  0.45963  0.45963
 0.00000  0.68930  0.52055
 0.00421  0.67921  0.51046
 0.16287  0.66912  0.50037
 0.32153  0.65903  0.49028
 0.48019  0.64894  0.48019
 0.63885  0.63885  0.47010
 0.79751  0.62876  0.46001
 0.95616  0.61866  0.44992
 1.00000  0.60857  0.43982
 0.00000  0.83824  0.50074
 0.00000  0.82815  0.49065
 0.14306  0.81806  0.48056
 0.30172  0.80797  0.47047
 0.46038  0.79788  0.46038
 0.61904  0.78779  0.45029
 0.77770  0.77770  0.44020
 0.93635  0.76760  0.43010
 1.00000  0.75751  0.42001
 0.00000  0.98718  0.48093
 0.00000  0.97709  0.47084
 0.12325  0.96700  0.46075
 0.28191  0.95691  0.45066
 0.44057  0.94682  0.44057
 0.59922  0.93673  0.43047
 0.75788  0.92663  0.42038
 0.91654  0.91654  0.41029
 1.00000  0.90645  0.40020
 0.00000  1.00000  0.46112
 0.00000  1.00000  0.45103
 0.10344  1.00000  0.44094
 0.26210  1.00000  0.43085
 0.42076  1.00000  0.42076
 0.57941  1.00000  0.41066
 0.73807  1.00000  0.40057
 0.89673  1.00000  0.39048
 1.00000  1.00000  0.38039
 0.00000  0.00000  0.78451
 0.09942  0.00000  0.77442
 0.25808  0.00000  0.76433
 0.41674  0.00000  0.75424
 0.57540  0.00000  0.74415
 0.73406  0.00000  0.73406
 0.89271  0.00000  0.72396
 1.00000  0.00000  0.71387
 1.00000  0.00000  0.70378
 0.00000  0.08970  0.76470
 0.07961  0.07961  0.75461
 0.23827  0.06952  0.74452
 0.39693  0.05943  0.73443
 0.55559  0.04934  0.72434
 0.71425  0.03924  0.71425
 0.87290  0.02915  0.70415
 1.00000  0.01906  0.69406
 1.00000  0.00897  0.68397
 0.00000  0.23864  0.74489
 0.05980  0.22855  0.73480
 0.21846  0.21846  0.72471
 0.37712  0.20837  0.71462
 0.53578  0.19827  0.70452
 0.69443  0.18818  0.69443
 0.85309  0.17809  0.68434
 1.00000  0.16800  0.67425
 1.00000  0.15791  0.66416
 0.00000  0.38758  0.72508
 0.03999  0.37749  0.71499
 0.19865  0.36740  0.70490
 0.35730  0.35730  0.69480
 0.51596  0.34721  0.68471
 0.67462  0.33712  0.67462
 0.83328  0.32703  0.66453
 0.99194  0.31694  0.65444
 1.00000  0.30685  0.64435
 0.00000  0.53652  0.70527
 0.02018  0.52643  0.69518
 0.17883  0.51634  0.68509
 0.33749  0.50624  0.67499
 0.49615  0.49615  0.66490
 0.65481  0.48606  0.65481
 0.81347  0.47597  0.64472
 0.97213  0.46588  0.63463
 1.00000  0.45579  0.62454
 0.00000  0.68546  0.68546
 0.00037  0.67536  0.67536
 0.15902  0.66527  0.66527
 0.31768  0.65518  0.65518
 0.47634  0.64509  0.64509
 0.63500  0.63500  0.63500
 0.79366  0.62491  0.62491
 0.95232  0.61482  0.61482
 1.00000  0.60473  0.60473
 0.00000  0.83439  0.66565
 0.00000  0.82430  0.65555
 0.13921  0.81421  0.64546
 0.29787  0.80412  0.63537
 0.45653  0.79403  0.62528
 0.61519  0.78394  0.61519
 0.77385  0.77385  0.60510
 0.93251  0.76376  0.59501
 1.00000  0.75367  0.58491
 0.00000  0.98333  0.64583
 0.00000  0.97324  0.63574
 0.11940  0.96315  0.62565
 0.27806  0.95306  0.61556
 0.43672  0.94297  0.60547
 0.59538  0.93288  0.59538
 0.75404  0.92279  0.58529
 0.91270  0.91270  0.57520
 1.00000  0.90260  0.56510
 0.00000  1.00000  0.62602
 0.00000  1.00000  0.61593
 0.09959  1.00000  0.60584
 0.25825  1.00000  0.59575
 0.41691  1.00000  0.58566
 0.57557  1.00000  0.57557
 0.73422  1.00000  0.56547
 0.89288  1.00000  0.55538
 1.00000  1.00000  0.54529
 0.00000  0.00000  0.94942
 0.09557  0.00000  0.93932
 0.25423  0.00000  0.92923
 0.41289  0.00000  0.91914
 0.57155  0.00000  0.90905
 0.73021  0.00000  0.89896
 0.88887  0.00000  0.88887
 1.00000  0.00000  0.87878
 1.00000  0.00000  0.86868
 0.00000  0.08585  0.92960
 0.07576  0.07576  0.91951
 0.23442  0.06567  0.90942
 0.39308  0.05558  0.89933
 0.55174  0.04549  0.88924
 0.71040  0.03540  0.87915
 0.86906  0.02531  0.86906
 1.00000  0.01521  0.85896
 1.00000  0.00512  0.84887
 0.00000  0.23479  0.90979
 0.05595  0.22470  0.89970
 0.21461  0.21461  0.88961
 0.37327  0.20452  0.87952
 0.53193  0.19443  0.86943
 0.69059  0.18434  0.85934
 0.84925  0.17424  0.84925
 1.00000  0.16415  0.83915
 1.00000  0.15406  0.82906
 0.00000  0.38373  0.88998
 0.03614  0.37364  0.87989
 0.19480  0.36355  0.86980
 0.35346  0.35346  0.85971
 0.51212  0.34337  0.84962
 0.67078  0.33327  0.83953
 0.82943  0.32318  0.82943
 0.98809  0.31309  0.81934
 1.00000  0.30300  0.80925
 0.00000  0.53267  0.87017
 0.01633  0.52258  0.86008
 0.17499  0.51249  0.84999
 0.33365  0.50240  0.83990
 0.49230  0.49230  0.82980
 0.65096  0.48221  0.81971
 0.80962  0.47212  0.80962
 0.96828  0.46203  0.79953
 1.00000  0.45194  0.78944
 0.00000  0.68161  0.85036
 0.00000  0.67152  0.84027
 0.15518  0.66143  0.83018
 0.31383  0.65134  0.82009
 0.47249  0.64124  0.80999
 0.63115  0.63115  0.79990
 0.78981  0.62106  0.78981
 0.94847  0.61097  0.77972
 1.00000  0.60088  0.76963
 0.00000  0.83055  0.83055
 0.00000  0.82046  0.82046
 0.13536  0.81037  0.81037
 0.29402  0.80027  0.80027
 0.45268  0.79018  0.79018
 0.61134  0.78009  0.78009
 0.77000  0.77000  0.77000
 0.92866  0.75991  0.75991
 1.00000  0.74982  0.74982
 0.00000  0.97949  0.81074
 0.00000  0.96940  0.80065
 0.11555  0.95930  0.79055
 0.27421  0.94921  0.78046
 0.43287  0.93912  0.77037
 0.59153  0.92903  0.76028
 0.75019  0.91894  0.75019
 0.90885  0.90885  0.74010
 1.00000  0.89876  0.73001
 0.00000  1.00000  0.79093
 0.00000  1.00000  0.78083
 0.09574  1.00000  0.77074
 0.25440  1.00000  0.76065
 0.41306  1.00000  0.75056
 0.57172  1.00000  0.74047
 0.73038  1.00000  0.73038
 0.88904  1.00000  0.72029
 1.00000  1.00000  0.71020
 0.00000  0.00000  1.00000
 0.09173  0.00000  1.00000
 0.25038  0.00000  1.00000
 0.40904  0.00000  1.00000
 0.56770  0.00000  1.00000
 0.72636  0.00000  1.00000
 0.88502  0.00000  1.00000
 1.00000  0.00000  1.00000
 1.00000  0.00000  1.00000
 0.00000  0.08201  1.00000
 0.07191  0.07191  1.00000
 0.23057  0.06182  1.00000
 0.38923  0.05173  1.00000
 0.54789  0.04164  1.00000
 0.70655  0.03155  1.00000
 0.86521  0.02146  1.00000
 1.00000  0.01137  1.00000
 1.00000  0.00128  1.00000
 0.00000  0.23095  1.00000
 0.05210  0.22085  1.00000
 0.21076  0.21076  1.00000
 0.36942  0.20067  1.00000
 0.52808  0.19058  1.00000
 0.68674  0.18049  1.00000
 0.84540  0.17040  1.00000
 1.00000  0.16031  1.00000
 1.00000  0.15021  0.99396
 0.00000  0.37988  1.00000
 0.03229  0.36979  1.00000
 0.19095  0.35970  1.00000
 0.34961  0.34961  1.00000
 0.50827  0.33952  1.00000
 0.66693  0.32943  1.00000
 0.82559  0.31934  0.99434
 0.98425  0.30924  0.98425
 1.00000  0.29915  0.97415
 0.00000  0.52882  1.00000
 0.01248  0.51873  1.00000
 0.17114  0.50864  1.00000
 0.32980  0.49855  1.00000
 0.48846  0.48846  0.99471
 0.64712  0.47837  0.98462
 0.80578  0.46827  0.97453
 0.96443  0.45818  0.96443
 1.00000  0.44809  0.95434
 0.00000  0.67776  1.00000
 0.00000  0.66767  1.00000
 0.15133  0.65758  0.99508
 0.30999  0.64749  0.98499
 0.46865  0.63740  0.97490
 0.62731  0.62731  0.96480
 0.78596  0.61721  0.95471
 0.94462  0.60712  0.94462
 1.00000  0.59703  0.93453
 0.00000  0.82670  0.99545
 0.00000  0.81661  0.98536
 0.13152  0.80652  0.97527
 0.29018  0.79643  0.96518
 0.44883  0.78634  0.95509
 0.60749  0.77624  0.94499
 0.76615  0.76615  0.93490
 0.92481  0.75606  0.92481
 1.00000  0.74597  0.91472
 0.00000  0.97564  0.97564
 0.00000  0.96555  0.96555
 0.11171  0.95546  0.95546
 0.27036  0.94537  0.94537
 0.42902  0.93527  0.93527
 0.58768  0.92518  0.92518
 0.74634  0.91509  0.91509
 0.90500  0.90500  0.90500
 1.00000  0.89491  0.89491
 0.00000  1.00000  0.95583
 0.00000  1.00000  0.94574
 0.09190  1.00000  0.93565
 0.25055  1.00000  0.92555
 0.40921  1.00000  0.91546
 0.56787  1.00000  0.90537
 0.72653  1.00000  0.89528
 0.88519  1.00000  0.88519
 1.00000  1.00000  0.87510
 0.00000  0.00000  1.00000
 0.08788  0.00000  1.00000
 0.24654  0.00000  1.00000
 0.40520  0.00000  1.00000
 0.56385  0.00000  1.00000
 0.72251  0.00000  1.00000
 0.88117  0.00000  1.00000
 1.00000  0.00000  1.00000
 1.00000  0.00000  1.00000
 0.00000  0.07816  1.00000
 0.06807  0.06807  1.00000
 0.22673  0.05798  1.00000
 0.38538  0.04788  1.00000
 0.54404  0.03779  1.00000
 0.70270  0.02770  1.00000
 0.86136  0.01761  1.00000
 1.00000  0.00752  1.00000
 1.00000  0.00000  1.00000
 0.00000  0.22710  1.00000
 0.04826  0.21701  1.00000
 0.20692  0.20692  1.00000
 0.36557  0.19682  1.00000
 0.52423  0.18673  1.00000
 0.68289  0.17664  1.00000
 0.84155  0.16655  1.00000
 1.00000  0.15646  1.00000
 1.00000  0.14637  1.00000
 0.00000  0.37604  1.00000
 0.02844  0.36595  1.00000
 0.18710  0.35585  1.00000
 0.34576  0.34576  1.00000
 0.50442  0.33567  1.00000
 0.66308  0.32558  1.00000
 0.82174  0.31549  1.00000
 0.98040  0.30540  1.00000
 1.00000  0.29531  1.00000
 0.00000  0.52498  1.00000
 0.00863  0.51488  1.00000
 0.16729  0.50479  1.00000
 0.32595  0.49470  1.00000
 0.48461  0.48461  1.00000
 0.64327  0.47452  1.00000
 0.80193  0.46443  1.00000
 0.96059  0.45434  1.00000
 1.00000  0.44424  1.00000
 0.00000  0.67391  1.00000
 0.00000  0.66382  1.00000
 0.14748  0.65373  1.00000
 0.30614  0.64364  1.00000
 0.46480  0.63355  1.00000
 0.62346  0.62346  1.00000
 0.78212  0.61337  1.00000
 0.94078  0.60328  1.00000
 1.00000  0.59318  1.00000
 0.00000  0.82285  1.00000
 0.00000  0.81276  1.00000
 0.12767  0.80267  1.00000
 0.28633  0.79258  1.00000
 0.44499  0.78249  1.00000
 0.60365  0.77240  1.00000
 0.76231  0.76231  1.00000
 0.92096  0.75221  1.00000
 1.00000  0.74212  1.00000
 0.00000  0.97179  1.00000
 0.00000  0.96170  1.00000
 0.10786  0.95161  1.00000
 0.26652  0.94152  1.00000
 0.42518  0.93143  1.00000
 0.58384  0.92134  1.00000
 0.74249  0.91124  1.00000
 0.90115  0.90115  1.00000
 1.00000  0.89106  1.00000
 0.00000  1.00000  1.00000
 0.00000  1.00000  1.00000
 0.08805  1.00000  1.00000
 0.24671  1.00000  1.00000
 0.40537  1.00000  1.00000
 0.56402  1.00000  1.00000
 0.72268  1.00000  1.00000
 0.88134  1.00000  1.00000
 1.00000  1.00000  1.00000
